;PYCAM-META-DATA: Filename: V:\Portable\Documents\Fraesen2025\Aschenbecher\aschenbecher.stl
;PYCAM-META-DATA: Timestamp: 2025-12-11 20:24:26.375000
;PYCAM-META-DATA: Version: 0.5.1.1
;Estimated machine time: 15 minutes
G40 (disable tool radius compensation)
G49 (disable tool length compensation)
G80 (cancel modal motion)
G54 (select coordinate system 1)
G90 (disable incremental moves)
G21 (metric)
G61 (exact path mode)
F3000.00000
S3000.00000
;PYCAM_TOOLPATH_SETTINGS: START
;[Bounds]
;maxz = 10.0
;maxx = 32.0
;maxy = 32.0
;minx = -32.0
;miny = -32.0
;minz = -1.0
;
;[Tool]
;torus_radius = 0.25
;speed = 3000.0
;shape = SphericalCutter
;tool_radius = 1.0
;feedrate = 3000.0
;
;[SupportGrid]
;adjustments_x = 0,0,0,0,0
;adjustments_y = 0,0,0,0,0
;height = 5.0
;offset_x = 52.0
;offset_y = 27.0
;thickness = 4.0
;type = grid
;distance_x = 200.0
;distance_y = 54.0
;
;[Process]
;generator = PushCutter
;pocketing_type = none
;engrave_offset = 0.0
;milling_style = ignore
;path_direction = x
;step_down = 1.0
;postprocessor = SimpleCutter
;material_allowance = 0.5
;
;PYCAM_TOOLPATH_SETTINGS: END
T1 M6
G0 Z15.0
M3 (start spindle)
G04 P3 (wait for 3 seconds)
 X-32.0 Y-32.0
G1 Z10.0
 X32.0
 Y-30.6
 X-32.0
 Y-29.2
 X32.0
 Y-27.8
 X-32.0
 Y-26.4
 X32.0
 Y-25.0
 X-32.0
 Y-23.7
 X32.0
 Y-22.3
 X-32.0
 Y-20.9
 X32.0
 Y-19.5
 X-32.0
 Y-18.1
 X32.0
 Y-16.7
 X-32.0
 Y-15.3
 X32.0
 Y-13.9
 X-32.0
 Y-12.5
 X32.0
 Y-11.1
 X-32.0
 Y-9.7
 X32.0
 Y-8.3
 X-32.0
 Y-7.0
 X32.0
 Y-5.6
 X-32.0
 Y-4.2
 X32.0
 Y-2.8
 X-32.0
 Y-1.4
 X32.0
 Y0.0
 X-32.0
 Y1.4
 X32.0
 Y2.8
 X-32.0
 Y4.2
 X32.0
 Y5.6
 X-32.0
 Y7.0
 X32.0
 Y8.3
 X-32.0
 Y9.7
 X32.0
 Y11.1
 X-32.0
 Y12.5
 X32.0
 Y13.9
 X-32.0
 Y15.3
 X32.0
 Y16.7
 X-32.0
 Y18.1
 X32.0
 Y19.5
 X-32.0
 Y20.9
 X32.0
 Y22.3
 X-32.0
 Y23.7
 X32.0
 Y25.0
 X-32.0
 Y26.4
 X32.0
 Y27.8
 X-32.0
 Y29.2
 X32.0
 Y30.6
 X-32.0
 Y32.0
 X32.0
 Z9.0
 X-32.0
 Y30.6
 X32.0
 Y29.2
 X-32.0
 Y27.8
 X32.0
 Y26.4
 X-32.0
 Y25.0
 X32.0
 Y23.7
 X-32.0
 Y22.3
 X32.0
 Y20.9
 X-32.0
 Y19.5
 X32.0
 Y18.1
 X-32.0
 Y16.7
 X32.0
 Y15.3
 X-32.0
 Y13.9
 X32.0
 Y12.5
 X-32.0
 Y11.1
 X32.0
 Y9.7
 X-32.0
 Y8.3
 X32.0
 Y7.0
 X-32.0
 Y5.6
 X32.0
 Y4.2
 X-32.0
 Y2.8
 X32.0
 Y1.4
 X-32.0
 Y0.0
 X32.0
 Y-1.4
 X-32.0
 Y-2.8
 X32.0
 Y-4.2
 X-32.0
 Y-5.6
 X32.0
 Y-7.0
 X-32.0
 Y-8.3
 X32.0
 Y-9.7
 X-32.0
 Y-11.1
 X32.0
 Y-12.5
 X-32.0
 Y-13.9
 X32.0
 Y-15.3
 X-32.0
 Y-16.7
 X32.0
 Y-18.1
 X-32.0
 Y-19.5
 X32.0
 Y-20.9
 X-32.0
 Y-22.3
 X32.0
 Y-23.7
 X-32.0
 Y-25.0
 X32.0
 Y-26.4
 X-32.0
 Y-27.8
 X32.0
 Y-29.2
 X-32.0
 Y-30.6
 X32.0
 Y-32.0
 X-32.0
 Z8.0
 X32.0
 Y-30.6
 X-32.0
 Y-29.2
 X32.0
 Y-27.8
 X-32.0
 Y-26.4
 X32.0
 Y-25.0
 X-32.0
 Y-23.7
 X32.0
 Y-22.3
 X-32.0
 Y-20.9
 X32.0
 Y-19.5
 X-32.0
 Y-18.1
 X32.0
 Y-16.7
 X-32.0
 Y-15.3
 X32.0
 Y-13.9
 X-32.0
 Y-12.5
 X32.0
 Y-11.1
 X-32.0
 Y-9.7
 X32.0
 Y-8.3
 X-32.0
 Y-7.0
 X32.0
 Y-5.6
 X-32.0
 Y-4.2
 X32.0
 Y-2.8
 X-32.0
 Y-1.4
 X32.0
 Y0.0
 X-32.0
 Y1.4
 X32.0
 Y2.8
 X-32.0
 Y4.2
 X32.0
 Y5.6
 X-32.0
 Y7.0
 X32.0
 Y8.3
 X-32.0
 Y9.7
 X32.0
 Y11.1
 X-32.0
 Y12.5
 X32.0
 Y13.9
 X-32.0
 Y15.3
 X32.0
 Y16.7
 X-32.0
 Y18.1
 X32.0
 Y19.5
 X-32.0
 Y20.9
 X32.0
 Y22.3
 X-32.0
 Y23.7
 X32.0
 Y25.0
 X-32.0
 Y26.4
 X32.0
 Y27.8
 X-32.0
 Y29.2
 X32.0
 Y30.6
 X-32.0
 Y32.0
 X32.0
 Z7.0
 X-32.0
 Y30.6
 X32.0
 Y29.2
 X-32.0
 Y27.8
 X32.0
 Y26.4
 X-32.0
 Y25.0
 X32.0
 Y23.7
 X-32.0
 Y22.3
 X32.0
 Y20.9
 X-32.0
 Y19.5
 X32.0
 Y18.1
 X-32.0
 Y16.7
 X32.0
 Y15.3
 X-32.0
 Y13.9
 X32.0
 Y12.5
 X-32.0
 Y11.1
 X32.0
 Y9.7
 X-32.0
 Y8.3
 X32.0
 Y7.0
 X-32.0
 Y5.6
 X32.0
 Y4.2
 X-32.0
 Y2.8
 X32.0
 Y1.4
 X-32.0
 Y0.0
 X32.0
 Y-1.4
 X-32.0
 Y-2.8
 X32.0
 Y-4.2
 X-32.0
 Y-5.6
 X32.0
 Y-7.0
 X-32.0
 Y-8.3
 X32.0
 Y-9.7
 X-32.0
 Y-11.1
 X32.0
 Y-12.5
 X-32.0
 Y-13.9
 X32.0
 Y-15.3
 X-32.0
 Y-16.7
 X32.0
 Y-18.1
 X-32.0
 Y-19.5
 X32.0
 Y-20.9
 X-32.0
 Y-22.3
 X32.0
 Y-23.7
 X-32.0
 Y-25.0
 X32.0
 Y-26.4
 X-32.0
 Y-27.8
 X32.0
 Y-29.2
 X-32.0
 Y-30.6
 X32.0
 Y-32.0
 X-32.0
 Z6.0
 X32.0
 Y-30.6
 X-32.0
 Y-29.2
 X32.0
 Y-27.8
 X-32.0
 Y-26.4
 X32.0
 Y-25.0
 X-32.0
 Y-23.7
 X32.0
 Y-22.3
 X-32.0
 Y-20.9
 X32.0
 Y-19.5
 X-32.0
 Y-18.1
 X32.0
 Y-16.7
 X-32.0
 Y-15.3
 X32.0
 Y-13.9
 X-32.0
 Y-12.5
 X32.0
 Y-11.1
 X-32.0
 Y-9.7
 X32.0
 Y-8.3
 X-32.0
 Y-7.0
 X32.0
 Y-5.6
 X-32.0
 Y-4.2
 X32.0
 Y-2.8
 X-32.0
 Y-1.4
 X32.0
 Y0.0
 X-32.0
 Y1.4
 X32.0
 Y2.8
 X-32.0
 Y4.2
 X32.0
 Y5.6
 X-32.0
 Y7.0
 X32.0
 Y8.3
 X-32.0
 Y9.7
 X32.0
 Y11.1
 X-32.0
 Y12.5
 X32.0
 Y13.9
 X-32.0
 Y15.3
 X32.0
 Y16.7
 X-32.0
 Y18.1
 X32.0
 Y19.5
 X-32.0
 Y20.9
 X32.0
 Y22.3
 X-32.0
 Y23.7
 X32.0
 Y25.0
 X-32.0
 Y26.4
 X32.0
 Y27.8
 X-32.0
 Y29.2
 X32.0
 Y30.6
 X-32.0
 Y32.0
 X32.0
 Z5.0
 X-32.0
 Y30.6
 X32.0
 Y29.2
 X30.5
G0 Z15.0
 X-30.5
G1 Z5.0
 X-32.0
 Y27.8
 X-30.5
G0 Z15.0
 X30.5
G1 Z5.0
 X32.0
 Y26.4
 X30.5
G0 Z15.0
 X-30.5
G1 Z5.0
 X-32.0
 Y25.0
 X-30.5
G0 Z15.0
 X30.5
G1 Z5.0
 X32.0
 Y23.7
 X30.5
G0 Z15.0
 X9.5
G1 Z5.0
 X-24.5
G0 Z15.0
 X-30.5
G1 Z5.0
 X-32.0
 Y22.3
 X-30.5
G0 Z15.0
 X-24.5
G1 Z5.0
 X10.0
G0 Z15.0
 X30.0
G1 Z5.0
 X32.0
 Y20.9
 X-24.5
G0 Z15.0
 X-30.5
G1 Z5.0
 X-32.0
 Y19.5
 X-30.5
G0 Z15.0
 X-24.5
G1 Z5.0
 X32.0
 Y18.1
 X29.3
G0 Z15.0
 X10.7
G1 Z5.0
 X-24.5
G0 Z15.0
 X-30.5
G1 Z5.0
 X-32.0
 Y16.7
 X-30.5
G0 Z15.0
 X-24.5
G1 Z5.0
 X9.5
G0 Z15.0
 X30.5
G1 Z5.0
 X32.0
 Y15.3
 X30.5
G0 Z15.0
 X9.5
G1 Z5.0
 X-24.5
G0 Z15.0
 X-30.5
G1 Z5.0
 X-32.0
 Y13.9
 X-30.5
G0 Z15.0
 X-24.5
G1 Z5.0
 X24.5
G0 Z15.0
 X30.5
G1 Z5.0
 X32.0
 Y12.5
 X30.5
G0 Z15.0
 X24.5
G1 Z5.0
 X-24.5
G0 Z15.0
 X-30.5
G1 Z5.0
 X-32.0
 Y11.1
 X-30.5
G0 Z15.0
 X-24.5
G1 Z5.0
 X24.5
G0 Z15.0
 X30.5
G1 Z5.0
 X32.0
 Y9.7
 X30.5
G0 Z15.0
 X24.5
G1 Z5.0
 X-24.5
G0 Z15.0
 X-30.5
G1 Z5.0
 X-32.0
 Y8.3
 X-30.5
G0 Z15.0
 X-24.5
G1 Z5.0
 X24.5
G0 Z15.0
 X30.5
G1 Z5.0
 X32.0
 Y7.0
 X30.5
G0 Z15.0
 X24.5
G1 Z5.0
 X-24.5
G0 Z15.0
 X-30.5
G1 Z5.0
 X-32.0
 Y5.6
 X-30.5
G0 Z15.0
 X-24.5
G1 Z5.0
 X24.5
G0 Z15.0
 X30.5
G1 Z5.0
 X32.0
 Y4.2
 X30.5
G0 Z15.0
 X24.5
G1 Z5.0
 X-24.5
G0 Z15.0
 X-30.5
G1 Z5.0
 X-32.0
 Y2.8
 X-30.5
G0 Z15.0
 X-24.5
G1 Z5.0
 X24.5
G0 Z15.0
 X30.5
G1 Z5.0
 X32.0
 Y1.4
 X30.5
G0 Z15.0
 X24.5
G1 Z5.0
 X-24.5
G0 Z15.0
 X-30.5
G1 Z5.0
 X-32.0
 Y0.0
 X-30.5
G0 Z15.0
 X-24.5
G1 Z5.0
 X24.5
G0 Z15.0
 X30.5
G1 Z5.0
 X32.0
 Y-1.4
 X30.5
G0 Z15.0
 X24.5
G1 Z5.0
 X-24.5
G0 Z15.0
 X-30.5
G1 Z5.0
 X-32.0
 Y-2.8
 X-30.5
G0 Z15.0
 X-24.5
G1 Z5.0
 X24.5
G0 Z15.0
 X30.5
G1 Z5.0
 X32.0
 Y-4.2
 X30.5
G0 Z15.0
 X24.5
G1 Z5.0
 X-24.5
G0 Z15.0
 X-30.5
G1 Z5.0
 X-32.0
 Y-5.6
 X-30.5
G0 Z15.0
 X-24.5
G1 Z5.0
 X24.5
G0 Z15.0
 X30.5
G1 Z5.0
 X32.0
 Y-7.0
 X30.5
G0 Z15.0
 X24.5
G1 Z5.0
 X-24.5
G0 Z15.0
 X-30.5
G1 Z5.0
 X-32.0
 Y-8.3
 X-30.5
G0 Z15.0
 X-24.5
G1 Z5.0
 X24.5
G0 Z15.0
 X30.5
G1 Z5.0
 X32.0
 Y-9.7
 X30.5
G0 Z15.0
 X24.5
G1 Z5.0
 X-24.5
G0 Z15.0
 X-30.5
G1 Z5.0
 X-32.0
 Y-11.1
 X-30.5
G0 Z15.0
 X-24.5
G1 Z5.0
 X24.5
G0 Z15.0
 X30.5
G1 Z5.0
 X32.0
 Y-12.5
 X30.5
G0 Z15.0
 X24.5
G1 Z5.0
 X-24.5
G0 Z15.0
 X-30.5
G1 Z5.0
 X-32.0
 Y-13.9
 X-30.5
G0 Z15.0
 X-24.5
G1 Z5.0
 X24.5
G0 Z15.0
 X30.5
G1 Z5.0
 X32.0
 Y-15.3
 X30.5
G0 Z15.0
 X24.5
G1 Z5.0
 X-9.5
G0 Z15.0
 X-30.5
G1 Z5.0
 X-32.0
 Y-16.7
 X-30.5
G0 Z15.0
 X-9.5
G1 Z5.0
 X24.5
G0 Z15.0
 X30.5
G1 Z5.0
 X32.0
 Y-18.1
 X30.5
G0 Z15.0
 X24.5
G1 Z5.0
 X-10.7
G0 Z15.0
 X-29.3
G1 Z5.0
 X-32.0
 Y-19.5
 X24.5
G0 Z15.0
 X30.5
G1 Z5.0
 X32.0
 Y-20.9
 X30.5
G0 Z15.0
 X24.5
G1 Z5.0
 X-32.0
 Y-22.3
 X-30.0
G0 Z15.0
 X-10.0
G1 Z5.0
 X24.5
G0 Z15.0
 X30.5
G1 Z5.0
 X32.0
 Y-23.7
 X30.5
G0 Z15.0
 X24.5
G1 Z5.0
 X-9.5
G0 Z15.0
 X-30.5
G1 Z5.0
 X-32.0
 Y-25.0
 X-30.5
G0 Z15.0
 X30.5
G1 Z5.0
 X32.0
 Y-26.4
 X30.5
G0 Z15.0
 X-30.5
G1 Z5.0
 X-32.0
 Y-27.8
 X-30.5
G0 Z15.0
 X30.5
G1 Z5.0
 X32.0
 Y-29.2
 X30.5
G0 Z15.0
 X-30.5
G1 Z5.0
 X-32.0
 Y-30.6
 X32.0
 Y-32.0
 X-32.0
 Z4.0
 X32.0
 Y-30.6
 X31.1
G0 Z15.0
 X-31.1
G1 Z4.0
 X-32.0
G0 Z15.0
 Y-23.7
G1 Z4.0
 X-31.3
G0 Z15.0
 X-8.7
G1 Z4.0
 X23.7
G0 Z15.0
 X31.3
G1 Z4.0
 X32.0
 Y-22.3
 X31.3
G0 Z15.0
 X23.7
G1 Z4.0
 X-9.2
G0 Z15.0
 X-30.8
G1 Z4.0
 X-32.0
 Y-20.9
 X23.7
G0 Z15.0
 X31.3
G1 Z4.0
 X32.0
 Y-19.5
 X31.3
G0 Z15.0
 X23.7
G1 Z4.0
 X-32.0
 Y-18.1
 X-30.4
G0 Z15.0
 X-9.6
G1 Z4.0
 X23.7
G0 Z15.0
 X31.3
G1 Z4.0
 X32.0
 Y-16.7
 X31.3
G0 Z15.0
 X23.7
G1 Z4.0
 X-8.7
G0 Z15.0
 X-31.3
G1 Z4.0
 X-32.0
 Y-15.3
 X-31.3
G0 Z15.0
 X-8.7
G1 Z4.0
 X23.7
G0 Z15.0
 X31.3
G1 Z4.0
 X32.0
 Y-13.9
 X31.3
G0 Z15.0
 X23.7
G1 Z4.0
 X-9.4
G0 Z15.0
 X-31.3
G1 Z4.0
 X-32.0
 Y-12.5
 X-31.3
G0 Z15.0
 X-23.7
G1 Z4.0
 X23.7
G0 Z15.0
 X31.3
G1 Z4.0
 X32.0
 Y-11.1
 X31.3
G0 Z15.0
 X23.7
G1 Z4.0
 X-23.7
G0 Z15.0
 X-31.3
G1 Z4.0
 X-32.0
 Y-9.7
 X-31.3
G0 Z15.0
 X-23.7
G1 Z4.0
 X23.7
G0 Z15.0
 X31.3
G1 Z4.0
 X32.0
 Y-8.3
 X31.3
G0 Z15.0
 X23.7
G1 Z4.0
 X-23.7
G0 Z15.0
 X-31.3
G1 Z4.0
 X-32.0
 Y-7.0
 X-31.3
G0 Z15.0
 X-23.7
G1 Z4.0
 X23.7
G0 Z15.0
 X31.3
G1 Z4.0
 X32.0
 Y-5.6
 X31.3
G0 Z15.0
 X23.7
G1 Z4.0
 X-23.7
G0 Z15.0
 X-31.3
G1 Z4.0
 X-32.0
 Y-4.2
 X-31.3
G0 Z15.0
 X-23.7
G1 Z4.0
 X23.7
G0 Z15.0
 X31.3
G1 Z4.0
 X32.0
 Y-2.8
 X31.3
G0 Z15.0
 X23.7
G1 Z4.0
 X-23.7
G0 Z15.0
 X-31.3
G1 Z4.0
 X-32.0
 Y-1.4
 X-31.3
G0 Z15.0
 X-23.7
G1 Z4.0
 X23.7
G0 Z15.0
 X31.3
G1 Z4.0
 X32.0
 Y0.0
 X31.3
G0 Z15.0
 X23.7
G1 Z4.0
 X-23.7
G0 Z15.0
 X-31.3
G1 Z4.0
 X-32.0
 Y1.4
 X-31.3
G0 Z15.0
 X-23.7
G1 Z4.0
 X23.7
G0 Z15.0
 X31.3
G1 Z4.0
 X32.0
 Y2.8
 X31.3
G0 Z15.0
 X23.7
G1 Z4.0
 X-23.7
G0 Z15.0
 X-31.3
G1 Z4.0
 X-32.0
 Y4.2
 X-31.3
G0 Z15.0
 X-23.7
G1 Z4.0
 X23.7
G0 Z15.0
 X31.3
G1 Z4.0
 X32.0
 Y5.6
 X31.3
G0 Z15.0
 X23.7
G1 Z4.0
 X-23.7
G0 Z15.0
 X-31.3
G1 Z4.0
 X-32.0
 Y7.0
 X-31.3
G0 Z15.0
 X-23.7
G1 Z4.0
 X23.7
G0 Z15.0
 X31.3
G1 Z4.0
 X32.0
 Y8.3
 X31.3
G0 Z15.0
 X23.7
G1 Z4.0
 X-23.7
G0 Z15.0
 X-31.3
G1 Z4.0
 X-32.0
 Y9.7
 X-31.3
G0 Z15.0
 X-23.7
G1 Z4.0
 X23.7
G0 Z15.0
 X31.3
G1 Z4.0
 X32.0
 Y11.1
 X31.3
G0 Z15.0
 X23.7
G1 Z4.0
 X-23.7
G0 Z15.0
 X-31.3
G1 Z4.0
 X-32.0
 Y12.5
 X-31.3
G0 Z15.0
 X-23.7
G1 Z4.0
 X23.7
G0 Z15.0
 X31.3
G1 Z4.0
 X32.0
 Y13.9
 X31.3
G0 Z15.0
 X9.4
G1 Z4.0
 X-23.7
G0 Z15.0
 X-31.3
G1 Z4.0
 X-32.0
 Y15.3
 X-31.3
G0 Z15.0
 X-23.7
G1 Z4.0
 X8.7
G0 Z15.0
 X31.3
G1 Z4.0
 X32.0
 Y16.7
 X31.3
G0 Z15.0
 X8.7
G1 Z4.0
 X-23.7
G0 Z15.0
 X-31.3
G1 Z4.0
 X-32.0
 Y18.1
 X-31.3
G0 Z15.0
 X-23.7
G1 Z4.0
 X9.6
G0 Z15.0
 X30.4
G1 Z4.0
 X32.0
 Y19.5
 X-23.7
G0 Z15.0
 X-31.3
G1 Z4.0
 X-32.0
 Y20.9
 X-31.3
G0 Z15.0
 X-23.7
G1 Z4.0
 X32.0
 Y22.3
 X30.8
G0 Z15.0
 X9.2
G1 Z4.0
 X-23.7
G0 Z15.0
 X-31.3
G1 Z4.0
 X-32.0
 Y23.7
 X-31.3
G0 Z15.0
 X-23.7
G1 Z4.0
 X8.7
G0 Z15.0
 X31.3
G1 Z4.0
 X32.0
G0 Z15.0
 Y30.6
G1 Z4.0
 X31.1
G0 Z15.0
 X-31.1
G1 Z4.0
 X-32.0
 Y32.0
 X32.0
 Z3.0
 X-32.0
 Y30.6
 X-31.4
G0 Z15.0
 X31.4
G1 Z3.0
 X32.0
G0 Z15.0
 X-32.0 Y22.3
G1 Z3.0
 X-31.5
G0 Z15.0
 X-23.5
G1 Z3.0
 X9.0
G0 Z15.0
 X31.0
G1 Z3.0
 X32.0
 Y20.9
 X-23.5
G0 Z15.0
 X-31.5
G1 Z3.0
 X-32.0
 Y19.5
 X-31.5
G0 Z15.0
 X-23.5
G1 Z3.0
 X32.0
 Y18.1
 X30.7
G0 Z15.0
 X9.3
G1 Z3.0
 X-23.5
G0 Z15.0
 X-31.5
G1 Z3.0
 X-32.0
 Y16.7
 X-31.5
G0 Z15.0
 X-23.5
G1 Z3.0
 X8.6
G0 Z15.0
 X31.4
G1 Z3.0
 X32.0
 Y15.3
 X31.5
G0 Z15.0
 X8.5
G1 Z3.0
 X-23.5
G0 Z15.0
 X-31.5
G1 Z3.0
 X-32.0
 Y13.9
 X-31.5
G0 Z15.0
 X-23.5
G1 Z3.0
 X9.0
G0 Z15.0
 X31.5
G1 Z3.0
 X32.0
 Y12.5
 X31.5
G0 Z15.0
 X23.5
G1 Z3.0
 X-23.5
G0 Z15.0
 X-31.5
G1 Z3.0
 X-32.0
 Y11.1
 X-31.5
G0 Z15.0
 X-23.5
G1 Z3.0
 X23.5
G0 Z15.0
 X31.5
G1 Z3.0
 X32.0
 Y9.7
 X31.5
G0 Z15.0
 X23.5
G1 Z3.0
 X-23.5
G0 Z15.0
 X-31.5
G1 Z3.0
 X-32.0
 Y8.3
 X-31.5
G0 Z15.0
 X-23.5
G1 Z3.0
 X23.5
G0 Z15.0
 X31.5
G1 Z3.0
 X32.0
 Y7.0
 X31.5
G0 Z15.0
 X23.5
G1 Z3.0
 X-23.5
G0 Z15.0
 X-31.5
G1 Z3.0
 X-32.0
 Y5.6
 X-31.5
G0 Z15.0
 X-23.5
G1 Z3.0
 X23.5
G0 Z15.0
 X31.5
G1 Z3.0
 X32.0
 Y4.2
 X31.5
G0 Z15.0
 X23.5
G1 Z3.0
 X-23.5
G0 Z15.0
 X-31.5
G1 Z3.0
 X-32.0
 Y2.8
 X-31.5
G0 Z15.0
 X-23.5
G1 Z3.0
 X23.5
G0 Z15.0
 X31.5
G1 Z3.0
 X32.0
 Y1.4
 X31.5
G0 Z15.0
 X23.5
G1 Z3.0
 X-23.5
G0 Z15.0
 X-31.5
G1 Z3.0
 X-32.0
 Y0.0
 X-31.5
G0 Z15.0
 X-23.5
G1 Z3.0
 X23.5
G0 Z15.0
 X31.5
G1 Z3.0
 X32.0
 Y-1.4
 X31.5
G0 Z15.0
 X23.5
G1 Z3.0
 X-23.5
G0 Z15.0
 X-31.5
G1 Z3.0
 X-32.0
 Y-2.8
 X-31.5
G0 Z15.0
 X-23.5
G1 Z3.0
 X23.5
G0 Z15.0
 X31.5
G1 Z3.0
 X32.0
 Y-4.2
 X31.5
G0 Z15.0
 X23.5
G1 Z3.0
 X-23.5
G0 Z15.0
 X-31.5
G1 Z3.0
 X-32.0
 Y-5.6
 X-31.5
G0 Z15.0
 X-23.5
G1 Z3.0
 X23.5
G0 Z15.0
 X31.5
G1 Z3.0
 X32.0
 Y-7.0
 X31.5
G0 Z15.0
 X23.5
G1 Z3.0
 X-23.5
G0 Z15.0
 X-31.5
G1 Z3.0
 X-32.0
 Y-8.3
 X-31.5
G0 Z15.0
 X-23.5
G1 Z3.0
 X23.5
G0 Z15.0
 X31.5
G1 Z3.0
 X32.0
 Y-9.7
 X31.5
G0 Z15.0
 X23.5
G1 Z3.0
 X-23.5
G0 Z15.0
 X-31.5
G1 Z3.0
 X-32.0
 Y-11.1
 X-31.5
G0 Z15.0
 X-23.5
G1 Z3.0
 X23.5
G0 Z15.0
 X31.5
G1 Z3.0
 X32.0
 Y-12.5
 X31.5
G0 Z15.0
 X23.5
G1 Z3.0
 X-23.5
G0 Z15.0
 X-31.5
G1 Z3.0
 X-32.0
 Y-13.9
 X-31.5
G0 Z15.0
 X-9.0
G1 Z3.0
 X23.5
G0 Z15.0
 X31.5
G1 Z3.0
 X32.0
 Y-15.3
 X31.5
G0 Z15.0
 X23.5
G1 Z3.0
 X-8.5
G0 Z15.0
 X-31.5
G1 Z3.0
 X-32.0
 Y-16.7
 X-31.4
G0 Z15.0
 X-8.6
G1 Z3.0
 X23.5
G0 Z15.0
 X31.5
G1 Z3.0
 X32.0
 Y-18.1
 X31.5
G0 Z15.0
 X23.5
G1 Z3.0
 X-9.3
G0 Z15.0
 X-30.7
G1 Z3.0
 X-32.0
 Y-19.5
 X23.5
G0 Z15.0
 X31.5
G1 Z3.0
 X32.0
 Y-20.9
 X31.5
G0 Z15.0
 X23.5
G1 Z3.0
 X-32.0
 Y-22.3
 X-31.0
G0 Z15.0
 X-9.0
G1 Z3.0
 X23.5
G0 Z15.0
 X31.5
G1 Z3.0
 X32.0
G0 Z15.0
 X-32.0 Y-30.6
G1 Z3.0
 X-31.4
G0 Z15.0
 X31.4
G1 Z3.0
 X32.0
 Y-32.0
 X-32.0
 Z2.0
 X32.0
 Y-30.6
 X31.4
G0 Z15.0
 X-31.4
G1 Z2.0
 X-32.0
G0 Z15.0
 X32.0 Y-22.3
G1 Z2.0
 X31.5
G0 Z15.0
 X23.5
G1 Z2.0
 X-8.7
G0 Z15.0
 X-31.3
G1 Z2.0
 X-32.0
 Y-20.9
 X-30.7
G0 Z15.0
 X-9.3
G1 Z2.0
 X23.5
G0 Z15.0
 X31.5
G1 Z2.0
 X32.0
 Y-19.5
 X31.5
G0 Z15.0
 X23.5
G1 Z2.0
 X-9.4
G0 Z15.0
 X-30.6
G1 Z2.0
 X-32.0
 Y-18.1
 X-31.2
G0 Z15.0
 X-8.8
G1 Z2.0
 X23.5
G0 Z15.0
 X31.5
G1 Z2.0
 X32.0
 Y-16.7
 X31.5
G0 Z15.0
 X23.5
G1 Z2.0
 X-8.5
G0 Z15.0
 X-31.5
G1 Z2.0
 X-32.0
 Y-15.3
 X-31.5
G0 Z15.0
 X-8.5
G1 Z2.0
 X23.5
G0 Z15.0
 X31.5
G1 Z2.0
 X32.0
 Y-13.9
 X31.5
G0 Z15.0
 X23.5
G1 Z2.0
 X-9.0
G0 Z15.0
 X-31.5
G1 Z2.0
 X-32.0
 Y-12.5
 X-31.5
G0 Z15.0
 X-23.5
G1 Z2.0
 X23.5
G0 Z15.0
 X31.5
G1 Z2.0
 X32.0
 Y-11.1
 X31.5
G0 Z15.0
 X23.5
G1 Z2.0
 X-23.5
G0 Z15.0
 X-31.5
G1 Z2.0
 X-32.0
 Y-9.7
 X-31.5
G0 Z15.0
 X-23.5
G1 Z2.0
 X23.5
G0 Z15.0
 X31.5
G1 Z2.0
 X32.0
 Y-8.3
 X31.5
G0 Z15.0
 X23.5
G1 Z2.0
 X-23.5
G0 Z15.0
 X-31.5
G1 Z2.0
 X-32.0
 Y-7.0
 X-31.5
G0 Z15.0
 X-23.5
G1 Z2.0
 X23.5
G0 Z15.0
 X31.5
G1 Z2.0
 X32.0
 Y-5.6
 X31.5
G0 Z15.0
 X23.5
G1 Z2.0
 X-23.5
G0 Z15.0
 X-31.5
G1 Z2.0
 X-32.0
 Y-4.2
 X-31.5
G0 Z15.0
 X-23.5
G1 Z2.0
 X23.5
G0 Z15.0
 X31.5
G1 Z2.0
 X32.0
 Y-2.8
 X31.5
G0 Z15.0
 X23.5
G1 Z2.0
 X-23.5
G0 Z15.0
 X-31.5
G1 Z2.0
 X-32.0
 Y-1.4
 X-31.5
G0 Z15.0
 X-23.5
G1 Z2.0
 X23.5
G0 Z15.0
 X31.5
G1 Z2.0
 X32.0
 Y0.0
 X31.5
G0 Z15.0
 X23.5
G1 Z2.0
 X-23.5
G0 Z15.0
 X-31.5
G1 Z2.0
 X-32.0
 Y1.4
 X-31.5
G0 Z15.0
 X-23.5
G1 Z2.0
 X23.5
G0 Z15.0
 X31.5
G1 Z2.0
 X32.0
 Y2.8
 X31.5
G0 Z15.0
 X23.5
G1 Z2.0
 X-23.5
G0 Z15.0
 X-31.5
G1 Z2.0
 X-32.0
 Y4.2
 X-31.5
G0 Z15.0
 X-23.5
G1 Z2.0
 X23.5
G0 Z15.0
 X31.5
G1 Z2.0
 X32.0
 Y5.6
 X31.5
G0 Z15.0
 X23.5
G1 Z2.0
 X-23.5
G0 Z15.0
 X-31.5
G1 Z2.0
 X-32.0
 Y7.0
 X-31.5
G0 Z15.0
 X-23.5
G1 Z2.0
 X23.5
G0 Z15.0
 X31.5
G1 Z2.0
 X32.0
 Y8.3
 X31.5
G0 Z15.0
 X23.5
G1 Z2.0
 X-23.5
G0 Z15.0
 X-31.5
G1 Z2.0
 X-32.0
 Y9.7
 X-31.5
G0 Z15.0
 X-23.5
G1 Z2.0
 X23.5
G0 Z15.0
 X31.5
G1 Z2.0
 X32.0
 Y11.1
 X31.5
G0 Z15.0
 X23.5
G1 Z2.0
 X-23.5
G0 Z15.0
 X-31.5
G1 Z2.0
 X-32.0
 Y12.5
 X-31.5
G0 Z15.0
 X-23.5
G1 Z2.0
 X23.5
G0 Z15.0
 X31.5
G1 Z2.0
 X32.0
 Y13.9
 X31.5
G0 Z15.0
 X9.0
G1 Z2.0
 X-23.5
G0 Z15.0
 X-31.5
G1 Z2.0
 X-32.0
 Y15.3
 X-31.5
G0 Z15.0
 X-23.5
G1 Z2.0
 X8.5
G0 Z15.0
 X31.5
G1 Z2.0
 X32.0
 Y16.7
 X31.5
G0 Z15.0
 X8.5
G1 Z2.0
 X-23.5
G0 Z15.0
 X-31.5
G1 Z2.0
 X-32.0
 Y18.1
 X-31.5
G0 Z15.0
 X-23.5
G1 Z2.0
 X8.8
G0 Z15.0
 X31.2
G1 Z2.0
 X32.0
 Y19.5
 X30.6
G0 Z15.0
 X9.4
G1 Z2.0
 X-23.5
G0 Z15.0
 X-31.5
G1 Z2.0
 X-32.0
 Y20.9
 X-31.5
G0 Z15.0
 X-23.5
G1 Z2.0
 X9.3
G0 Z15.0
 X30.7
G1 Z2.0
 X32.0
 Y22.3
 X31.3
G0 Z15.0
 X8.7
G1 Z2.0
 X-23.5
G0 Z15.0
 X-31.5
G1 Z2.0
 X-32.0
G0 Z15.0
 X32.0 Y30.6
G1 Z2.0
 X31.4
G0 Z15.0
 X-31.4
G1 Z2.0
 X-32.0
 Y32.0
 X32.0
 Z1.0
 X-32.0
 Y30.6
 X-31.4
G0 Z15.0
 X31.4
G1 Z1.0
 X32.0
G0 Z15.0
 X-32.0 Y22.3
G1 Z1.0
 X-31.5
G0 Z15.0
 X-23.5
G1 Z1.0
 X8.5
G0 Z15.0
 X31.5
G1 Z1.0
 X32.0
 Y20.9
 X31.3
G0 Z15.0
 X8.7
G1 Z1.0
 X-23.5
G0 Z15.0
 X-31.5
G1 Z1.0
 X-32.0
 Y19.5
 X-31.5
G0 Z15.0
 X-23.5
G1 Z1.0
 X8.7
G0 Z15.0
 X31.3
G1 Z1.0
 X32.0
 Y18.1
 X31.5
G0 Z15.0
 X8.5
G1 Z1.0
 X-23.5
G0 Z15.0
 X-31.5
G1 Z1.0
 X-32.0
 Y16.7
 X-31.5
G0 Z15.0
 X-23.5
G1 Z1.0
 X8.5
G0 Z15.0
 X31.5
G1 Z1.0
 X32.0
 Y15.3
 X31.5
G0 Z15.0
 X8.5
G1 Z1.0
 X-23.5
G0 Z15.0
 X-31.5
G1 Z1.0
 X-32.0
 Y13.9
 X-31.5
G0 Z15.0
 X-23.5
G1 Z1.0
 X9.0
G0 Z15.0
 X31.5
G1 Z1.0
 X32.0
 Y12.5
 X31.5
G0 Z15.0
 X23.5
G1 Z1.0
 X-23.5
G0 Z15.0
 X-31.5
G1 Z1.0
 X-32.0
 Y11.1
 X-31.5
G0 Z15.0
 X-23.5
G1 Z1.0
 X23.5
G0 Z15.0
 X31.5
G1 Z1.0
 X32.0
 Y9.7
 X31.5
G0 Z15.0
 X23.5
G1 Z1.0
 X-23.5
G0 Z15.0
 X-31.5
G1 Z1.0
 X-32.0
 Y8.3
 X-31.5
G0 Z15.0
 X-23.5
G1 Z1.0
 X23.5
G0 Z15.0
 X31.5
G1 Z1.0
 X32.0
 Y7.0
 X31.5
G0 Z15.0
 X23.5
G1 Z1.0
 X-23.5
G0 Z15.0
 X-31.5
G1 Z1.0
 X-32.0
 Y5.6
 X-31.5
G0 Z15.0
 X-23.5
G1 Z1.0
 X23.5
G0 Z15.0
 X31.5
G1 Z1.0
 X32.0
 Y4.2
 X31.5
G0 Z15.0
 X23.5
G1 Z1.0
 X-23.5
G0 Z15.0
 X-31.5
G1 Z1.0
 X-32.0
 Y2.8
 X-31.5
G0 Z15.0
 X-23.5
G1 Z1.0
 X23.5
G0 Z15.0
 X31.5
G1 Z1.0
 X32.0
 Y1.4
 X31.5
G0 Z15.0
 X23.5
G1 Z1.0
 X-23.5
G0 Z15.0
 X-31.5
G1 Z1.0
 X-32.0
 Y0.0
 X-31.5
G0 Z15.0
 X-23.5
G1 Z1.0
 X23.5
G0 Z15.0
 X31.5
G1 Z1.0
 X32.0
 Y-1.4
 X31.5
G0 Z15.0
 X23.5
G1 Z1.0
 X-23.5
G0 Z15.0
 X-31.5
G1 Z1.0
 X-32.0
 Y-2.8
 X-31.5
G0 Z15.0
 X-23.5
G1 Z1.0
 X23.5
G0 Z15.0
 X31.5
G1 Z1.0
 X32.0
 Y-4.2
 X31.5
G0 Z15.0
 X23.5
G1 Z1.0
 X-23.5
G0 Z15.0
 X-31.5
G1 Z1.0
 X-32.0
 Y-5.6
 X-31.5
G0 Z15.0
 X-23.5
G1 Z1.0
 X23.5
G0 Z15.0
 X31.5
G1 Z1.0
 X32.0
 Y-7.0
 X31.5
G0 Z15.0
 X23.5
G1 Z1.0
 X-23.5
G0 Z15.0
 X-31.5
G1 Z1.0
 X-32.0
 Y-8.3
 X-31.5
G0 Z15.0
 X-23.5
G1 Z1.0
 X23.5
G0 Z15.0
 X31.5
G1 Z1.0
 X32.0
 Y-9.7
 X31.5
G0 Z15.0
 X23.5
G1 Z1.0
 X-23.5
G0 Z15.0
 X-31.5
G1 Z1.0
 X-32.0
 Y-11.1
 X-31.5
G0 Z15.0
 X-23.5
G1 Z1.0
 X23.5
G0 Z15.0
 X31.5
G1 Z1.0
 X32.0
 Y-12.5
 X31.5
G0 Z15.0
 X23.5
G1 Z1.0
 X-23.5
G0 Z15.0
 X-31.5
G1 Z1.0
 X-32.0
 Y-13.9
 X-31.5
G0 Z15.0
 X-9.0
G1 Z1.0
 X23.5
G0 Z15.0
 X31.5
G1 Z1.0
 X32.0
 Y-15.3
 X31.5
G0 Z15.0
 X23.5
G1 Z1.0
 X-8.5
G0 Z15.0
 X-31.5
G1 Z1.0
 X-32.0
 Y-16.7
 X-31.5
G0 Z15.0
 X-8.5
G1 Z1.0
 X23.5
G0 Z15.0
 X31.5
G1 Z1.0
 X32.0
 Y-18.1
 X31.5
G0 Z15.0
 X23.5
G1 Z1.0
 X-8.5
G0 Z15.0
 X-31.5
G1 Z1.0
 X-32.0
 Y-19.5
 X-31.3
G0 Z15.0
 X-8.7
G1 Z1.0
 X23.5
G0 Z15.0
 X31.5
G1 Z1.0
 X32.0
 Y-20.9
 X31.5
G0 Z15.0
 X23.5
G1 Z1.0
 X-8.7
G0 Z15.0
 X-31.3
G1 Z1.0
 X-32.0
 Y-22.3
 X-31.5
G0 Z15.0
 X-8.5
G1 Z1.0
 X23.5
G0 Z15.0
 X31.5
G1 Z1.0
 X32.0
G0 Z15.0
 X-32.0 Y-30.6
G1 Z1.0
 X-31.4
G0 Z15.0
 X31.4
G1 Z1.0
 X32.0
 Y-32.0
 X-32.0
 Z0.0
 X32.0
 Y-30.6
 X31.4
G0 Z15.0
 X-31.4
G1 Z0.0
 X-32.0
G0 Z15.0
 X32.0 Y-22.3
G1 Z0.0
 X31.5
G0 Z15.0
 X-31.5
G1 Z0.0
 X-32.0
 Y-20.9
 X-31.5
G0 Z15.0
 X31.5
G1 Z0.0
 X32.0
 Y-19.5
 X31.5
G0 Z15.0
 X-31.5
G1 Z0.0
 X-32.0
 Y-18.1
 X-31.5
G0 Z15.0
 X31.5
G1 Z0.0
 X32.0
 Y-16.7
 X31.5
G0 Z15.0
 X-31.5
G1 Z0.0
 X-32.0
 Y-15.3
 X-31.5
G0 Z15.0
 X31.5
G1 Z0.0
 X32.0
 Y-13.9
 X31.5
G0 Z15.0
 X-31.5
G1 Z0.0
 X-32.0
 Y-12.5
 X-31.5
G0 Z15.0
 X31.5
G1 Z0.0
 X32.0
 Y-11.1
 X31.5
G0 Z15.0
 X-31.5
G1 Z0.0
 X-32.0
 Y-9.7
 X-31.5
G0 Z15.0
 X31.5
G1 Z0.0
 X32.0
 Y-8.3
 X31.5
G0 Z15.0
 X-31.5
G1 Z0.0
 X-32.0
 Y-7.0
 X-31.5
G0 Z15.0
 X31.5
G1 Z0.0
 X32.0
 Y-5.6
 X31.5
G0 Z15.0
 X-31.5
G1 Z0.0
 X-32.0
 Y-4.2
 X-31.5
G0 Z15.0
 X31.5
G1 Z0.0
 X32.0
 Y-2.8
 X31.5
G0 Z15.0
 X-31.5
G1 Z0.0
 X-32.0
 Y-1.4
 X-31.5
G0 Z15.0
 X31.5
G1 Z0.0
 X32.0
 Y0.0
 X31.5
G0 Z15.0
 X-31.5
G1 Z0.0
 X-32.0
 Y1.4
 X-31.5
G0 Z15.0
 X31.5
G1 Z0.0
 X32.0
 Y2.8
 X31.5
G0 Z15.0
 X-31.5
G1 Z0.0
 X-32.0
 Y4.2
 X-31.5
G0 Z15.0
 X31.5
G1 Z0.0
 X32.0
 Y5.6
 X31.5
G0 Z15.0
 X-31.5
G1 Z0.0
 X-32.0
 Y7.0
 X-31.5
G0 Z15.0
 X31.5
G1 Z0.0
 X32.0
 Y8.3
 X31.5
G0 Z15.0
 X-31.5
G1 Z0.0
 X-32.0
 Y9.7
 X-31.5
G0 Z15.0
 X31.5
G1 Z0.0
 X32.0
 Y11.1
 X31.5
G0 Z15.0
 X-31.5
G1 Z0.0
 X-32.0
 Y12.5
 X-31.5
G0 Z15.0
 X31.5
G1 Z0.0
 X32.0
 Y13.9
 X31.5
G0 Z15.0
 X-31.5
G1 Z0.0
 X-32.0
 Y15.3
 X-31.5
G0 Z15.0
 X31.5
G1 Z0.0
 X32.0
 Y16.7
 X31.5
G0 Z15.0
 X-31.5
G1 Z0.0
 X-32.0
 Y18.1
 X-31.5
G0 Z15.0
 X31.5
G1 Z0.0
 X32.0
 Y19.5
 X31.5
G0 Z15.0
 X-31.5
G1 Z0.0
 X-32.0
 Y20.9
 X-31.5
G0 Z15.0
 X31.5
G1 Z0.0
 X32.0
 Y22.3
 X31.5
G0 Z15.0
 X-31.5
G1 Z0.0
 X-32.0
G0 Z15.0
 X32.0 Y30.6
G1 Z0.0
 X31.4
G0 Z15.0
 X-31.4
G1 Z0.0
 X-32.0
 Y32.0
 X32.0
 Z-1.0
 X-32.0
 Y30.6
 X-31.4
G0 Z15.0
 X31.4
G1 Z-1.0
 X32.0
G0 Z15.0
 X-32.0 Y22.3
G1 Z-1.0
 X-31.5
G0 Z15.0
 X31.5
G1 Z-1.0
 X32.0
 Y20.9
 X31.5
G0 Z15.0
 X-31.5
G1 Z-1.0
 X-32.0
 Y19.5
 X-31.5
G0 Z15.0
 X31.5
G1 Z-1.0
 X32.0
 Y18.1
 X31.5
G0 Z15.0
 X-31.5
G1 Z-1.0
 X-32.0
 Y16.7
 X-31.5
G0 Z15.0
 X31.5
G1 Z-1.0
 X32.0
 Y15.3
 X31.5
G0 Z15.0
 X-31.5
G1 Z-1.0
 X-32.0
 Y13.9
 X-31.5
G0 Z15.0
 X31.5
G1 Z-1.0
 X32.0
 Y12.5
 X31.5
G0 Z15.0
 X-31.5
G1 Z-1.0
 X-32.0
 Y11.1
 X-31.5
G0 Z15.0
 X31.5
G1 Z-1.0
 X32.0
 Y9.7
 X31.5
G0 Z15.0
 X-31.5
G1 Z-1.0
 X-32.0
 Y8.3
 X-31.5
G0 Z15.0
 X31.5
G1 Z-1.0
 X32.0
 Y7.0
 X31.5
G0 Z15.0
 X-31.5
G1 Z-1.0
 X-32.0
 Y5.6
 X-31.5
G0 Z15.0
 X31.5
G1 Z-1.0
 X32.0
 Y4.2
 X31.5
G0 Z15.0
 X-31.5
G1 Z-1.0
 X-32.0
 Y2.8
 X-31.5
G0 Z15.0
 X31.5
G1 Z-1.0
 X32.0
 Y1.4
 X31.5
G0 Z15.0
 X-31.5
G1 Z-1.0
 X-32.0
 Y0.0
 X-31.5
G0 Z15.0
 X31.5
G1 Z-1.0
 X32.0
 Y-1.4
 X31.5
G0 Z15.0
 X-31.5
G1 Z-1.0
 X-32.0
 Y-2.8
 X-31.5
G0 Z15.0
 X31.5
G1 Z-1.0
 X32.0
 Y-4.2
 X31.5
G0 Z15.0
 X-31.5
G1 Z-1.0
 X-32.0
 Y-5.6
 X-31.5
G0 Z15.0
 X31.5
G1 Z-1.0
 X32.0
 Y-7.0
 X31.5
G0 Z15.0
 X-31.5
G1 Z-1.0
 X-32.0
 Y-8.3
 X-31.5
G0 Z15.0
 X31.5
G1 Z-1.0
 X32.0
 Y-9.7
 X31.5
G0 Z15.0
 X-31.5
G1 Z-1.0
 X-32.0
 Y-11.1
 X-31.5
G0 Z15.0
 X31.5
G1 Z-1.0
 X32.0
 Y-12.5
 X31.5
G0 Z15.0
 X-31.5
G1 Z-1.0
 X-32.0
 Y-13.9
 X-31.5
G0 Z15.0
 X31.5
G1 Z-1.0
 X32.0
 Y-15.3
 X31.5
G0 Z15.0
 X-31.5
G1 Z-1.0
 X-32.0
 Y-16.7
 X-31.5
G0 Z15.0
 X31.5
G1 Z-1.0
 X32.0
 Y-18.1
 X31.5
G0 Z15.0
 X-31.5
G1 Z-1.0
 X-32.0
 Y-19.5
 X-31.5
G0 Z15.0
 X31.5
G1 Z-1.0
 X32.0
 Y-20.9
 X31.5
G0 Z15.0
 X-31.5
G1 Z-1.0
 X-32.0
 Y-22.3
 X-31.5
G0 Z15.0
 X31.5
G1 Z-1.0
 X32.0
G0 Z15.0
 X-32.0 Y-30.6
G1 Z-1.0
 X-31.4
G0 Z15.0
 X31.4
G1 Z-1.0
 X32.0
 Y-32.0
 X-32.0
G0 Z15.0
M5 (stop spindle)
G04 P3 (wait for 3 seconds)
G0 Z15.0
M2 (end program)
