;PYCAM-META-DATA: Filename: V:\Portable\Documents\Fraesen2025\Aschenbecher\aschenbecher.stl
;PYCAM-META-DATA: Timestamp: 2025-12-11 20:40:58.562000
;PYCAM-META-DATA: Version: 0.5.1.1
;Estimated machine time: 4 minutes
G40 (disable tool radius compensation)
G49 (disable tool length compensation)
G80 (cancel modal motion)
G54 (select coordinate system 1)
G90 (disable incremental moves)
G21 (metric)
G61 (exact path mode)
F3000.00000
S3000.00000
;PYCAM_TOOLPATH_SETTINGS: START
;[Bounds]
;maxz = 10.0
;maxx = 32.0
;maxy = 32.0
;minx = -32.0
;miny = -32.0
;minz = -1.0
;
;[Tool]
;torus_radius = 0.25
;speed = 3000.0
;shape = SphericalCutter
;tool_radius = 1.0
;feedrate = 3000.0
;
;[SupportGrid]
;adjustments_x = 0,0,0,0,0
;adjustments_y = 0,0,0,0,0
;height = 1.0
;offset_x = 52.0
;offset_y = 27.0
;thickness = 4.0
;type = grid
;distance_x = 200.0
;distance_y = 54.0
;
;[Process]
;generator = DropCutter
;pocketing_type = none
;engrave_offset = 0.0
;milling_style = ignore
;path_direction = x
;step_down = 3.0
;postprocessor = PathAccumulator
;overlap_percent = 80
;material_allowance = 0.0
;
;PYCAM_TOOLPATH_SETTINGS: END
T1 M6
G0 Z15.0
M3 (start spindle)
G04 P3 (wait for 3 seconds)
 X-32.0 Y-32.0
G1 Z-1.0
 X32.0
 Y-31.6
 X-32.0
 Y-31.2
 X32.0
 Y-30.8
 X-32.0
 Y-30.4
 X-30.6
 X-30.5 Z-0.9
 X-30.4
 Z-0.8
 X-30.3
 Z-0.7
 X-30.2
 X-30.1
 X-30.0 Z-0.6
 X-29.9
 X-29.8
 X-29.5
 X29.7
 X29.8
 X29.9
 X30.0
 X30.1 Z-0.7
 X30.2
 X30.3
 Z-0.8
 X30.4
 Z-0.9
 X30.5
 Z-1.0
 X30.6
 X32.0
 Y-30.0
 X30.8
 X30.6 Z-0.9
 Z-0.8
 X30.5 Z-0.7
 X30.4 Z-0.6
 X30.3
 Z-0.5
 X30.2
 X30.1 Z-0.4
 X30.0
 X29.9 Z-0.3
 X29.8
 X29.5
 X-29.5
 X-29.6
 X-29.7
 X-29.8
 X-29.9
 Z-0.4
 X-30.0
 X-30.1
 X-30.2 Z-0.5
 X-30.3
 X-30.4 Z-0.6
 Z-0.7
 X-30.5
 X-30.6 Z-0.9
 X-30.7
 Z-1.0
 X-30.8
 X-32.0
G0 Z15.0
 Y-29.6
G1 Z-0.2
 X-30.0
 X-29.8
 X-29.7
 X-29.6 Z-0.1
 X-29.5
 X-29.3
 X29.3
 X29.4
 X29.5
 X29.8 Z-0.2
 X29.9
 X32.0
G0 Z15.0
 Y-29.2
G1 Z-0.0
 X29.5
 X29.3
 X29.0
 X-29.0
 X-29.3
 X-29.5
 X-32.0
G0 Z15.0
 Y-28.8
G1 Z0.0
 X32.0
 Y-28.4
 X-32.0
 Y-28.0
 X32.0
 Y-27.6
 X-32.0
 Y-27.2
 X32.0
 Y-26.8
 X-32.0
 Y-26.4
 X32.0
 Y-26.0
 X-32.0
 Y-25.6
 X-25.8
 Z3.1
 Z3.2
 X-25.7 Z3.3
 Z3.4
 Z3.5
 X-25.6 Z3.6
 Z3.7
 X-25.5
 Z3.8
 X-25.4 Z3.9
 X-25.3 Z4.0
 X-25.2
 Z4.1
 X-25.1
 X-25.0
 X-24.9
 X-24.8
 X9.8
 X9.9
 X10.0
 X10.1
 X10.2
 Z4.0
 X10.3
 Z3.9
 X10.4
 X10.5 Z3.8
 Z3.7
 X10.6
 Z3.6
 X10.7 Z3.5
 Z3.3
 X10.8 Z3.2
 Z3.1
 Z0.0
 X32.0
 Y-25.2
 X11.0
 X10.9 Z3.3
 Z3.5
 Z3.6
 X10.8 Z3.7
 Z3.8
 X10.7 Z3.9
 Z4.0
 X10.6
 Z4.1
 X10.5
 Z4.2
 X10.4
 Z4.3
 X10.3
 Z4.4
 X10.1
 Z4.5
 X10.0
 X9.9
 X9.8
 Z4.6
 X9.5
 X-24.5
 X-24.6
 X-24.7
 X-24.8
 Z4.5
 X-24.9
 X-25.0
 X-25.1 Z4.4
 X-25.2
 X-25.3
 Z4.3
 X-25.4
 Z4.2
 X-25.5
 X-25.6 Z4.1
 Z4.0
 X-25.7 Z3.9
 X-25.8 Z3.8
 Z3.7
 X-25.9 Z3.6
 Z3.5
 Z3.4
 Z3.3
 X-26.0 Z3.1
 Z0.0
 X-32.0
G0 Z15.0
 Y-24.8
G1 Z-0.0
 X-29.3
 X-29.0
 X-26.0
 X-25.9 Z3.5
 Z3.6
 Z3.7
 X-25.8 Z3.8
 Z3.9
 Z4.0
 X-25.7 Z4.1
 X-25.6 Z4.2
 X-25.5 Z4.3
 X-25.4 Z4.4
 X-25.3 Z4.5
 X-25.1 Z4.6
 X-25.0 Z4.7
 X-24.9
 X-24.8 Z4.8
 X-24.6
 X-24.5
 X-24.3
 X9.4
 X9.5
 X9.6
 X9.7
 X9.8
 Z4.7
 X9.9
 X10.0
 X10.1 Z4.6
 X10.2
 Z4.5
 X10.3
 X10.4 Z4.4
 X10.5 Z4.3
 X10.6 Z4.2
 X10.7 Z4.1
 Z4.0
 X10.8
 Z3.8
 X10.9 Z3.7
 Z3.6
 Z3.5
 X11.0 Z3.3
 Z3.2
 Z3.1
 Z3.0
 Z0.0
 X29.0
 X29.3
 X32.0
G0 Z15.0
 Y-24.4
G1 Z-0.2
 X29.8
 Z-0.1
 X29.6
 X29.5
 X29.4 Z-0.0
 X29.3
 X29.0
 X11.0
 X10.9 Z3.5
 Z3.6
 Z3.7
 X10.8 Z3.8
 Z3.9
 Z4.0
 X10.7 Z4.1
 X10.6 Z4.2
 X10.5 Z4.3
 X10.4 Z4.4
 Z4.5
 X10.3 Z4.6
 X10.2
 X10.1 Z4.7
 X10.0
 X9.9 Z4.8
 X9.8
 Z4.9
 X9.7
 X9.6
 X9.5
 X9.4
 X9.3
 X9.0
 X-24.2
 X-24.3
 X-24.4
 X-24.5
 X-24.6
 X-24.7
 X-24.8
 X-24.9 Z4.8
 X-25.0 Z4.7
 X-25.1
 X-25.3 Z4.6
 Z4.5
 X-25.4
 Z4.4
 X-25.5 Z4.3
 X-25.6 Z4.2
 X-25.7 Z4.1
 Z4.0
 X-25.8
 Z3.8
 X-25.9 Z3.7
 Z3.6
 Z3.5
 X-26.0 Z3.3
 Z3.2
 Z3.1
 Z3.0
 Z0.0
 X-29.0
 X-29.1
 X-29.3
 X-29.4
 X-29.5 Z-0.1
 X-29.6
 X-29.7
 X-29.8
 X-30.0 Z-0.2
 X-32.0
G0 Z15.0
 Y-24.0
G1 Z-0.7
 X-30.5
 X-30.4 Z-0.6
 Z-0.5
 X-30.3
 Z-0.4
 X-30.2
 X-30.1 Z-0.3
 X-30.0
 X-29.9 Z-0.2
 X-29.8
 Z-0.1
 X-29.6
 X-29.5
 X-29.4 Z-0.0
 X-29.3
 X-29.0
 X-26.0
 X-25.9 Z3.5
 Z3.6
 Z3.7
 X-25.8 Z3.8
 Z3.9
 Z4.0
 X-25.7 Z4.1
 X-25.6 Z4.2
 X-25.5 Z4.3
 X-25.4 Z4.4
 Z4.5
 X-25.3 Z4.6
 X-25.2
 X-25.1 Z4.7
 X-25.0
 X-24.9 Z4.8
 X-24.8
 Z4.9
 X-24.6
 X-24.5
 X-24.4 Z5.0
 X-24.3
 X-24.0
 X9.0
 X9.1
 X9.3
 X9.4
 X9.5 Z4.9
 X9.6
 X9.7
 X9.8
 X9.9 Z4.8
 X10.0 Z4.7
 X10.1
 X10.3 Z4.6
 Z4.5
 X10.4
 Z4.4
 X10.5 Z4.3
 X10.6 Z4.2
 X10.7 Z4.1
 Z4.0
 X10.8
 Z3.8
 X10.9 Z3.7
 Z3.6
 Z3.5
 X11.0 Z3.3
 Z3.2
 Z3.1
 Z3.0
 Z0.0
 X29.0
 X29.1
 X29.2
 X29.3
 X29.4
 X29.5 Z-0.1
 X29.6
 X29.7
 X29.8
 X29.9 Z-0.2
 X30.0 Z-0.3
 X30.1
 X30.2 Z-0.4
 X30.3
 Z-0.5
 X30.4
 Z-0.6
 X30.5
 Z-0.7
 X30.8
 X32.0
G0 Z15.0
 Y-23.7
G1 Z-1.0
 X30.8
 X30.6 Z-0.8
 X30.5 Z-0.7
 X30.4 Z-0.6
 Z-0.5
 X30.3
 Z-0.4
 X30.1 Z-0.3
 X30.0
 Z-0.2
 Z-0.1
 X29.9
 Z-0.0
 X29.8 Z0.1
 Z0.2
 X29.6 Z0.3
 Z0.4
 X29.5
 X29.4 Z0.5
 X29.3
 Z0.6
 X29.2
 X29.1
 X29.0
 X28.8
 X25.3
 X25.0
 X11.0
 Z3.2
 Z3.3
 X10.9 Z3.5
 Z3.6
 Z3.7
 X10.8 Z3.8
 Z3.9
 Z4.0
 X10.7 Z4.1
 X10.6 Z4.2
 X10.5 Z4.3
 X10.4 Z4.4
 Z4.5
 X10.3 Z4.6
 X10.2
 X10.1 Z4.7
 X10.0
 X9.9 Z4.8
 X9.8
 Z4.9
 X9.6
 X9.5
 X9.4 Z5.0
 X9.3
 X9.0
 X-24.0
 X-24.1
 X-24.3
 X-24.4
 X-24.5 Z4.9
 X-24.6
 X-24.7
 X-24.8
 X-24.9 Z4.8
 X-25.0 Z4.7
 X-25.1
 X-25.3 Z4.6
 Z4.5
 X-25.4
 Z4.4
 X-25.5 Z4.3
 X-25.6 Z4.2
 X-25.7 Z4.1
 Z4.0
 X-25.8
 Z3.8
 X-25.9 Z3.7
 Z3.6
 Z3.5
 X-26.0 Z3.3
 Z3.2
 Z3.1
 Z3.0
 Z0.0
 X-29.0
 X-29.1
 X-29.3
 X-29.4
 X-29.5 Z-0.1
 X-29.6
 X-29.7
 X-29.8
 X-29.9 Z-0.2
 X-30.0 Z-0.3
 X-30.1
 X-30.2 Z-0.4
 X-30.3
 Z-0.5
 X-30.4
 X-30.5 Z-0.7
 X-30.6 Z-0.8
 X-30.7 Z-0.9
 Z-1.0
 X-32.0
 Y-23.3
 X-30.8
 X-30.6 Z-0.8
 X-30.5 Z-0.7
 X-30.4 Z-0.6
 Z-0.5
 X-30.3
 Z-0.4
 X-30.2
 X-30.1 Z-0.3
 X-30.0
 X-29.9 Z-0.2
 X-29.8
 Z-0.1
 X-29.6
 X-29.5
 X-29.4 Z-0.0
 X-29.3
 X-29.0
 X-26.0
 X-25.9 Z3.5
 Z3.6
 Z3.7
 X-25.8 Z3.8
 Z3.9
 Z4.0
 X-25.7 Z4.1
 X-25.6 Z4.2
 X-25.5 Z4.3
 X-25.4 Z4.4
 Z4.5
 X-25.3 Z4.6
 X-25.2
 X-25.1 Z4.7
 X-25.0
 X-24.9 Z4.8
 X-24.8
 Z4.9
 X-24.6
 X-24.5
 X-24.4 Z5.0
 X-24.3
 X-24.0
 X9.0
 X9.1
 X9.3
 X9.4
 X9.5 Z4.9
 X9.6
 X9.7
 X9.8
 X9.9 Z4.8
 X10.0 Z4.7
 X10.1
 X10.3 Z4.6
 Z4.5
 X10.4
 Z4.4
 X10.5 Z4.3
 X10.6 Z4.2
 X10.7 Z4.1
 Z4.0
 X10.8
 Z3.8
 X10.9 Z3.7
 Z3.6
 Z3.5
 X11.0 Z3.4
 Z3.3
 Z3.2
 Z3.1
 Z3.0
 Z1.3
 X28.9
 X29.0
 X29.1
 X29.2
 X29.3
 X29.4
 Z1.2
 X29.5
 X29.6 Z1.1
 X29.7
 X29.8 Z1.0
 X29.9 Z0.9
 X30.0 Z0.8
 X30.1 Z0.7
 Z0.6
 X30.2
 Z0.5
 X30.3 Z0.4
 Z0.3
 Z0.2
 X30.4
 Z0.1
 Z0.0
 Z-0.1
 X30.5
 Z-0.2
 Z-0.3
 Z-0.7
 X30.6 Z-0.8
 X30.7 Z-0.9
 Z-1.0
 X32.0
 Y-22.9
 X31.0
 X30.8 Z-0.2
 X30.7 Z0.1
 Z0.3
 X30.6 Z0.4
 Z0.5
 X30.5 Z0.7
 X30.4 Z0.8
 Z0.9
 X30.3 Z1.0
 Z1.1
 X30.2 Z1.2
 X30.1 Z1.3
 X30.0 Z1.4
 X29.9 Z1.5
 X29.8
 Z1.6
 X29.6
 X29.5 Z1.7
 X29.4
 X29.3 Z1.8
 X29.2
 X29.1
 X29.0
 X11.0
 Z3.2
 Z3.3
 X10.9 Z3.5
 Z3.6
 Z3.7
 X10.8 Z3.8
 Z3.9
 Z4.0
 X10.7 Z4.1
 X10.6 Z4.2
 X10.5 Z4.3
 X10.4 Z4.4
 Z4.5
 X10.3 Z4.6
 X10.2
 X10.1 Z4.7
 X10.0
 X9.9 Z4.8
 X9.8
 Z4.9
 X9.6
 X9.5
 X9.4 Z5.0
 X9.3
 X9.0
 X-24.0
 X-24.1
 X-24.3
 X-24.4
 X-24.5 Z4.9
 X-24.6
 X-24.7
 X-24.8
 X-24.9 Z4.8
 X-25.0 Z4.7
 X-25.1
 X-25.3 Z4.6
 Z4.5
 X-25.4
 Z4.4
 X-25.5 Z4.3
 X-25.6 Z4.2
 X-25.7 Z4.1
 Z4.0
 X-25.8
 Z3.8
 X-25.9 Z3.7
 Z3.6
 Z3.5
 X-26.0 Z3.3
 Z3.2
 Z3.1
 Z3.0
 Z0.0
 X-29.0
 X-29.1
 X-29.3
 X-29.4
 X-29.5 Z-0.1
 X-29.6
 X-29.7
 X-29.8
 X-29.9 Z-0.2
 X-30.0 Z-0.3
 X-30.1
 X-30.2 Z-0.4
 X-30.3
 Z-0.5
 X-30.4
 X-30.5 Z-0.7
 X-30.6 Z-0.8
 X-30.7 Z-0.9
 Z-1.0
 X-32.0
 Y-22.5
 X-30.8
 X-30.6 Z-0.8
 X-30.5 Z-0.7
 X-30.4 Z-0.6
 Z-0.5
 X-30.3
 Z-0.4
 X-30.2
 X-30.1 Z-0.3
 X-30.0
 X-29.9 Z-0.2
 X-29.8
 Z-0.1
 X-29.6
 X-29.5
 X-29.4 Z-0.0
 X-29.3
 X-29.0
 X-26.0
 X-25.9 Z3.5
 Z3.6
 Z3.7
 X-25.8 Z3.8
 Z3.9
 Z4.0
 X-25.7 Z4.1
 X-25.6 Z4.2
 X-25.5 Z4.3
 X-25.4 Z4.4
 Z4.5
 X-25.3 Z4.6
 X-25.2
 X-25.1 Z4.7
 X-25.0
 X-24.9 Z4.8
 X-24.8
 Z4.9
 X-24.6
 X-24.5
 X-24.4 Z5.0
 X-24.3
 X-24.0
 X9.0
 X9.1
 X9.3
 X9.4
 X9.5 Z4.9
 X9.6
 X9.7
 X9.8
 X9.9 Z4.8
 X10.0 Z4.7
 X10.1
 X10.3 Z4.6
 Z4.5
 X10.4
 Z4.4
 X10.5 Z4.3
 X10.6 Z4.2
 X10.7 Z4.1
 Z4.0
 X10.8
 Z3.8
 X10.9 Z3.7
 Z3.6
 Z3.5
 X11.0 Z3.4
 Z3.3
 Z3.2
 Z3.1
 Z3.0
 Z2.1
 X29.0
 X29.1
 X29.2
 X29.3
 X29.4
 X29.5
 X29.6 Z2.0
 X29.7
 X29.8
 X29.9 Z1.9
 X30.0 Z1.8
 X30.1 Z1.7
 X30.2 Z1.6
 X30.3
 Z1.5
 X30.4 Z1.4
 Z1.3
 X30.5 Z1.2
 X30.6 Z1.0
 X30.7 Z0.9
 Z0.8
 Z0.7
 X30.8 Z0.6
 Z0.4
 X30.9 Z0.1
 Z-0.2
 Z-0.4
 Z-0.5
 Z-0.7
 Z-0.8
 Z-0.9
 Z-1.0
 X32.0
 Y-22.1
 X31.0
 X30.9 Z0.4
 Z0.6
 Z0.7
 X30.8 Z0.9
 Z1.0
 Z1.1
 X30.7 Z1.3
 X30.6 Z1.4
 Z1.5
 X30.5 Z1.6
 X30.4 Z1.7
 Z1.8
 X30.3 Z1.9
 X30.2 Z2.0
 X30.1
 Z2.1
 X30.0
 X29.9 Z2.2
 X29.8
 Z2.3
 X29.6
 X29.5
 X29.4 Z2.4
 X29.3
 X29.1
 X29.0
 X28.8
 X11.1
 X11.0
 Z3.2
 Z3.3
 X10.9 Z3.5
 Z3.6
 Z3.7
 X10.8 Z3.8
 Z3.9
 Z4.0
 X10.7 Z4.1
 X10.6 Z4.2
 X10.5 Z4.3
 X10.4 Z4.4
 Z4.5
 X10.3 Z4.6
 X10.2
 X10.1 Z4.7
 X10.0
 X9.9 Z4.8
 X9.8
 Z4.9
 X9.6
 X9.5
 X9.4 Z5.0
 X9.3
 X9.0
 X-24.0
 X-24.1
 X-24.3
 X-24.4
 X-24.5 Z4.9
 X-24.6
 X-24.7
 X-24.8
 X-24.9 Z4.8
 X-25.0 Z4.7
 X-25.1
 X-25.3 Z4.6
 Z4.5
 X-25.4
 Z4.4
 X-25.5 Z4.3
 X-25.6 Z4.2
 X-25.7 Z4.1
 Z4.0
 X-25.8
 Z3.8
 X-25.9 Z3.7
 Z3.6
 Z3.5
 X-26.0 Z3.3
 Z3.2
 Z3.1
 Z3.0
 Z0.0
 X-29.0
 X-29.1
 X-29.3
 X-29.4
 X-29.5 Z-0.1
 X-29.6
 X-29.7
 X-29.8
 X-29.9 Z-0.2
 X-30.0 Z-0.3
 X-30.1
 X-30.2 Z-0.4
 X-30.3
 Z-0.5
 X-30.4
 X-30.5 Z-0.7
 X-30.6 Z-0.8
 X-30.7 Z-0.9
 Z-1.0
 X-32.0
 Y-21.7
 X-30.8
 X-30.6 Z-0.8
 X-30.5 Z-0.7
 X-30.4 Z-0.6
 Z-0.5
 X-30.3
 Z-0.4
 X-30.2
 X-30.1 Z-0.3
 X-30.0
 X-29.9 Z-0.2
 X-29.8
 Z-0.1
 X-29.6
 X-29.5
 X-29.4 Z-0.0
 X-29.3
 X-29.0
 X-26.0
 X-25.9 Z3.5
 Z3.6
 Z3.7
 X-25.8 Z3.8
 Z3.9
 Z4.0
 X-25.7 Z4.1
 X-25.6 Z4.2
 X-25.5 Z4.3
 X-25.4 Z4.4
 Z4.5
 X-25.3 Z4.6
 X-25.2
 X-25.1 Z4.7
 X-25.0
 X-24.9 Z4.8
 X-24.8
 Z4.9
 X-24.6
 X-24.5
 X-24.4 Z5.0
 X-24.3
 X-24.0
 X9.0
 X9.1
 X9.3
 X9.4
 X9.5 Z4.9
 X9.6
 X9.7
 X9.8
 X9.9 Z4.8
 X10.0 Z4.7
 X10.1
 X10.3 Z4.6
 Z4.5
 X10.4
 Z4.4
 X10.5 Z4.3
 X10.6 Z4.2
 X10.7 Z4.1
 Z4.0
 X10.8
 Z3.8
 X10.9 Z3.7
 Z3.6
 Z3.5
 X11.0 Z3.4
 Z3.3
 Z3.2
 Z3.1
 Z3.0
 Z2.6
 X29.0
 X29.1
 X29.3
 X29.4
 X29.5
 X29.6 Z2.5
 X29.7
 X29.8
 X29.9 Z2.4
 X30.0 Z2.3
 X30.1
 Z2.2
 X30.3 Z2.1
 Z2.0
 X30.4
 Z1.9
 X30.5
 X30.6 Z1.7
 X30.7 Z1.6
 Z1.5
 X30.8 Z1.4
 Z1.3
 Z1.2
 X30.9
 Z1.1
 Z1.0
 Z0.9
 Z0.8
 X31.0 Z0.7
 Z0.4
 Z0.3
 Z0.2
 Z0.1
 Z-1.0
 X32.0
 Y-21.3
 X31.0
 Z0.8
 Z0.9
 Z1.0
 X30.9 Z1.1
 Z1.2
 Z1.3
 Z1.4
 X30.8 Z1.5
 Z1.6
 Z1.7
 X30.7 Z1.8
 X30.6 Z1.9
 Z2.0
 X30.5
 Z2.1
 X30.4
 Z2.2
 X30.3 Z2.3
 X30.2 Z2.4
 X30.1
 X30.0 Z2.5
 X29.9 Z2.6
 X29.8
 X29.6 Z2.7
 X29.5
 X29.4
 X29.3 Z2.8
 X29.1
 X29.0
 X28.8
 X11.0
 Z3.2
 Z3.3
 X10.9 Z3.5
 Z3.6
 Z3.7
 X10.8 Z3.8
 Z3.9
 Z4.0
 X10.7 Z4.1
 X10.6 Z4.2
 X10.5 Z4.3
 X10.4 Z4.4
 Z4.5
 X10.3 Z4.6
 X10.2
 X10.1 Z4.7
 X10.0
 X9.9 Z4.8
 X9.8
 Z4.9
 X9.6
 X9.5
 X9.4 Z5.0
 X9.3
 X9.0
 X-24.0
 X-24.1
 X-24.3
 X-24.4
 X-24.5 Z4.9
 X-24.6
 X-24.7
 X-24.8
 X-24.9 Z4.8
 X-25.0 Z4.7
 X-25.1
 X-25.3 Z4.6
 Z4.5
 X-25.4
 Z4.4
 X-25.5 Z4.3
 X-25.6 Z4.2
 X-25.7 Z4.1
 Z4.0
 X-25.8
 Z3.8
 X-25.9 Z3.7
 Z3.6
 Z3.5
 X-26.0 Z3.3
 Z3.2
 Z3.1
 Z3.0
 Z0.0
 X-29.0
 X-29.1
 X-29.3
 X-29.4
 X-29.5 Z-0.1
 X-29.6
 X-29.7
 X-29.8
 X-29.9 Z-0.2
 X-30.0 Z-0.3
 X-30.1
 X-30.2 Z-0.4
 X-30.3
 Z-0.5
 X-30.4
 X-30.5 Z-0.7
 X-30.6 Z-0.8
 X-30.7 Z-0.9
 Z-1.0
 X-32.0
 Y-20.9
 X-30.8
 X-30.6 Z-0.8
 X-30.5 Z-0.7
 X-30.4 Z-0.6
 Z-0.5
 X-30.3
 Z-0.4
 X-30.2
 X-30.1 Z-0.3
 X-30.0
 X-29.9 Z-0.2
 X-29.8
 Z-0.1
 X-29.6
 X-29.5
 X-29.4 Z-0.0
 X-29.3
 X-29.0
 X-26.0
 X-25.9 Z3.5
 Z3.6
 Z3.7
 X-25.8 Z3.8
 Z3.9
 Z4.0
 X-25.7 Z4.1
 X-25.6 Z4.2
 X-25.5 Z4.3
 X-25.4 Z4.4
 Z4.5
 X-25.3 Z4.6
 X-25.2
 X-25.1 Z4.7
 X-25.0
 X-24.9 Z4.8
 X-24.8
 Z4.9
 X-24.6
 X-24.5
 X-24.4 Z5.0
 X-24.3
 X-24.0
 X9.0
 X9.1
 X9.3
 X9.4
 X9.5 Z4.9
 X9.6
 X9.7
 X9.8
 X9.9 Z4.8
 X10.0 Z4.7
 X10.1
 X10.3 Z4.6
 Z4.5
 X10.4
 Z4.4
 X10.5 Z4.3
 X10.6 Z4.2
 X10.7 Z4.1
 Z4.0
 X10.8
 Z3.8
 X10.9 Z3.7
 Z3.6
 Z3.5
 X11.0 Z3.4
 Z3.3
 Z3.2
 Z3.1
 Z3.0
 Z2.9
 X29.0
 X29.1
 X29.3
 X29.4
 X29.5 Z2.8
 X29.6
 X29.7
 X29.8 Z2.7
 X29.9
 X30.0 Z2.6
 X30.1
 Z2.5
 X30.3 Z2.4
 X30.4 Z2.3
 X30.5 Z2.2
 X30.6 Z2.1
 Z2.0
 X30.7
 Z1.9
 X30.8 Z1.8
 Z1.7
 Z1.6
 X30.9
 Z1.5
 Z1.4
 Z1.3
 X31.0
 Z1.2
 Z1.0
 Z0.9
 Z0.8
 Z-1.0
 X32.0
 Y-20.5
 X31.0
 Z1.2
 Z1.3
 X30.9 Z1.4
 Z1.5
 Z1.6
 X30.8 Z1.7
 Z1.8
 Z1.9
 X30.7 Z2.0
 Z2.1
 X30.6
 Z2.2
 X30.5 Z2.3
 X30.4
 Z2.4
 X30.3 Z2.5
 X30.2 Z2.6
 X30.1
 X30.0 Z2.7
 X29.9 Z2.8
 X29.8
 X29.6 Z2.9
 X29.5
 X29.4
 X29.3
 X29.0 Z3.0
 X28.8
 X11.0
 Z3.2
 Z3.3
 X10.9 Z3.5
 Z3.6
 Z3.7
 X10.8 Z3.8
 Z3.9
 Z4.0
 X10.7 Z4.1
 X10.6 Z4.2
 X10.5 Z4.3
 X10.4 Z4.4
 Z4.5
 X10.3 Z4.6
 X10.2
 X10.1 Z4.7
 X10.0
 X9.9 Z4.8
 X9.8
 Z4.9
 X9.6
 X9.5
 X9.4 Z5.0
 X9.3
 X9.0
 X-24.0
 X-24.1
 X-24.3
 X-24.4
 X-24.5 Z4.9
 X-24.6
 X-24.7
 X-24.8
 X-24.9 Z4.8
 X-25.0 Z4.7
 X-25.1
 X-25.3 Z4.6
 Z4.5
 X-25.4
 Z4.4
 X-25.5 Z4.3
 X-25.6 Z4.2
 X-25.7 Z4.1
 Z4.0
 X-25.8
 Z3.8
 X-25.9 Z3.7
 Z3.6
 Z3.5
 X-26.0 Z3.3
 Z3.2
 Z3.1
 Z3.0
 Z0.0
 X-29.0
 X-29.1
 X-29.3
 X-29.4
 X-29.5 Z-0.1
 X-29.6
 X-29.7
 X-29.8
 X-29.9 Z-0.2
 X-30.0 Z-0.3
 X-30.1
 X-30.2 Z-0.4
 X-30.3
 Z-0.5
 X-30.4
 X-30.5 Z-0.7
 X-30.6 Z-0.8
 X-30.7 Z-0.9
 Z-1.0
 X-32.0
 Y-20.1
 X-30.8
 X-30.6 Z-0.8
 X-30.5 Z-0.7
 X-30.4 Z-0.6
 Z-0.5
 X-30.3
 Z-0.4
 X-30.2
 X-30.1 Z-0.3
 X-30.0
 X-29.9 Z-0.2
 X-29.8
 Z-0.1
 X-29.6
 X-29.5
 X-29.4 Z-0.0
 X-29.3
 X-29.0
 X-26.0
 X-25.9 Z3.5
 Z3.6
 Z3.7
 X-25.8 Z3.8
 Z3.9
 Z4.0
 X-25.7 Z4.1
 X-25.6 Z4.2
 X-25.5 Z4.3
 X-25.4 Z4.4
 Z4.5
 X-25.3 Z4.6
 X-25.2
 X-25.1 Z4.7
 X-25.0
 X-24.9 Z4.8
 X-24.8
 Z4.9
 X-24.6
 X-24.5
 X-24.4 Z5.0
 X-24.3
 X-24.0
 X9.0
 X9.1
 X9.3
 X9.4
 X9.5 Z4.9
 X9.6
 X9.7
 X9.8
 X9.9 Z4.8
 X10.0 Z4.7
 X10.1
 X10.3 Z4.6
 Z4.5
 X10.4
 Z4.4
 X10.5 Z4.3
 X10.6 Z4.2
 X10.7 Z4.1
 Z4.0
 X10.8
 Z3.8
 X10.9 Z3.7
 Z3.6
 Z3.5
 X11.0 Z3.4
 Z3.3
 Z3.2
 Z3.1
 Z3.0
 X29.0
 X29.1
 X29.3
 X29.4
 X29.5 Z2.9
 X29.6
 X29.7
 X29.8
 X29.9 Z2.8
 X30.0 Z2.7
 X30.1
 X30.3 Z2.6
 Z2.5
 X30.4 Z2.4
 X30.5 Z2.3
 X30.6 Z2.2
 X30.7 Z2.1
 Z2.0
 X30.8
 Z1.8
 X30.9 Z1.7
 Z1.6
 Z1.5
 X31.0 Z1.4
 Z1.3
 Z1.2
 Z1.1
 Z1.0
 Z-1.0
 X32.0
 Y-19.7
 X31.0
 Z1.2
 Z1.3
 X30.9 Z1.5
 Z1.6
 Z1.7
 X30.8
 Z1.8
 Z1.9
 X30.7 Z2.0
 Z2.1
 X30.6
 Z2.2
 X30.5 Z2.3
 X30.4 Z2.4
 X30.3 Z2.5
 X30.2 Z2.6
 X30.1
 X30.0 Z2.7
 X29.9 Z2.8
 X29.8
 X29.6 Z2.9
 X29.5
 X29.4
 X29.3 Z3.0
 X29.0
 X28.8
 X11.0
 Z3.2
 Z3.3
 X10.9 Z3.5
 Z3.6
 Z3.7
 X10.8 Z3.8
 Z3.9
 Z4.0
 X10.7 Z4.1
 X10.6 Z4.2
 X10.5 Z4.3
 X10.4 Z4.4
 Z4.5
 X10.3 Z4.6
 X10.2
 X10.1 Z4.7
 X10.0
 X9.9 Z4.8
 X9.8
 Z4.9
 X9.6
 X9.5
 X9.4 Z5.0
 X9.3
 X9.0
 X-24.0
 X-24.1
 X-24.3
 X-24.4
 X-24.5 Z4.9
 X-24.6
 X-24.7
 X-24.8
 X-24.9 Z4.8
 X-25.0 Z4.7
 X-25.1
 X-25.3 Z4.6
 Z4.5
 X-25.4
 Z4.4
 X-25.5 Z4.3
 X-25.6 Z4.2
 X-25.7 Z4.1
 Z4.0
 X-25.8
 Z3.8
 X-25.9 Z3.7
 Z3.6
 Z3.5
 X-26.0 Z3.3
 Z3.2
 Z3.1
 Z3.0
 Z0.0
 X-29.0
 X-29.1
 X-29.3
 X-29.4
 X-29.5 Z-0.1
 X-29.6
 X-29.7
 X-29.8
 X-29.9 Z-0.2
 X-30.0 Z-0.3
 X-30.1
 X-30.2 Z-0.4
 X-30.3
 Z-0.5
 X-30.4
 X-30.5 Z-0.7
 X-30.6 Z-0.8
 X-30.7 Z-0.9
 Z-1.0
 X-32.0
 Y-19.3
 X-30.8
 X-30.6 Z-0.8
 X-30.5 Z-0.7
 X-30.4 Z-0.6
 Z-0.5
 X-30.3
 Z-0.4
 X-30.2
 X-30.1 Z-0.3
 X-30.0
 X-29.9 Z-0.2
 X-29.8
 Z-0.1
 X-29.6
 X-29.5
 X-29.4 Z-0.0
 X-29.3
 X-29.0
 X-26.0
 X-25.9 Z3.5
 Z3.6
 Z3.7
 X-25.8 Z3.8
 Z3.9
 Z4.0
 X-25.7 Z4.1
 X-25.6 Z4.2
 X-25.5 Z4.3
 X-25.4 Z4.4
 Z4.5
 X-25.3 Z4.6
 X-25.2
 X-25.1 Z4.7
 X-25.0
 X-24.9 Z4.8
 X-24.8
 Z4.9
 X-24.6
 X-24.5
 X-24.4 Z5.0
 X-24.3
 X-24.0
 X9.0
 X9.1
 X9.3
 X9.4
 X9.5 Z4.9
 X9.6
 X9.7
 X9.8
 X9.9 Z4.8
 X10.0 Z4.7
 X10.1
 X10.3 Z4.6
 Z4.5
 X10.4
 Z4.4
 X10.5 Z4.3
 X10.6 Z4.2
 X10.7 Z4.1
 Z4.0
 X10.8
 Z3.8
 X10.9 Z3.7
 Z3.6
 Z3.5
 X11.0 Z3.4
 Z3.3
 Z3.2
 Z3.1
 Z3.0
 Z2.9
 X28.8
 X29.0
 X29.1
 X29.3
 X29.4
 X29.5
 X29.6 Z2.8
 X29.7
 X29.8
 X29.9 Z2.7
 X30.0
 X30.1 Z2.6
 X30.2 Z2.5
 X30.3
 Z2.4
 X30.4
 Z2.3
 X30.5 Z2.2
 X30.6 Z2.1
 X30.7 Z2.0
 Z1.9
 X30.8
 Z1.7
 X30.9 Z1.6
 Z1.5
 Z1.4
 X31.0 Z1.3
 Z1.2
 Z1.1
 Z1.0
 Z0.9
 Z-1.0
 X32.0
 Y-18.9
 X31.0
 Z0.9
 Z1.0
 Z1.1
 X30.9 Z1.2
 Z1.3
 Z1.4
 X30.8 Z1.5
 Z1.6
 Z1.7
 X30.7 Z1.9
 X30.6 Z2.0
 X30.5 Z2.1
 X30.4 Z2.2
 Z2.3
 X30.3 Z2.4
 X30.2
 X30.1 Z2.5
 X30.0
 X29.9 Z2.6
 X29.8
 Z2.7
 X29.6
 X29.5 Z2.8
 X29.4
 X29.3
 X29.0
 X28.8
 X11.0
 Z3.2
 Z3.3
 X10.9 Z3.5
 Z3.6
 Z3.7
 X10.8 Z3.8
 Z3.9
 Z4.0
 X10.7 Z4.1
 X10.6 Z4.2
 X10.5 Z4.3
 X10.4 Z4.4
 Z4.5
 X10.3 Z4.6
 X10.2
 X10.1 Z4.7
 X10.0
 X9.9 Z4.8
 X9.8
 Z4.9
 X9.6
 X9.5
 X9.4 Z5.0
 X9.3
 X9.0
 X-24.0
 X-24.1
 X-24.3
 X-24.4
 X-24.5 Z4.9
 X-24.6
 X-24.7
 X-24.8
 X-24.9 Z4.8
 X-25.0 Z4.7
 X-25.1
 X-25.3 Z4.6
 Z4.5
 X-25.4
 Z4.4
 X-25.5 Z4.3
 X-25.6 Z4.2
 X-25.7 Z4.1
 Z4.0
 X-25.8
 Z3.8
 X-25.9 Z3.7
 Z3.6
 Z3.5
 X-26.0 Z3.3
 Z3.2
 Z3.1
 Z3.0
 Z0.0
 X-29.0
 X-29.1
 X-29.3
 X-29.4
 X-29.5 Z-0.1
 X-29.6
 X-29.7
 X-29.8
 X-29.9 Z-0.2
 X-30.0 Z-0.3
 X-30.1
 X-30.2 Z-0.4
 X-30.3
 Z-0.5
 X-30.4
 X-30.5 Z-0.7
 X-30.6 Z-0.8
 X-30.7 Z-0.9
 Z-1.0
 X-32.0
 Y-18.5
 X-30.8
 X-30.6 Z-0.8
 X-30.5 Z-0.7
 X-30.4 Z-0.6
 Z-0.5
 X-30.3
 Z-0.4
 X-30.2
 X-30.1 Z-0.3
 X-30.0
 X-29.9 Z-0.2
 X-29.8
 Z-0.1
 X-29.6
 X-29.5
 X-29.4 Z-0.0
 X-29.3
 X-29.0
 X-26.0
 X-25.9 Z3.5
 Z3.6
 Z3.7
 X-25.8 Z3.8
 Z3.9
 Z4.0
 X-25.7 Z4.1
 X-25.6 Z4.2
 X-25.5 Z4.3
 X-25.4 Z4.4
 Z4.5
 X-25.3 Z4.6
 X-25.2
 X-25.1 Z4.7
 X-25.0
 X-24.9 Z4.8
 X-24.8
 Z4.9
 X-24.6
 X-24.5
 X-24.4 Z5.0
 X-24.3
 X-24.0
 X9.0
 X9.1
 X9.3
 X9.4
 X9.5 Z4.9
 X9.6
 X9.7
 X9.8
 X9.9 Z4.8
 X10.0 Z4.7
 X10.1
 X10.3 Z4.6
 Z4.5
 X10.4
 Z4.4
 X10.5 Z4.3
 X10.6 Z4.2
 X10.7 Z4.1
 Z4.0
 X10.8
 Z3.8
 X10.9 Z3.7
 Z3.6
 Z3.5
 X11.0 Z3.4
 Z3.3
 Z3.2
 Z3.1
 Z3.0
 Z2.7
 X29.0
 X29.1
 X29.2
 X29.3
 X29.4
 X29.5 Z2.6
 X29.6
 X29.7
 X29.8 Z2.5
 X29.9
 X30.0 Z2.4
 X30.1
 Z2.3
 X30.3 Z2.2
 Z2.1
 X30.4
 Z2.0
 X30.5 Z1.9
 X30.6 Z1.8
 X30.7 Z1.7
 Z1.6
 X30.8 Z1.5
 Z1.4
 Z1.3
 X30.9
 Z1.2
 Z1.1
 Z1.0
 X31.0 Z0.9
 Z0.8
 Z0.6
 Z0.5
 Z0.4
 Z0.3
 Z-1.0
 X32.0
 Y-18.1
 X31.0
 Z0.4
 X30.9 Z0.6
 Z0.7
 Z0.8
 Z0.9
 X30.8 Z1.0
 Z1.1
 Z1.2
 X30.7 Z1.4
 X30.6 Z1.5
 Z1.6
 X30.5 Z1.7
 X30.4 Z1.8
 Z1.9
 X30.3
 Z2.0
 X30.2 Z2.1
 X30.1
 X30.0 Z2.2
 X29.9 Z2.3
 X29.8
 X29.6 Z2.4
 X29.5
 X29.4
 Z2.5
 X29.3
 X29.1
 X29.0
 X28.8
 X11.0
 Z3.2
 Z3.3
 X10.9 Z3.5
 Z3.6
 Z3.7
 X10.8 Z3.8
 Z3.9
 Z4.0
 X10.7 Z4.1
 X10.6 Z4.2
 X10.5 Z4.3
 X10.4 Z4.4
 Z4.5
 X10.3 Z4.6
 X10.2
 X10.1 Z4.7
 X10.0
 X9.9 Z4.8
 X9.8
 Z4.9
 X9.6
 X9.5
 X9.4 Z5.0
 X9.3
 X9.0
 X-24.0
 X-24.1
 X-24.3
 X-24.4
 X-24.5 Z4.9
 X-24.6
 X-24.7
 X-24.8
 X-24.9 Z4.8
 X-25.0 Z4.7
 X-25.1
 X-25.3 Z4.6
 Z4.5
 X-25.4
 Z4.4
 X-25.5 Z4.3
 X-25.6 Z4.2
 X-25.7 Z4.1
 Z4.0
 X-25.8
 Z3.8
 X-25.9 Z3.7
 Z3.6
 Z3.5
 X-26.0 Z3.3
 Z3.2
 Z3.1
 Z3.0
 Z0.0
 X-29.0
 X-29.1
 X-29.3
 X-29.4
 X-29.5 Z-0.1
 X-29.6
 X-29.7
 X-29.8
 X-29.9 Z-0.2
 X-30.0 Z-0.3
 X-30.1
 X-30.2 Z-0.4
 X-30.3
 Z-0.5
 X-30.4
 X-30.5 Z-0.7
 X-30.6 Z-0.8
 X-30.7 Z-0.9
 Z-1.0
 X-32.0
 Y-17.7
 X-30.8
 X-30.6 Z-0.8
 X-30.5 Z-0.7
 X-30.4 Z-0.6
 Z-0.5
 X-30.3
 Z-0.4
 X-30.2
 X-30.1 Z-0.3
 X-30.0
 X-29.9 Z-0.2
 X-29.8
 Z-0.1
 X-29.6
 X-29.5
 X-29.4 Z-0.0
 X-29.3
 X-29.0
 X-26.0
 X-25.9 Z3.5
 Z3.6
 Z3.7
 X-25.8 Z3.8
 Z3.9
 Z4.0
 X-25.7 Z4.1
 X-25.6 Z4.2
 X-25.5 Z4.3
 X-25.4 Z4.4
 Z4.5
 X-25.3 Z4.6
 X-25.2
 X-25.1 Z4.7
 X-25.0
 X-24.9 Z4.8
 X-24.8
 Z4.9
 X-24.6
 X-24.5
 X-24.4 Z5.0
 X-24.3
 X-24.0
 X9.0
 X9.1
 X9.3
 X9.4
 X9.5 Z4.9
 X9.6
 X9.7
 X9.8
 X9.9 Z4.8
 X10.0 Z4.7
 X10.1
 X10.3 Z4.6
 Z4.5
 X10.4
 Z4.4
 X10.5 Z4.3
 X10.6 Z4.2
 X10.7 Z4.1
 Z4.0
 X10.8
 Z3.8
 X10.9 Z3.7
 Z3.6
 Z3.5
 X11.0 Z3.4
 Z3.3
 Z3.2
 Z3.1
 Z3.0
 Z2.3
 X29.0
 X29.1 Z2.2
 X29.3
 X29.4
 X29.5
 X29.6 Z2.1
 X29.7
 X29.8
 X29.9 Z2.0
 X30.0 Z1.9
 X30.1
 Z1.8
 X30.2
 X30.3 Z1.6
 X30.4
 Z1.5
 X30.5 Z1.4
 X30.6 Z1.3
 Z1.2
 Z1.1
 X30.7 Z1.0
 Z0.9
 X30.8 Z0.7
 Z0.5
 X30.9 Z0.4
 Z-0.1
 X31.0 Z-0.6
 Z-0.8
 Z-0.9
 Z-1.0
 X32.0
 Y-17.3
 X30.9
 X30.8 Z-0.4
 Z-0.2
 Z0.0
 Z0.2
 X30.7 Z0.4
 X30.6 Z0.6
 Z0.8
 X30.5
 Z0.9
 X30.4 Z1.0
 Z1.1
 X30.3 Z1.3
 X30.2 Z1.4
 X30.1
 X30.0 Z1.5
 X29.9 Z1.6
 X29.8 Z1.7
 X29.6 Z1.8
 X29.5
 Z1.9
 X29.4
 X29.3
 X29.1
 X29.0
 X28.8
 X11.0
 Z3.2
 Z3.3
 X10.9 Z3.5
 Z3.6
 Z3.7
 X10.8 Z3.8
 Z3.9
 Z4.0
 X10.7 Z4.1
 X10.6 Z4.2
 X10.5 Z4.3
 X10.4 Z4.4
 Z4.5
 X10.3 Z4.6
 X10.2
 X10.1 Z4.7
 X10.0
 X9.9 Z4.8
 X9.8
 Z4.9
 X9.6
 X9.5
 X9.4 Z5.0
 X9.3
 X9.0
 X-24.0
 X-24.1
 X-24.3
 X-24.4
 X-24.5 Z4.9
 X-24.6
 X-24.7
 X-24.8
 X-24.9 Z4.8
 X-25.0 Z4.7
 X-25.1
 X-25.3 Z4.6
 Z4.5
 X-25.4
 Z4.4
 X-25.5 Z4.3
 X-25.6 Z4.2
 X-25.7 Z4.1
 Z4.0
 X-25.8
 Z3.8
 X-25.9 Z3.7
 Z3.6
 Z3.5
 X-26.0 Z3.3
 Z3.2
 Z3.1
 Z3.0
 Z0.0
 X-29.0
 X-29.1
 X-29.3
 X-29.4
 X-29.5 Z-0.1
 X-29.6
 X-29.7
 X-29.8
 X-29.9 Z-0.2
 X-30.0 Z-0.3
 X-30.1
 X-30.2 Z-0.4
 X-30.3
 Z-0.5
 X-30.4
 X-30.5 Z-0.7
 X-30.6 Z-0.8
 X-30.7 Z-0.9
 Z-1.0
 X-32.0
 Y-16.9
 X-30.8
 X-30.6 Z-0.8
 X-30.5 Z-0.7
 X-30.4 Z-0.6
 Z-0.5
 X-30.3
 Z-0.4
 X-30.2
 X-30.1 Z-0.3
 X-30.0
 X-29.9 Z-0.2
 X-29.8
 Z-0.1
 X-29.6
 X-29.5
 X-29.4 Z-0.0
 X-29.3
 X-29.0
 X-26.0
 X-25.9 Z3.5
 Z3.6
 Z3.7
 X-25.8 Z3.8
 Z3.9
 Z4.0
 X-25.7 Z4.1
 X-25.6 Z4.2
 X-25.5 Z4.3
 X-25.4 Z4.4
 Z4.5
 X-25.3 Z4.6
 X-25.2
 X-25.1 Z4.7
 X-25.0
 X-24.9 Z4.8
 X-24.8
 Z4.9
 X-24.6
 X-24.5
 X-24.4 Z5.0
 X-24.3
 X-24.0
 X9.0
 X9.1
 X9.3
 X9.4
 X9.5 Z4.9
 X9.6
 X9.7
 X9.8
 X9.9 Z4.8
 X10.0 Z4.7
 X10.1
 X10.3 Z4.6
 Z4.5
 X10.4
 Z4.4
 X10.5 Z4.3
 X10.6 Z4.2
 X10.7 Z4.1
 Z4.0
 X10.8
 Z3.8
 X10.9 Z3.7
 Z3.6
 Z3.5
 X11.0 Z3.4
 Z3.3
 Z3.2
 Z3.1
 Z3.0
 Z1.5
 X28.9
 X29.0
 X29.1
 X29.2
 X29.3
 X29.4
 Z1.4
 X29.5
 X29.6 Z1.3
 X29.7
 X29.8
 Z1.2
 X29.9
 Z1.1
 X30.0
 X30.1 Z1.0
 Z0.9
 X30.2 Z0.8
 X30.3 Z0.7
 Z0.6
 X30.4 Z0.5
 Z0.4
 X30.5 Z0.1
 X30.6 Z-0.4
 X30.7 Z-0.8
 Z-0.9
 Z-1.0
 X32.0
 Y-16.5
 X30.8
 X30.6 Z-0.8
 X30.5 Z-0.7
 X30.4 Z-0.6
 Z-0.5
 X30.3
 Z-0.4
 X30.2 Z-0.3
 Z-0.2
 Z-0.1
 X30.1 Z0.0
 X30.0 Z0.2
 X29.9 Z0.3
 Z0.4
 X29.8 Z0.5
 Z0.6
 X29.6 Z0.7
 X29.5 Z0.8
 X29.4
 X29.3 Z0.9
 X29.1
 X29.0
 X28.8
 X11.0
 Z3.2
 Z3.3
 X10.9 Z3.5
 Z3.6
 Z3.7
 X10.8 Z3.8
 Z3.9
 Z4.0
 X10.7 Z4.1
 X10.6 Z4.2
 X10.5 Z4.3
 X10.4 Z4.4
 Z4.5
 X10.3 Z4.6
 X10.2
 X10.1 Z4.7
 X10.0
 X9.9 Z4.8
 X9.8
 Z4.9
 X9.6
 X9.5
 X9.4 Z5.0
 X9.3
 X9.0
 X-24.0
 X-24.1
 X-24.3
 X-24.4
 X-24.5 Z4.9
 X-24.6
 X-24.7
 X-24.8
 X-24.9 Z4.8
 X-25.0 Z4.7
 X-25.1
 X-25.3 Z4.6
 Z4.5
 X-25.4
 Z4.4
 X-25.5 Z4.3
 X-25.6 Z4.2
 X-25.7 Z4.1
 Z4.0
 X-25.8
 Z3.8
 X-25.9 Z3.7
 Z3.6
 Z3.5
 X-26.0 Z3.3
 Z3.2
 Z3.1
 Z3.0
 Z0.0
 X-29.0
 X-29.1
 X-29.3
 X-29.4
 X-29.5 Z-0.1
 X-29.6
 X-29.7
 X-29.8
 X-29.9 Z-0.2
 X-30.0 Z-0.3
 X-30.1
 X-30.2 Z-0.4
 X-30.3
 Z-0.5
 X-30.4
 X-30.5 Z-0.7
 X-30.6 Z-0.8
 X-30.7 Z-0.9
 Z-1.0
 X-32.0
 Y-16.1
 X-30.8
 X-30.6 Z-0.8
 X-30.5 Z-0.7
 X-30.4 Z-0.6
 Z-0.5
 X-30.3
 Z-0.4
 X-30.2
 X-30.1 Z-0.3
 X-30.0
 X-29.9 Z-0.2
 X-29.8
 Z-0.1
 X-29.6
 X-29.5
 X-29.4 Z-0.0
 X-29.3
 X-29.0
 X-26.0
 X-25.9 Z3.5
 Z3.6
 Z3.7
 X-25.8 Z3.8
 Z3.9
 Z4.0
 X-25.7 Z4.1
 X-25.6 Z4.2
 X-25.5 Z4.3
 X-25.4 Z4.4
 Z4.5
 X-25.3 Z4.6
 X-25.2
 X-25.1 Z4.7
 X-25.0
 X-24.9 Z4.8
 X-24.8
 Z4.9
 X-24.6
 X-24.5
 X-24.4 Z5.0
 X-24.3
 X-24.0
 X9.0
 X9.1
 X9.3
 X9.4
 X9.5 Z4.9
 X9.6
 X9.7
 X9.8
 X9.9 Z4.8
 X10.0 Z4.7
 X10.1
 X10.3 Z4.6
 Z4.5
 X10.4
 Z4.4
 X10.5 Z4.3
 X10.6 Z4.2
 X10.7 Z4.1
 Z4.0
 X10.8
 Z3.8
 X10.9 Z3.7
 Z3.6
 Z3.5
 X11.0 Z3.3
 Z3.2
 Z3.1
 Z3.0
 Z0.0
 X29.0
 X29.1
 X29.2
 X29.3
 X29.4
 X29.5 Z-0.1
 X29.6
 X29.7
 X29.8
 X29.9 Z-0.2
 X30.0 Z-0.3
 X30.1
 X30.2 Z-0.4
 X30.3
 Z-0.5
 X30.4
 X30.5 Z-0.7
 X30.6 Z-0.8
 X30.7 Z-0.9
 Z-1.0
 X32.0
 Y-15.7
 X30.8
 X30.6 Z-0.8
 X30.5 Z-0.7
 X30.4 Z-0.6
 Z-0.5
 X30.3
 Z-0.4
 X30.1 Z-0.3
 X30.0
 X29.9 Z-0.2
 X29.8
 Z-0.1
 X29.6
 X29.5
 X29.4 Z-0.0
 X29.3
 X29.0
 X25.7
 Z3.1
 Z3.2
 Z3.4
 X25.6
 Z3.5
 Z3.6
 X25.5
 Z3.7
 X25.4 Z3.8
 X25.3 Z3.9
 X25.2 Z4.0
 X25.1
 X25.0
 X24.8
 X23.3
 X12.3
 X12.0
 X11.8
 X11.5
 X11.3
 X11.0
 X10.9
 X10.8
 X10.5 Z4.3
 X10.4 Z4.4
 Z4.5
 X10.3 Z4.6
 X10.2
 X10.1 Z4.7
 X10.0
 X9.9 Z4.8
 X9.8
 Z4.9
 X9.6
 X9.5
 X9.4 Z5.0
 X9.3
 X9.0
 X-24.0
 X-24.1
 X-24.3
 X-24.4
 X-24.5 Z4.9
 X-24.6
 X-24.7
 X-24.8
 X-24.9 Z4.8
 X-25.0 Z4.7
 X-25.1
 X-25.3 Z4.6
 Z4.5
 X-25.4
 Z4.4
 X-25.5 Z4.3
 X-25.6 Z4.2
 X-25.7 Z4.1
 Z4.0
 X-25.8
 Z3.8
 X-25.9 Z3.7
 Z3.6
 Z3.5
 X-26.0 Z3.3
 Z3.2
 Z3.1
 Z3.0
 Z0.0
 X-29.0
 X-29.1
 X-29.3
 X-29.4
 X-29.5 Z-0.1
 X-29.6
 X-29.7
 X-29.8
 X-29.9 Z-0.2
 X-30.0 Z-0.3
 X-30.1
 X-30.2 Z-0.4
 X-30.3
 Z-0.5
 X-30.4
 X-30.5 Z-0.7
 X-30.6 Z-0.8
 X-30.7 Z-0.9
 Z-1.0
 X-32.0
 Y-15.3
 X-30.8
 X-30.6 Z-0.8
 X-30.5 Z-0.7
 X-30.4 Z-0.6
 Z-0.5
 X-30.3
 Z-0.4
 X-30.2
 X-30.1 Z-0.3
 X-30.0
 X-29.9 Z-0.2
 X-29.8
 Z-0.1
 X-29.6
 X-29.5
 X-29.4 Z-0.0
 X-29.3
 X-29.0
 X-26.0
 X-25.9 Z3.5
 Z3.6
 Z3.7
 X-25.8 Z3.8
 Z3.9
 Z4.0
 X-25.7 Z4.1
 X-25.6 Z4.2
 X-25.5 Z4.3
 X-25.4 Z4.4
 Z4.5
 X-25.3 Z4.6
 X-25.2
 X-25.1 Z4.7
 X-25.0
 X-24.9 Z4.8
 X-24.8
 Z4.9
 X-24.6
 X-24.5
 X-24.4 Z5.0
 X-24.3
 X-24.0
 X9.0
 X9.1
 X9.3
 X9.4
 X9.5 Z4.9
 X9.6
 X9.7
 X9.8
 X9.9 Z4.8
 X10.0 Z4.7
 X10.1
 X10.2 Z4.6
 X10.3 Z4.5
 X13.8
 X24.6
 X24.7
 X24.8
 X24.9
 X25.0
 X25.1 Z4.4
 X25.2
 Z4.3
 X25.3
 X25.4 Z4.2
 X25.5
 Z4.1
 X25.6
 Z4.0
 X25.7 Z3.9
 Z3.8
 X25.8
 Z3.7
 Z3.6
 X25.9 Z3.5
 Z3.4
 Z3.2
 Z3.1
 X26.0
 Z3.0
 Z0.0
 X29.0
 X29.1
 X29.2
 X29.3
 X29.4
 X29.5 Z-0.1
 X29.6
 X29.7
 X29.8
 X29.9 Z-0.2
 X30.0 Z-0.3
 X30.1
 X30.2 Z-0.4
 X30.3
 Z-0.5
 X30.4
 X30.5 Z-0.7
 X30.6 Z-0.8
 X30.7 Z-0.9
 Z-1.0
 X32.0
 Y-14.9
 X30.8
 X30.6 Z-0.8
 X30.5 Z-0.7
 X30.4 Z-0.6
 Z-0.5
 X30.3
 Z-0.4
 X30.1 Z-0.3
 X30.0
 X29.9 Z-0.2
 X29.8
 Z-0.1
 X29.6
 X29.5
 X29.4 Z-0.0
 X29.3
 X29.0
 X26.0
 X25.9 Z3.5
 Z3.6
 Z3.7
 X25.8 Z3.8
 Z3.9
 Z4.0
 X25.7 Z4.1
 X25.6 Z4.2
 X25.5 Z4.3
 X25.4 Z4.4
 X25.3 Z4.5
 X25.1 Z4.6
 X25.0 Z4.7
 X24.9
 X24.8
 X24.6 Z4.8
 X24.5
 X24.3
 X10.0
 X9.8 Z4.9
 X9.6
 X9.5
 X9.4 Z5.0
 X9.3
 X9.0
 X-24.0
 X-24.1
 X-24.3
 X-24.4
 X-24.5 Z4.9
 X-24.6
 X-24.7
 X-24.8
 X-24.9 Z4.8
 X-25.0 Z4.7
 X-25.1
 X-25.3 Z4.6
 Z4.5
 X-25.4
 Z4.4
 X-25.5 Z4.3
 X-25.6 Z4.2
 X-25.7 Z4.1
 Z4.0
 X-25.8
 Z3.8
 X-25.9 Z3.7
 Z3.6
 Z3.5
 X-26.0 Z3.3
 Z3.2
 Z3.1
 Z3.0
 Z0.0
 X-29.0
 X-29.1
 X-29.3
 X-29.4
 X-29.5 Z-0.1
 X-29.6
 X-29.7
 X-29.8
 X-29.9 Z-0.2
 X-30.0 Z-0.3
 X-30.1
 X-30.2 Z-0.4
 X-30.3
 Z-0.5
 X-30.4
 X-30.5 Z-0.7
 X-30.6 Z-0.8
 X-30.7 Z-0.9
 Z-1.0
 X-32.0
 Y-14.5
 X-30.8
 X-30.6 Z-0.8
 X-30.5 Z-0.7
 X-30.4 Z-0.6
 Z-0.5
 X-30.3
 Z-0.4
 X-30.2
 X-30.1 Z-0.3
 X-30.0
 X-29.9 Z-0.2
 X-29.8
 Z-0.1
 X-29.6
 X-29.5
 X-29.4 Z-0.0
 X-29.3
 X-29.0
 X-26.0
 X-25.9 Z3.5
 Z3.6
 Z3.7
 X-25.8 Z3.8
 Z3.9
 Z4.0
 X-25.7 Z4.1
 X-25.6 Z4.2
 X-25.5 Z4.3
 X-25.4 Z4.4
 Z4.5
 X-25.3 Z4.6
 X-25.2
 X-25.1 Z4.7
 X-25.0
 X-24.9 Z4.8
 X-24.8
 Z4.9
 X-24.6
 X-24.5
 X-24.4 Z5.0
 X-24.3
 X-24.0
 X9.0
 X9.3
 X9.5
 X9.8 Z4.9
 X10.0
 X10.3
 X24.0
 X24.3
 X24.4
 X24.5
 X24.6
 X24.7
 X24.8 Z4.8
 X24.9
 X25.0 Z4.7
 X25.1
 X25.3 Z4.6
 Z4.5
 X25.4
 Z4.4
 X25.5 Z4.3
 X25.6 Z4.2
 X25.7 Z4.1
 Z4.0
 X25.8
 Z3.8
 X25.9 Z3.7
 Z3.6
 Z3.5
 X26.0 Z3.3
 Z3.2
 Z3.1
 Z3.0
 Z0.0
 X29.0
 X29.1
 X29.2
 X29.3
 X29.4
 X29.5 Z-0.1
 X29.6
 X29.7
 X29.8
 X29.9 Z-0.2
 X30.0 Z-0.3
 X30.1
 X30.2 Z-0.4
 X30.3
 Z-0.5
 X30.4
 X30.5 Z-0.7
 X30.6 Z-0.8
 X30.7 Z-0.9
 Z-1.0
 X32.0
 Y-14.1
 X30.8
 X30.6 Z-0.8
 X30.5 Z-0.7
 X30.4 Z-0.6
 Z-0.5
 X30.3
 Z-0.4
 X30.1 Z-0.3
 X30.0
 X29.9 Z-0.2
 X29.8
 Z-0.1
 X29.6
 X29.5
 X29.4 Z-0.0
 X29.3
 X29.0
 X26.0
 X25.9 Z3.5
 Z3.6
 Z3.7
 X25.8 Z3.8
 Z3.9
 Z4.0
 X25.7 Z4.1
 X25.6 Z4.2
 X25.5 Z4.3
 X25.4 Z4.4
 Z4.5
 X25.3 Z4.6
 X25.2
 X25.1 Z4.7
 X25.0
 X24.9 Z4.8
 X24.8
 Z4.9
 X24.6
 X24.5
 X24.4 Z5.0
 X24.3
 X24.0
 X10.3
 X10.0
 X9.8
 X9.5
 X-24.0
 X-24.1
 X-24.3
 X-24.4
 X-24.5 Z4.9
 X-24.6
 X-24.7
 X-24.8
 X-24.9 Z4.8
 X-25.0 Z4.7
 X-25.1
 X-25.3 Z4.6
 Z4.5
 X-25.4
 Z4.4
 X-25.5 Z4.3
 X-25.6 Z4.2
 X-25.7 Z4.1
 Z4.0
 X-25.8
 Z3.8
 X-25.9 Z3.7
 Z3.6
 Z3.5
 X-26.0 Z3.3
 Z3.2
 Z3.1
 Z3.0
 Z0.0
 X-29.0
 X-29.1
 X-29.3
 X-29.4
 X-29.5 Z-0.1
 X-29.6
 X-29.7
 X-29.8
 X-29.9 Z-0.2
 X-30.0 Z-0.3
 X-30.1
 X-30.2 Z-0.4
 X-30.3
 Z-0.5
 X-30.4
 X-30.5 Z-0.7
 X-30.6 Z-0.8
 X-30.7 Z-0.9
 Z-1.0
 X-32.0
 Y-13.7
 X-30.8
 X-30.6 Z-0.8
 X-30.5 Z-0.7
 X-30.4 Z-0.6
 Z-0.5
 X-30.3
 Z-0.4
 X-30.2
 X-30.1 Z-0.3
 X-30.0
 X-29.9 Z-0.2
 X-29.8
 Z-0.1
 X-29.6
 X-29.5
 X-29.4 Z-0.0
 X-29.3
 X-29.0
 X-26.0
 X-25.9 Z3.5
 Z3.6
 Z3.7
 X-25.8 Z3.8
 Z3.9
 Z4.0
 X-25.7 Z4.1
 X-25.6 Z4.2
 X-25.5 Z4.3
 X-25.4 Z4.4
 Z4.5
 X-25.3 Z4.6
 X-25.2
 X-25.1 Z4.7
 X-25.0
 X-24.9 Z4.8
 X-24.8
 Z4.9
 X-24.6
 X-24.5
 X-24.4 Z5.0
 X-24.3
 X-24.0
 X24.0
 X24.1
 X24.3
 X24.4
 X24.5 Z4.9
 X24.6
 X24.7
 X24.8
 X24.9 Z4.8
 X25.0 Z4.7
 X25.1
 X25.3 Z4.6
 Z4.5
 X25.4
 Z4.4
 X25.5 Z4.3
 X25.6 Z4.2
 X25.7 Z4.1
 Z4.0
 X25.8
 Z3.8
 X25.9 Z3.7
 Z3.6
 Z3.5
 X26.0 Z3.3
 Z3.2
 Z3.1
 Z3.0
 Z0.0
 X29.0
 X29.1
 X29.2
 X29.3
 X29.4
 X29.5 Z-0.1
 X29.6
 X29.7
 X29.8
 X29.9 Z-0.2
 X30.0 Z-0.3
 X30.1
 X30.2 Z-0.4
 X30.3
 Z-0.5
 X30.4
 X30.5 Z-0.7
 X30.6 Z-0.8
 X30.7 Z-0.9
 Z-1.0
 X32.0
 Y-13.3
 X30.8
 X30.6 Z-0.8
 X30.5 Z-0.7
 X30.4 Z-0.6
 Z-0.5
 X30.3
 Z-0.4
 X30.1 Z-0.3
 X30.0
 X29.9 Z-0.2
 X29.8
 Z-0.1
 X29.6
 X29.5
 X29.4 Z-0.0
 X29.3
 X29.0
 X26.0
 X25.9 Z3.5
 Z3.6
 Z3.7
 X25.8 Z3.8
 Z3.9
 Z4.0
 X25.7 Z4.1
 X25.6 Z4.2
 X25.5 Z4.3
 X25.4 Z4.4
 Z4.5
 X25.3 Z4.6
 X25.2
 X25.1 Z4.7
 X25.0
 X24.9 Z4.8
 X24.8
 Z4.9
 X24.6
 X24.5
 X24.4 Z5.0
 X24.3
 X24.0
 X-24.0
 X-24.1
 X-24.3
 X-24.4
 X-24.5 Z4.9
 X-24.6
 X-24.7
 X-24.8
 X-24.9 Z4.8
 X-25.0 Z4.7
 X-25.1
 X-25.3 Z4.6
 Z4.5
 X-25.4
 Z4.4
 X-25.5 Z4.3
 X-25.6 Z4.2
 X-25.7 Z4.1
 Z4.0
 X-25.8
 Z3.8
 X-25.9 Z3.7
 Z3.6
 Z3.5
 X-26.0 Z3.3
 Z3.2
 Z3.1
 Z3.0
 Z0.0
 X-29.0
 X-29.1
 X-29.3
 X-29.4
 X-29.5 Z-0.1
 X-29.6
 X-29.7
 X-29.8
 X-29.9 Z-0.2
 X-30.0 Z-0.3
 X-30.1
 X-30.2 Z-0.4
 X-30.3
 Z-0.5
 X-30.4
 X-30.5 Z-0.7
 X-30.6 Z-0.8
 X-30.7 Z-0.9
 Z-1.0
 X-32.0
 Y-12.9
 X-30.8
 X-30.6 Z-0.8
 X-30.5 Z-0.7
 X-30.4 Z-0.6
 Z-0.5
 X-30.3
 Z-0.4
 X-30.2
 X-30.1 Z-0.3
 X-30.0
 X-29.9 Z-0.2
 X-29.8
 Z-0.1
 X-29.6
 X-29.5
 X-29.4 Z-0.0
 X-29.3
 X-29.0
 X-26.0
 X-25.9 Z3.5
 Z3.6
 Z3.7
 X-25.8 Z3.8
 Z3.9
 Z4.0
 X-25.7 Z4.1
 X-25.6 Z4.2
 X-25.5 Z4.3
 X-25.4 Z4.4
 Z4.5
 X-25.3 Z4.6
 X-25.2
 X-25.1 Z4.7
 X-25.0
 X-24.9 Z4.8
 X-24.8
 Z4.9
 X-24.6
 X-24.5
 X-24.4 Z5.0
 X-24.3
 X-24.0
 X24.0
 X24.1
 X24.3
 X24.4
 X24.5 Z4.9
 X24.6
 X24.7
 X24.8
 X24.9 Z4.8
 X25.0 Z4.7
 X25.1
 X25.3 Z4.6
 Z4.5
 X25.4
 Z4.4
 X25.5 Z4.3
 X25.6 Z4.2
 X25.7 Z4.1
 Z4.0
 X25.8
 Z3.8
 X25.9 Z3.7
 Z3.6
 Z3.5
 X26.0 Z3.3
 Z3.2
 Z3.1
 Z3.0
 Z0.0
 X29.0
 X29.1
 X29.2
 X29.3
 X29.4
 X29.5 Z-0.1
 X29.6
 X29.7
 X29.8
 X29.9 Z-0.2
 X30.0 Z-0.3
 X30.1
 X30.2 Z-0.4
 X30.3
 Z-0.5
 X30.4
 X30.5 Z-0.7
 X30.6 Z-0.8
 X30.7 Z-0.9
 Z-1.0
 X32.0
 Y-12.5
 X30.8
 X30.6 Z-0.8
 X30.5 Z-0.7
 X30.4 Z-0.6
 Z-0.5
 X30.3
 Z-0.4
 X30.1 Z-0.3
 X30.0
 X29.9 Z-0.2
 X29.8
 Z-0.1
 X29.6
 X29.5
 X29.4 Z-0.0
 X29.3
 X29.0
 X26.0
 X25.9 Z3.5
 Z3.6
 Z3.7
 X25.8 Z3.8
 Z3.9
 Z4.0
 X25.7 Z4.1
 X25.6 Z4.2
 X25.5 Z4.3
 X25.4 Z4.4
 Z4.5
 X25.3 Z4.6
 X25.2
 X25.1 Z4.7
 X25.0
 X24.9 Z4.8
 X24.8
 Z4.9
 X24.6
 X24.5
 X24.4 Z5.0
 X24.3
 X24.0
 X-24.0
 X-24.1
 X-24.3
 X-24.4
 X-24.5 Z4.9
 X-24.6
 X-24.7
 X-24.8
 X-24.9 Z4.8
 X-25.0 Z4.7
 X-25.1
 X-25.3 Z4.6
 Z4.5
 X-25.4
 Z4.4
 X-25.5 Z4.3
 X-25.6 Z4.2
 X-25.7 Z4.1
 Z4.0
 X-25.8
 Z3.8
 X-25.9 Z3.7
 Z3.6
 Z3.5
 X-26.0 Z3.3
 Z3.2
 Z3.1
 Z3.0
 Z0.0
 X-29.0
 X-29.1
 X-29.3
 X-29.4
 X-29.5 Z-0.1
 X-29.6
 X-29.7
 X-29.8
 X-29.9 Z-0.2
 X-30.0 Z-0.3
 X-30.1
 X-30.2 Z-0.4
 X-30.3
 Z-0.5
 X-30.4
 X-30.5 Z-0.7
 X-30.6 Z-0.8
 X-30.7 Z-0.9
 Z-1.0
 X-32.0
 Y-12.1
 X-30.8
 X-30.6 Z-0.8
 X-30.5 Z-0.7
 X-30.4 Z-0.6
 Z-0.5
 X-30.3
 Z-0.4
 X-30.2
 X-30.1 Z-0.3
 X-30.0
 X-29.9 Z-0.2
 X-29.8
 Z-0.1
 X-29.6
 X-29.5
 X-29.4 Z-0.0
 X-29.3
 X-29.0
 X-26.0
 X-25.9 Z3.5
 Z3.6
 Z3.7
 X-25.8 Z3.8
 Z3.9
 Z4.0
 X-25.7 Z4.1
 X-25.6 Z4.2
 X-25.5 Z4.3
 X-25.4 Z4.4
 Z4.5
 X-25.3 Z4.6
 X-25.2
 X-25.1 Z4.7
 X-25.0
 X-24.9 Z4.8
 X-24.8
 Z4.9
 X-24.6
 X-24.5
 X-24.4 Z5.0
 X-24.3
 X-24.0
 X24.0
 X24.1
 X24.3
 X24.4
 X24.5 Z4.9
 X24.6
 X24.7
 X24.8
 X24.9 Z4.8
 X25.0 Z4.7
 X25.1
 X25.3 Z4.6
 Z4.5
 X25.4
 Z4.4
 X25.5 Z4.3
 X25.6 Z4.2
 X25.7 Z4.1
 Z4.0
 X25.8
 Z3.8
 X25.9 Z3.7
 Z3.6
 Z3.5
 X26.0 Z3.3
 Z3.2
 Z3.1
 Z3.0
 Z0.0
 X29.0
 X29.1
 X29.2
 X29.3
 X29.4
 X29.5 Z-0.1
 X29.6
 X29.7
 X29.8
 X29.9 Z-0.2
 X30.0 Z-0.3
 X30.1
 X30.2 Z-0.4
 X30.3
 Z-0.5
 X30.4
 X30.5 Z-0.7
 X30.6 Z-0.8
 X30.7 Z-0.9
 Z-1.0
 X32.0
 Y-11.7
 X30.8
 X30.6 Z-0.8
 X30.5 Z-0.7
 X30.4 Z-0.6
 Z-0.5
 X30.3
 Z-0.4
 X30.1 Z-0.3
 X30.0
 X29.9 Z-0.2
 X29.8
 Z-0.1
 X29.6
 X29.5
 X29.4 Z-0.0
 X29.3
 X29.0
 X26.0
 X25.9 Z3.5
 Z3.6
 Z3.7
 X25.8 Z3.8
 Z3.9
 Z4.0
 X25.7 Z4.1
 X25.6 Z4.2
 X25.5 Z4.3
 X25.4 Z4.4
 Z4.5
 X25.3 Z4.6
 X25.2
 X25.1 Z4.7
 X25.0
 X24.9 Z4.8
 X24.8
 Z4.9
 X24.6
 X24.5
 X24.4 Z5.0
 X24.3
 X24.0
 X-24.0
 X-24.1
 X-24.3
 X-24.4
 X-24.5 Z4.9
 X-24.6
 X-24.7
 X-24.8
 X-24.9 Z4.8
 X-25.0 Z4.7
 X-25.1
 X-25.3 Z4.6
 Z4.5
 X-25.4
 Z4.4
 X-25.5 Z4.3
 X-25.6 Z4.2
 X-25.7 Z4.1
 Z4.0
 X-25.8
 Z3.8
 X-25.9 Z3.7
 Z3.6
 Z3.5
 X-26.0 Z3.3
 Z3.2
 Z3.1
 Z3.0
 Z0.0
 X-29.0
 X-29.1
 X-29.3
 X-29.4
 X-29.5 Z-0.1
 X-29.6
 X-29.7
 X-29.8
 X-29.9 Z-0.2
 X-30.0 Z-0.3
 X-30.1
 X-30.2 Z-0.4
 X-30.3
 Z-0.5
 X-30.4
 X-30.5 Z-0.7
 X-30.6 Z-0.8
 X-30.7 Z-0.9
 Z-1.0
 X-32.0
 Y-11.3
 X-30.8
 X-30.6 Z-0.8
 X-30.5 Z-0.7
 X-30.4 Z-0.6
 Z-0.5
 X-30.3
 Z-0.4
 X-30.2
 X-30.1 Z-0.3
 X-30.0
 X-29.9 Z-0.2
 X-29.8
 Z-0.1
 X-29.6
 X-29.5
 X-29.4 Z-0.0
 X-29.3
 X-29.0
 X-26.0
 X-25.9 Z3.5
 Z3.6
 Z3.7
 X-25.8 Z3.8
 Z3.9
 Z4.0
 X-25.7 Z4.1
 X-25.6 Z4.2
 X-25.5 Z4.3
 X-25.4 Z4.4
 Z4.5
 X-25.3 Z4.6
 X-25.2
 X-25.1 Z4.7
 X-25.0
 X-24.9 Z4.8
 X-24.8
 Z4.9
 X-24.6
 X-24.5
 X-24.4 Z5.0
 X-24.3
 X-24.0
 X24.0
 X24.1
 X24.3
 X24.4
 X24.5 Z4.9
 X24.6
 X24.7
 X24.8
 X24.9 Z4.8
 X25.0 Z4.7
 X25.1
 X25.3 Z4.6
 Z4.5
 X25.4
 Z4.4
 X25.5 Z4.3
 X25.6 Z4.2
 X25.7 Z4.1
 Z4.0
 X25.8
 Z3.8
 X25.9 Z3.7
 Z3.6
 Z3.5
 X26.0 Z3.3
 Z3.2
 Z3.1
 Z3.0
 Z0.0
 X29.0
 X29.1
 X29.2
 X29.3
 X29.4
 X29.5 Z-0.1
 X29.6
 X29.7
 X29.8
 X29.9 Z-0.2
 X30.0 Z-0.3
 X30.1
 X30.2 Z-0.4
 X30.3
 Z-0.5
 X30.4
 X30.5 Z-0.7
 X30.6 Z-0.8
 X30.7 Z-0.9
 Z-1.0
 X32.0
 Y-10.9
 X30.8
 X30.6 Z-0.8
 X30.5 Z-0.7
 X30.4 Z-0.6
 Z-0.5
 X30.3
 Z-0.4
 X30.1 Z-0.3
 X30.0
 X29.9 Z-0.2
 X29.8
 Z-0.1
 X29.6
 X29.5
 X29.4 Z-0.0
 X29.3
 X29.0
 X26.0
 X25.9 Z3.5
 Z3.6
 Z3.7
 X25.8 Z3.8
 Z3.9
 Z4.0
 X25.7 Z4.1
 X25.6 Z4.2
 X25.5 Z4.3
 X25.4 Z4.4
 Z4.5
 X25.3 Z4.6
 X25.2
 X25.1 Z4.7
 X25.0
 X24.9 Z4.8
 X24.8
 Z4.9
 X24.6
 X24.5
 X24.4 Z5.0
 X24.3
 X24.0
 X-24.0
 X-24.1
 X-24.3
 X-24.4
 X-24.5 Z4.9
 X-24.6
 X-24.7
 X-24.8
 X-24.9 Z4.8
 X-25.0 Z4.7
 X-25.1
 X-25.3 Z4.6
 Z4.5
 X-25.4
 Z4.4
 X-25.5 Z4.3
 X-25.6 Z4.2
 X-25.7 Z4.1
 Z4.0
 X-25.8
 Z3.8
 X-25.9 Z3.7
 Z3.6
 Z3.5
 X-26.0 Z3.3
 Z3.2
 Z3.1
 Z3.0
 Z0.0
 X-29.0
 X-29.1
 X-29.3
 X-29.4
 X-29.5 Z-0.1
 X-29.6
 X-29.7
 X-29.8
 X-29.9 Z-0.2
 X-30.0 Z-0.3
 X-30.1
 X-30.2 Z-0.4
 X-30.3
 Z-0.5
 X-30.4
 X-30.5 Z-0.7
 X-30.6 Z-0.8
 X-30.7 Z-0.9
 Z-1.0
 X-32.0
 Y-10.5
 X-30.8
 X-30.6 Z-0.8
 X-30.5 Z-0.7
 X-30.4 Z-0.6
 Z-0.5
 X-30.3
 Z-0.4
 X-30.2
 X-30.1 Z-0.3
 X-30.0
 X-29.9 Z-0.2
 X-29.8
 Z-0.1
 X-29.6
 X-29.5
 X-29.4 Z-0.0
 X-29.3
 X-29.0
 X-26.0
 X-25.9 Z3.5
 Z3.6
 Z3.7
 X-25.8 Z3.8
 Z3.9
 Z4.0
 X-25.7 Z4.1
 X-25.6 Z4.2
 X-25.5 Z4.3
 X-25.4 Z4.4
 Z4.5
 X-25.3 Z4.6
 X-25.2
 X-25.1 Z4.7
 X-25.0
 X-24.9 Z4.8
 X-24.8
 Z4.9
 X-24.6
 X-24.5
 X-24.4 Z5.0
 X-24.3
 X-24.0
 X24.0
 X24.1
 X24.3
 X24.4
 X24.5 Z4.9
 X24.6
 X24.7
 X24.8
 X24.9 Z4.8
 X25.0 Z4.7
 X25.1
 X25.3 Z4.6
 Z4.5
 X25.4
 Z4.4
 X25.5 Z4.3
 X25.6 Z4.2
 X25.7 Z4.1
 Z4.0
 X25.8
 Z3.8
 X25.9 Z3.7
 Z3.6
 Z3.5
 X26.0 Z3.3
 Z3.2
 Z3.1
 Z3.0
 Z0.0
 X29.0
 X29.1
 X29.2
 X29.3
 X29.4
 X29.5 Z-0.1
 X29.6
 X29.7
 X29.8
 X29.9 Z-0.2
 X30.0 Z-0.3
 X30.1
 X30.2 Z-0.4
 X30.3
 Z-0.5
 X30.4
 X30.5 Z-0.7
 X30.6 Z-0.8
 X30.7 Z-0.9
 Z-1.0
 X32.0
 Y-10.1
 X30.8
 X30.6 Z-0.8
 X30.5 Z-0.7
 X30.4 Z-0.6
 Z-0.5
 X30.3
 Z-0.4
 X30.1 Z-0.3
 X30.0
 X29.9 Z-0.2
 X29.8
 Z-0.1
 X29.6
 X29.5
 X29.4 Z-0.0
 X29.3
 X29.0
 X26.0
 X25.9 Z3.5
 Z3.6
 Z3.7
 X25.8 Z3.8
 Z3.9
 Z4.0
 X25.7 Z4.1
 X25.6 Z4.2
 X25.5 Z4.3
 X25.4 Z4.4
 Z4.5
 X25.3 Z4.6
 X25.2
 X25.1 Z4.7
 X25.0
 X24.9 Z4.8
 X24.8
 Z4.9
 X24.6
 X24.5
 X24.4 Z5.0
 X24.3
 X24.0
 X-24.0
 X-24.1
 X-24.3
 X-24.4
 X-24.5 Z4.9
 X-24.6
 X-24.7
 X-24.8
 X-24.9 Z4.8
 X-25.0 Z4.7
 X-25.1
 X-25.3 Z4.6
 Z4.5
 X-25.4
 Z4.4
 X-25.5 Z4.3
 X-25.6 Z4.2
 X-25.7 Z4.1
 Z4.0
 X-25.8
 Z3.8
 X-25.9 Z3.7
 Z3.6
 Z3.5
 X-26.0 Z3.3
 Z3.2
 Z3.1
 Z3.0
 Z0.0
 X-29.0
 X-29.1
 X-29.2
 X-29.3
 X-29.4
 X-29.5 Z-0.1
 X-29.6
 X-29.7
 X-29.8
 X-29.9 Z-0.2
 X-30.0 Z-0.3
 X-30.1
 X-30.2 Z-0.4
 X-30.3
 Z-0.5
 X-30.4
 X-30.5 Z-0.7
 X-30.6 Z-0.8
 X-30.7 Z-0.9
 Z-1.0
 X-32.0
 Y-9.7
 X-30.8
 X-30.6 Z-0.8
 X-30.5 Z-0.7
 X-30.4 Z-0.6
 Z-0.5
 X-30.3
 Z-0.4
 X-30.2
 X-30.1 Z-0.3
 X-30.0
 X-29.9 Z-0.2
 X-29.8
 Z-0.1
 X-29.6
 X-29.5
 X-29.4 Z-0.0
 X-29.3
 X-29.0
 X-26.0
 X-25.9 Z3.5
 Z3.6
 Z3.7
 X-25.8 Z3.8
 Z3.9
 Z4.0
 X-25.7 Z4.1
 X-25.6 Z4.2
 X-25.5 Z4.3
 X-25.4 Z4.4
 Z4.5
 X-25.3 Z4.6
 X-25.2
 X-25.1 Z4.7
 X-25.0
 X-24.9 Z4.8
 X-24.8
 Z4.9
 X-24.6
 X-24.5
 X-24.4 Z5.0
 X-24.3
 X-24.0
 X24.0
 X24.1
 X24.3
 X24.4
 X24.5 Z4.9
 X24.6
 X24.7
 X24.8
 X24.9 Z4.8
 X25.0 Z4.7
 X25.1
 X25.3 Z4.6
 Z4.5
 X25.4
 Z4.4
 X25.5 Z4.3
 X25.6 Z4.2
 X25.7 Z4.1
 Z4.0
 X25.8
 Z3.8
 X25.9 Z3.7
 Z3.6
 Z3.5
 X26.0 Z3.3
 Z3.2
 Z3.1
 Z3.0
 Z0.0
 X29.0
 X29.1
 X29.2
 X29.3
 X29.4
 X29.5 Z-0.1
 X29.6
 X29.7
 X29.8
 X29.9 Z-0.2
 X30.0 Z-0.3
 X30.1
 X30.2 Z-0.4
 X30.3
 Z-0.5
 X30.4
 X30.5 Z-0.7
 X30.6 Z-0.8
 X30.7 Z-0.9
 Z-1.0
 X32.0
 Y-9.3
 X30.8
 X30.6 Z-0.8
 X30.5 Z-0.7
 X30.4 Z-0.6
 Z-0.5
 X30.3
 Z-0.4
 X30.1 Z-0.3
 X30.0
 X29.9 Z-0.2
 X29.8
 Z-0.1
 X29.6
 X29.5
 X29.4 Z-0.0
 X29.3
 X29.0
 X26.0
 X25.9 Z3.5
 Z3.6
 Z3.7
 X25.8 Z3.8
 Z3.9
 Z4.0
 X25.7 Z4.1
 X25.6 Z4.2
 X25.5 Z4.3
 X25.4 Z4.4
 Z4.5
 X25.3 Z4.6
 X25.2
 X25.1 Z4.7
 X25.0
 X24.9 Z4.8
 X24.8
 Z4.9
 X24.6
 X24.5
 X24.4 Z5.0
 X24.3
 X24.0
 X-24.0
 X-24.1
 X-24.3
 X-24.4
 X-24.5 Z4.9
 X-24.6
 X-24.7
 X-24.8
 X-24.9 Z4.8
 X-25.0 Z4.7
 X-25.1
 X-25.3 Z4.6
 Z4.5
 X-25.4
 Z4.4
 X-25.5 Z4.3
 X-25.6 Z4.2
 X-25.7 Z4.1
 Z4.0
 X-25.8
 Z3.8
 X-25.9 Z3.7
 Z3.6
 Z3.5
 X-26.0 Z3.3
 Z3.2
 Z3.1
 Z3.0
 Z0.0
 X-29.0
 X-29.1
 X-29.2
 X-29.3
 X-29.4
 X-29.5 Z-0.1
 X-29.6
 X-29.7
 X-29.8
 X-29.9 Z-0.2
 X-30.0 Z-0.3
 X-30.1
 X-30.2 Z-0.4
 X-30.3
 Z-0.5
 X-30.4
 X-30.5 Z-0.7
 X-30.6 Z-0.8
 X-30.7 Z-0.9
 Z-1.0
 X-32.0
 Y-8.9
 X-30.8
 X-30.6 Z-0.8
 X-30.5 Z-0.7
 X-30.4 Z-0.6
 Z-0.5
 X-30.3
 Z-0.4
 X-30.1 Z-0.3
 X-30.0
 X-29.9 Z-0.2
 X-29.8
 Z-0.1
 X-29.6
 X-29.5
 X-29.4 Z-0.0
 X-29.3
 X-29.0
 X-26.0
 X-25.9 Z3.5
 Z3.6
 Z3.7
 X-25.8 Z3.8
 Z3.9
 Z4.0
 X-25.7 Z4.1
 X-25.6 Z4.2
 X-25.5 Z4.3
 X-25.4 Z4.4
 Z4.5
 X-25.3 Z4.6
 X-25.2
 X-25.1 Z4.7
 X-25.0
 X-24.9 Z4.8
 X-24.8
 Z4.9
 X-24.6
 X-24.5
 X-24.4 Z5.0
 X-24.3
 X-24.0
 X24.0
 X24.1
 X24.3
 X24.4
 X24.5 Z4.9
 X24.6
 X24.7
 X24.8
 X24.9 Z4.8
 X25.0 Z4.7
 X25.1
 X25.3 Z4.6
 Z4.5
 X25.4
 Z4.4
 X25.5 Z4.3
 X25.6 Z4.2
 X25.7 Z4.1
 Z4.0
 X25.8
 Z3.8
 X25.9 Z3.7
 Z3.6
 Z3.5
 X26.0 Z3.3
 Z3.2
 Z3.1
 Z3.0
 Z0.0
 X29.0
 X29.1
 X29.2
 X29.3
 X29.4
 X29.5 Z-0.1
 X29.6
 X29.7
 X29.8
 X29.9 Z-0.2
 X30.0 Z-0.3
 X30.1
 X30.2 Z-0.4
 X30.3
 Z-0.5
 X30.4
 X30.5 Z-0.7
 X30.6 Z-0.8
 X30.7 Z-0.9
 Z-1.0
 X32.0
 Y-8.5
 X30.8
 X30.6 Z-0.8
 X30.5 Z-0.7
 X30.4 Z-0.6
 Z-0.5
 X30.3
 Z-0.4
 X30.1 Z-0.3
 X30.0
 X29.9 Z-0.2
 X29.8
 Z-0.1
 X29.6
 X29.5
 X29.4 Z-0.0
 X29.3
 X29.0
 X26.0
 X25.9 Z3.5
 Z3.6
 Z3.7
 X25.8 Z3.8
 Z3.9
 Z4.0
 X25.7 Z4.1
 X25.6 Z4.2
 X25.5 Z4.3
 X25.4 Z4.4
 Z4.5
 X25.3 Z4.6
 X25.2
 X25.1 Z4.7
 X25.0
 X24.9 Z4.8
 X24.8
 Z4.9
 X24.6
 X24.5
 X24.4 Z5.0
 X24.3
 X24.0
 X-24.0
 X-24.1
 X-24.3
 X-24.4
 X-24.5 Z4.9
 X-24.6
 X-24.7
 X-24.8
 X-24.9 Z4.8
 X-25.0 Z4.7
 X-25.1
 X-25.3 Z4.6
 Z4.5
 X-25.4
 Z4.4
 X-25.5 Z4.3
 X-25.6 Z4.2
 X-25.7 Z4.1
 Z4.0
 X-25.8
 Z3.8
 X-25.9 Z3.7
 Z3.6
 Z3.5
 X-26.0 Z3.3
 Z3.2
 Z3.1
 Z3.0
 Z0.0
 X-29.0
 X-29.1
 X-29.2
 X-29.3
 X-29.4
 X-29.5 Z-0.1
 X-29.6
 X-29.7
 X-29.8
 X-29.9 Z-0.2
 X-30.0 Z-0.3
 X-30.1
 X-30.2 Z-0.4
 X-30.3
 Z-0.5
 X-30.4
 X-30.5 Z-0.7
 X-30.6 Z-0.8
 X-30.7 Z-0.9
 Z-1.0
 X-32.0
 Y-8.1
 X-30.8
 X-30.6 Z-0.8
 X-30.5 Z-0.7
 X-30.4 Z-0.6
 Z-0.5
 X-30.3
 Z-0.4
 X-30.1 Z-0.3
 X-30.0
 X-29.9 Z-0.2
 X-29.8
 Z-0.1
 X-29.6
 X-29.5
 X-29.4 Z-0.0
 X-29.3
 X-29.0
 X-26.0
 X-25.9 Z3.5
 Z3.6
 Z3.7
 X-25.8 Z3.8
 Z3.9
 Z4.0
 X-25.7 Z4.1
 X-25.6 Z4.2
 X-25.5 Z4.3
 X-25.4 Z4.4
 Z4.5
 X-25.3 Z4.6
 X-25.2
 X-25.1 Z4.7
 X-25.0
 X-24.9 Z4.8
 X-24.8
 Z4.9
 X-24.6
 X-24.5
 X-24.4 Z5.0
 X-24.3
 X-24.0
 X24.0
 X24.1
 X24.3
 X24.4
 X24.5 Z4.9
 X24.6
 X24.7
 X24.8
 X24.9 Z4.8
 X25.0 Z4.7
 X25.1
 X25.3 Z4.6
 Z4.5
 X25.4
 Z4.4
 X25.5 Z4.3
 X25.6 Z4.2
 X25.7 Z4.1
 Z4.0
 X25.8
 Z3.8
 X25.9 Z3.7
 Z3.6
 Z3.5
 X26.0 Z3.3
 Z3.2
 Z3.1
 Z3.0
 Z0.0
 X29.0
 X29.1
 X29.2
 X29.3
 X29.4
 X29.5 Z-0.1
 X29.6
 X29.7
 X29.8
 X29.9 Z-0.2
 X30.0 Z-0.3
 X30.1
 X30.2 Z-0.4
 X30.3
 Z-0.5
 X30.4
 X30.5 Z-0.7
 X30.6 Z-0.8
 X30.7 Z-0.9
 Z-1.0
 X32.0
 Y-7.8
 X30.8
 X30.6 Z-0.8
 X30.5 Z-0.7
 X30.4 Z-0.6
 Z-0.5
 X30.3
 Z-0.4
 X30.1 Z-0.3
 X30.0
 X29.9 Z-0.2
 X29.8
 Z-0.1
 X29.6
 X29.5
 X29.4 Z-0.0
 X29.3
 X29.0
 X26.0
 X25.9 Z3.5
 Z3.6
 Z3.7
 X25.8 Z3.8
 Z3.9
 Z4.0
 X25.7 Z4.1
 X25.6 Z4.2
 X25.5 Z4.3
 X25.4 Z4.4
 Z4.5
 X25.3 Z4.6
 X25.2
 X25.1 Z4.7
 X25.0
 X24.9 Z4.8
 X24.8
 Z4.9
 X24.6
 X24.5
 X24.4 Z5.0
 X24.3
 X24.0
 X-24.0
 X-24.1
 X-24.3
 X-24.4
 X-24.5 Z4.9
 X-24.6
 X-24.7
 X-24.8
 X-24.9 Z4.8
 X-25.0 Z4.7
 X-25.1
 X-25.3 Z4.6
 Z4.5
 X-25.4
 Z4.4
 X-25.5 Z4.3
 X-25.6 Z4.2
 X-25.7 Z4.1
 Z4.0
 X-25.8
 Z3.8
 X-25.9 Z3.7
 Z3.6
 Z3.5
 X-26.0 Z3.3
 Z3.2
 Z3.1
 Z3.0
 Z0.0
 X-29.0
 X-29.1
 X-29.2
 X-29.3
 X-29.4
 X-29.5 Z-0.1
 X-29.6
 X-29.7
 X-29.8
 X-29.9 Z-0.2
 X-30.0 Z-0.3
 X-30.1
 X-30.2 Z-0.4
 X-30.3
 Z-0.5
 X-30.4
 X-30.5 Z-0.7
 X-30.6 Z-0.8
 X-30.7 Z-0.9
 Z-1.0
 X-32.0
 Y-7.4
 X-30.8
 X-30.6 Z-0.8
 X-30.5 Z-0.7
 X-30.4 Z-0.6
 Z-0.5
 X-30.3
 Z-0.4
 X-30.1 Z-0.3
 X-30.0
 X-29.9 Z-0.2
 X-29.8
 Z-0.1
 X-29.6
 X-29.5
 X-29.4 Z-0.0
 X-29.3
 X-29.0
 X-26.0
 X-25.9 Z3.5
 Z3.6
 Z3.7
 X-25.8 Z3.8
 Z3.9
 Z4.0
 X-25.7 Z4.1
 X-25.6 Z4.2
 X-25.5 Z4.3
 X-25.4 Z4.4
 Z4.5
 X-25.3 Z4.6
 X-25.2
 X-25.1 Z4.7
 X-25.0
 X-24.9 Z4.8
 X-24.8
 Z4.9
 X-24.6
 X-24.5
 X-24.4 Z5.0
 X-24.3
 X-24.0
 X24.0
 X24.1
 X24.3
 X24.4
 X24.5 Z4.9
 X24.6
 X24.7
 X24.8
 X24.9 Z4.8
 X25.0 Z4.7
 X25.1
 X25.3 Z4.6
 Z4.5
 X25.4
 Z4.4
 X25.5 Z4.3
 X25.6 Z4.2
 X25.7 Z4.1
 Z4.0
 X25.8
 Z3.8
 X25.9 Z3.7
 Z3.6
 Z3.5
 X26.0 Z3.3
 Z3.2
 Z3.1
 Z3.0
 Z0.0
 X29.0
 X29.1
 X29.2
 X29.3
 X29.4
 X29.5 Z-0.1
 X29.6
 X29.7
 X29.8
 X29.9 Z-0.2
 X30.0 Z-0.3
 X30.1
 X30.2 Z-0.4
 X30.3
 Z-0.5
 X30.4
 X30.5 Z-0.7
 X30.6 Z-0.8
 X30.7 Z-0.9
 Z-1.0
 X32.0
 Y-7.0
 X30.8
 X30.6 Z-0.8
 X30.5 Z-0.7
 X30.4 Z-0.6
 Z-0.5
 X30.3
 Z-0.4
 X30.1 Z-0.3
 X30.0
 X29.9 Z-0.2
 X29.8
 Z-0.1
 X29.6
 X29.5
 X29.4 Z-0.0
 X29.3
 X29.0
 X26.0
 X25.9 Z3.5
 Z3.6
 Z3.7
 X25.8 Z3.8
 Z3.9
 Z4.0
 X25.7 Z4.1
 X25.6 Z4.2
 X25.5 Z4.3
 X25.4 Z4.4
 Z4.5
 X25.3 Z4.6
 X25.2
 X25.1 Z4.7
 X25.0
 X24.9 Z4.8
 X24.8
 Z4.9
 X24.6
 X24.5
 X24.4 Z5.0
 X24.3
 X24.0
 X-24.0
 X-24.1
 X-24.3
 X-24.4
 X-24.5 Z4.9
 X-24.6
 X-24.7
 X-24.8
 X-24.9 Z4.8
 X-25.0 Z4.7
 X-25.1
 X-25.3 Z4.6
 Z4.5
 X-25.4
 Z4.4
 X-25.5 Z4.3
 X-25.6 Z4.2
 X-25.7 Z4.1
 Z4.0
 X-25.8
 Z3.8
 X-25.9 Z3.7
 Z3.6
 Z3.5
 X-26.0 Z3.3
 Z3.2
 Z3.1
 Z3.0
 Z0.0
 X-29.0
 X-29.1
 X-29.2
 X-29.3
 X-29.4
 X-29.5 Z-0.1
 X-29.6
 X-29.7
 X-29.8
 X-29.9 Z-0.2
 X-30.0 Z-0.3
 X-30.1
 X-30.2 Z-0.4
 X-30.3
 Z-0.5
 X-30.4
 X-30.5 Z-0.7
 X-30.6 Z-0.8
 X-30.7 Z-0.9
 Z-1.0
 X-32.0
 Y-6.6
 X-30.8
 X-30.6 Z-0.8
 X-30.5 Z-0.7
 X-30.4 Z-0.6
 Z-0.5
 X-30.3
 Z-0.4
 X-30.1 Z-0.3
 X-30.0
 X-29.9 Z-0.2
 X-29.8
 Z-0.1
 X-29.6
 X-29.5
 X-29.4 Z-0.0
 X-29.3
 X-29.0
 X-26.0
 X-25.9 Z3.5
 Z3.6
 Z3.7
 X-25.8 Z3.8
 Z3.9
 Z4.0
 X-25.7 Z4.1
 X-25.6 Z4.2
 X-25.5 Z4.3
 X-25.4 Z4.4
 Z4.5
 X-25.3 Z4.6
 X-25.2
 X-25.1 Z4.7
 X-25.0
 X-24.9 Z4.8
 X-24.8
 Z4.9
 X-24.6
 X-24.5
 X-24.4 Z5.0
 X-24.3
 X-24.0
 X24.0
 X24.1
 X24.3
 X24.4
 X24.5 Z4.9
 X24.6
 X24.7
 X24.8
 X24.9 Z4.8
 X25.0 Z4.7
 X25.1
 X25.3 Z4.6
 Z4.5
 X25.4
 Z4.4
 X25.5 Z4.3
 X25.6 Z4.2
 X25.7 Z4.1
 Z4.0
 X25.8
 Z3.8
 X25.9 Z3.7
 Z3.6
 Z3.5
 X26.0 Z3.3
 Z3.2
 Z3.1
 Z3.0
 Z0.0
 X29.0
 X29.1
 X29.2
 X29.3
 X29.4
 X29.5 Z-0.1
 X29.6
 X29.7
 X29.8
 X29.9 Z-0.2
 X30.0 Z-0.3
 X30.1
 X30.2 Z-0.4
 X30.3
 Z-0.5
 X30.4
 X30.5 Z-0.7
 X30.6 Z-0.8
 X30.7 Z-0.9
 Z-1.0
 X32.0
 Y-6.2
 X30.8
 X30.6 Z-0.8
 X30.5 Z-0.7
 X30.4 Z-0.6
 Z-0.5
 X30.3
 Z-0.4
 X30.1 Z-0.3
 X30.0
 X29.9 Z-0.2
 X29.8
 Z-0.1
 X29.6
 X29.5
 X29.4 Z-0.0
 X29.3
 X29.0
 X26.0
 X25.9 Z3.5
 Z3.6
 Z3.7
 X25.8 Z3.8
 Z3.9
 Z4.0
 X25.7 Z4.1
 X25.6 Z4.2
 X25.5 Z4.3
 X25.4 Z4.4
 Z4.5
 X25.3 Z4.6
 X25.2
 X25.1 Z4.7
 X25.0
 X24.9 Z4.8
 X24.8
 Z4.9
 X24.6
 X24.5
 X24.4 Z5.0
 X24.3
 X24.0
 X-24.0
 X-24.1
 X-24.3
 X-24.4
 X-24.5 Z4.9
 X-24.6
 X-24.7
 X-24.8
 X-24.9 Z4.8
 X-25.0 Z4.7
 X-25.1
 X-25.3 Z4.6
 Z4.5
 X-25.4
 Z4.4
 X-25.5 Z4.3
 X-25.6 Z4.2
 X-25.7 Z4.1
 Z4.0
 X-25.8
 Z3.8
 X-25.9 Z3.7
 Z3.6
 Z3.5
 X-26.0 Z3.3
 Z3.2
 Z3.1
 Z3.0
 Z0.0
 X-29.0
 X-29.1
 X-29.2
 X-29.3
 X-29.4
 X-29.5 Z-0.1
 X-29.6
 X-29.7
 X-29.8
 X-29.9 Z-0.2
 X-30.0 Z-0.3
 X-30.1
 X-30.2 Z-0.4
 X-30.3
 Z-0.5
 X-30.4
 X-30.5 Z-0.7
 X-30.6 Z-0.8
 X-30.7 Z-0.9
 Z-1.0
 X-32.0
 Y-5.8
 X-30.8
 X-30.6 Z-0.8
 X-30.5 Z-0.7
 X-30.4 Z-0.6
 Z-0.5
 X-30.3
 Z-0.4
 X-30.1 Z-0.3
 X-30.0
 X-29.9 Z-0.2
 X-29.8
 Z-0.1
 X-29.6
 X-29.5
 X-29.4 Z-0.0
 X-29.3
 X-29.0
 X-26.0
 X-25.9 Z3.5
 Z3.6
 Z3.7
 X-25.8 Z3.8
 Z3.9
 Z4.0
 X-25.7 Z4.1
 X-25.6 Z4.2
 X-25.5 Z4.3
 X-25.4 Z4.4
 Z4.5
 X-25.3 Z4.6
 X-25.2
 X-25.1 Z4.7
 X-25.0
 X-24.9 Z4.8
 X-24.8
 Z4.9
 X-24.6
 X-24.5
 X-24.4 Z5.0
 X-24.3
 X-24.0
 X24.0
 X24.1
 X24.3
 X24.4
 X24.5 Z4.9
 X24.6
 X24.7
 X24.8
 X24.9 Z4.8
 X25.0 Z4.7
 X25.1
 X25.3 Z4.6
 Z4.5
 X25.4
 Z4.4
 X25.5 Z4.3
 X25.6 Z4.2
 X25.7 Z4.1
 Z4.0
 X25.8
 Z3.8
 X25.9 Z3.7
 Z3.6
 Z3.5
 X26.0 Z3.3
 Z3.2
 Z3.1
 Z3.0
 Z0.0
 X29.0
 X29.1
 X29.2
 X29.3
 X29.4
 X29.5 Z-0.1
 X29.6
 X29.7
 X29.8
 X29.9 Z-0.2
 X30.0 Z-0.3
 X30.1
 X30.2 Z-0.4
 X30.3
 Z-0.5
 X30.4
 X30.5 Z-0.7
 X30.6 Z-0.8
 X30.7 Z-0.9
 Z-1.0
 X32.0
 Y-5.4
 X30.8
 X30.6 Z-0.8
 X30.5 Z-0.7
 X30.4 Z-0.6
 Z-0.5
 X30.3
 Z-0.4
 X30.1 Z-0.3
 X30.0
 X29.9 Z-0.2
 X29.8
 Z-0.1
 X29.6
 X29.5
 X29.4 Z-0.0
 X29.3
 X29.0
 X26.0
 X25.9 Z3.5
 Z3.6
 Z3.7
 X25.8 Z3.8
 Z3.9
 Z4.0
 X25.7 Z4.1
 X25.6 Z4.2
 X25.5 Z4.3
 X25.4 Z4.4
 Z4.5
 X25.3 Z4.6
 X25.2
 X25.1 Z4.7
 X25.0
 X24.9 Z4.8
 X24.8
 Z4.9
 X24.6
 X24.5
 X24.4 Z5.0
 X24.3
 X24.0
 X-24.0
 X-24.1
 X-24.3
 X-24.4
 X-24.5 Z4.9
 X-24.6
 X-24.7
 X-24.8
 X-24.9 Z4.8
 X-25.0 Z4.7
 X-25.1
 X-25.3 Z4.6
 Z4.5
 X-25.4
 Z4.4
 X-25.5 Z4.3
 X-25.6 Z4.2
 X-25.7 Z4.1
 Z4.0
 X-25.8
 Z3.8
 X-25.9 Z3.7
 Z3.6
 Z3.5
 X-26.0 Z3.3
 Z3.2
 Z3.1
 Z3.0
 Z0.0
 X-29.0
 X-29.1
 X-29.2
 X-29.3
 X-29.4
 X-29.5 Z-0.1
 X-29.6
 X-29.7
 X-29.8
 X-29.9 Z-0.2
 X-30.0 Z-0.3
 X-30.1
 X-30.2 Z-0.4
 X-30.3
 Z-0.5
 X-30.4
 X-30.5 Z-0.7
 X-30.6 Z-0.8
 X-30.7 Z-0.9
 Z-1.0
 X-32.0
 Y-5.0
 X-30.8
 X-30.6 Z-0.8
 X-30.5 Z-0.7
 X-30.4 Z-0.6
 Z-0.5
 X-30.3
 Z-0.4
 X-30.1 Z-0.3
 X-30.0
 X-29.9 Z-0.2
 X-29.8
 Z-0.1
 X-29.6
 X-29.5
 X-29.4 Z-0.0
 X-29.3
 X-29.0
 X-26.0
 X-25.9 Z3.5
 Z3.6
 Z3.7
 X-25.8 Z3.8
 Z3.9
 Z4.0
 X-25.7 Z4.1
 X-25.6 Z4.2
 X-25.5 Z4.3
 X-25.4 Z4.4
 Z4.5
 X-25.3 Z4.6
 X-25.2
 X-25.1 Z4.7
 X-25.0
 X-24.9 Z4.8
 X-24.8
 Z4.9
 X-24.6
 X-24.5
 X-24.4 Z5.0
 X-24.3
 X-24.0
 X24.0
 X24.1
 X24.3
 X24.4
 X24.5 Z4.9
 X24.6
 X24.7
 X24.8
 X24.9 Z4.8
 X25.0 Z4.7
 X25.1
 X25.3 Z4.6
 Z4.5
 X25.4
 Z4.4
 X25.5 Z4.3
 X25.6 Z4.2
 X25.7 Z4.1
 Z4.0
 X25.8
 Z3.8
 X25.9 Z3.7
 Z3.6
 Z3.5
 X26.0 Z3.3
 Z3.2
 Z3.1
 Z3.0
 Z0.0
 X29.0
 X29.1
 X29.2
 X29.3
 X29.4
 X29.5 Z-0.1
 X29.6
 X29.7
 X29.8
 X29.9 Z-0.2
 X30.0 Z-0.3
 X30.1
 X30.2 Z-0.4
 X30.3
 Z-0.5
 X30.4
 X30.5 Z-0.7
 X30.6 Z-0.8
 X30.7 Z-0.9
 Z-1.0
 X32.0
 Y-4.6
 X30.8
 X30.6 Z-0.8
 X30.5 Z-0.7
 X30.4 Z-0.6
 Z-0.5
 X30.3
 Z-0.4
 X30.1 Z-0.3
 X30.0
 X29.9 Z-0.2
 X29.8
 Z-0.1
 X29.6
 X29.5
 X29.4 Z-0.0
 X29.3
 X29.0
 X26.0
 X25.9 Z3.5
 Z3.6
 Z3.7
 X25.8 Z3.8
 Z3.9
 Z4.0
 X25.7 Z4.1
 X25.6 Z4.2
 X25.5 Z4.3
 X25.4 Z4.4
 Z4.5
 X25.3 Z4.6
 X25.2
 X25.1 Z4.7
 X25.0
 X24.9 Z4.8
 X24.8
 Z4.9
 X24.6
 X24.5
 X24.4 Z5.0
 X24.3
 X24.0
 X-24.0
 X-24.1
 X-24.3
 X-24.4
 X-24.5 Z4.9
 X-24.6
 X-24.7
 X-24.8
 X-24.9 Z4.8
 X-25.0 Z4.7
 X-25.1
 X-25.3 Z4.6
 Z4.5
 X-25.4
 Z4.4
 X-25.5 Z4.3
 X-25.6 Z4.2
 X-25.7 Z4.1
 Z4.0
 X-25.8
 Z3.8
 X-25.9 Z3.7
 Z3.6
 Z3.5
 X-26.0 Z3.3
 Z3.2
 Z3.1
 Z3.0
 Z0.0
 X-29.0
 X-29.1
 X-29.2
 X-29.3
 X-29.4
 X-29.5 Z-0.1
 X-29.6
 X-29.7
 X-29.8
 X-29.9 Z-0.2
 X-30.0 Z-0.3
 X-30.1
 X-30.2 Z-0.4
 X-30.3
 Z-0.5
 X-30.4
 X-30.5 Z-0.7
 X-30.6 Z-0.8
 X-30.7 Z-0.9
 Z-1.0
 X-32.0
 Y-4.2
 X-30.8
 X-30.6 Z-0.8
 X-30.5 Z-0.7
 X-30.4 Z-0.6
 Z-0.5
 X-30.3
 Z-0.4
 X-30.1 Z-0.3
 X-30.0
 X-29.9 Z-0.2
 X-29.8
 Z-0.1
 X-29.6
 X-29.5
 X-29.4 Z-0.0
 X-29.3
 X-29.0
 X-26.0
 X-25.9 Z3.5
 Z3.6
 Z3.7
 X-25.8 Z3.8
 Z3.9
 Z4.0
 X-25.7 Z4.1
 X-25.6 Z4.2
 X-25.5 Z4.3
 X-25.4 Z4.4
 Z4.5
 X-25.3 Z4.6
 X-25.2
 X-25.1 Z4.7
 X-25.0
 X-24.9 Z4.8
 X-24.8
 Z4.9
 X-24.6
 X-24.5
 X-24.4 Z5.0
 X-24.3
 X-24.0
 X24.0
 X24.1
 X24.3
 X24.4
 X24.5 Z4.9
 X24.6
 X24.7
 X24.8
 X24.9 Z4.8
 X25.0 Z4.7
 X25.1
 X25.3 Z4.6
 Z4.5
 X25.4
 Z4.4
 X25.5 Z4.3
 X25.6 Z4.2
 X25.7 Z4.1
 Z4.0
 X25.8
 Z3.8
 X25.9 Z3.7
 Z3.6
 Z3.5
 X26.0 Z3.3
 Z3.2
 Z3.1
 Z3.0
 Z0.0
 X29.0
 X29.1
 X29.2
 X29.3
 X29.4
 X29.5 Z-0.1
 X29.6
 X29.7
 X29.8
 X29.9 Z-0.2
 X30.0 Z-0.3
 X30.1
 X30.2 Z-0.4
 X30.3
 Z-0.5
 X30.4
 X30.5 Z-0.7
 X30.6 Z-0.8
 X30.7 Z-0.9
 Z-1.0
 X32.0
 Y-3.8
 X30.8
 X30.6 Z-0.8
 X30.5 Z-0.7
 X30.4 Z-0.6
 Z-0.5
 X30.3
 Z-0.4
 X30.1 Z-0.3
 X30.0
 X29.9 Z-0.2
 X29.8
 Z-0.1
 X29.6
 X29.5
 X29.4 Z-0.0
 X29.3
 X29.0
 X26.0
 X25.9 Z3.5
 Z3.6
 Z3.7
 X25.8 Z3.8
 Z3.9
 Z4.0
 X25.7 Z4.1
 X25.6 Z4.2
 X25.5 Z4.3
 X25.4 Z4.4
 Z4.5
 X25.3 Z4.6
 X25.2
 X25.1 Z4.7
 X25.0
 X24.9 Z4.8
 X24.8
 Z4.9
 X24.6
 X24.5
 X24.4 Z5.0
 X24.3
 X24.0
 X-24.0
 X-24.1
 X-24.3
 X-24.4
 X-24.5 Z4.9
 X-24.6
 X-24.7
 X-24.8
 X-24.9 Z4.8
 X-25.0 Z4.7
 X-25.1
 X-25.3 Z4.6
 Z4.5
 X-25.4
 Z4.4
 X-25.5 Z4.3
 X-25.6 Z4.2
 X-25.7 Z4.1
 Z4.0
 X-25.8
 Z3.8
 X-25.9 Z3.7
 Z3.6
 Z3.5
 X-26.0 Z3.3
 Z3.2
 Z3.1
 Z3.0
 Z0.0
 X-29.0
 X-29.1
 X-29.2
 X-29.3
 X-29.4
 X-29.5 Z-0.1
 X-29.6
 X-29.7
 X-29.8
 X-29.9 Z-0.2
 X-30.0 Z-0.3
 X-30.1
 X-30.2 Z-0.4
 X-30.3
 Z-0.5
 X-30.4
 X-30.5 Z-0.7
 X-30.6 Z-0.8
 X-30.7 Z-0.9
 Z-1.0
 X-32.0
 Y-3.4
 X-30.8
 X-30.6 Z-0.8
 X-30.5 Z-0.7
 X-30.4 Z-0.6
 Z-0.5
 X-30.3
 Z-0.4
 X-30.1 Z-0.3
 X-30.0
 X-29.9 Z-0.2
 X-29.8
 Z-0.1
 X-29.6
 X-29.5
 X-29.4 Z-0.0
 X-29.3
 X-29.0
 X-26.0
 X-25.9 Z3.5
 Z3.6
 Z3.7
 X-25.8 Z3.8
 Z3.9
 Z4.0
 X-25.7 Z4.1
 X-25.6 Z4.2
 X-25.5 Z4.3
 X-25.4 Z4.4
 Z4.5
 X-25.3 Z4.6
 X-25.2
 X-25.1 Z4.7
 X-25.0
 X-24.9 Z4.8
 X-24.8
 Z4.9
 X-24.6
 X-24.5
 X-24.4 Z5.0
 X-24.3
 X-24.0
 X24.0
 X24.1
 X24.3
 X24.4
 X24.5 Z4.9
 X24.6
 X24.7
 X24.8
 X24.9 Z4.8
 X25.0 Z4.7
 X25.1
 X25.3 Z4.6
 Z4.5
 X25.4
 Z4.4
 X25.5 Z4.3
 X25.6 Z4.2
 X25.7 Z4.1
 Z4.0
 X25.8
 Z3.8
 X25.9 Z3.7
 Z3.6
 Z3.5
 X26.0 Z3.3
 Z3.2
 Z3.1
 Z3.0
 Z0.0
 X29.0
 X29.1
 X29.2
 X29.3
 X29.4
 X29.5 Z-0.1
 X29.6
 X29.7
 X29.8
 X29.9 Z-0.2
 X30.0 Z-0.3
 X30.1
 X30.2 Z-0.4
 X30.3
 Z-0.5
 X30.4
 X30.5 Z-0.7
 X30.6 Z-0.8
 X30.7 Z-0.9
 Z-1.0
 X32.0
 Y-3.0
 X30.8
 X30.6 Z-0.8
 X30.5 Z-0.7
 X30.4 Z-0.6
 Z-0.5
 X30.3
 Z-0.4
 X30.1 Z-0.3
 X30.0
 X29.9 Z-0.2
 X29.8
 Z-0.1
 X29.6
 X29.5
 X29.4 Z-0.0
 X29.3
 X29.0
 X26.0
 X25.9 Z3.5
 Z3.6
 Z3.7
 X25.8 Z3.8
 Z3.9
 Z4.0
 X25.7 Z4.1
 X25.6 Z4.2
 X25.5 Z4.3
 X25.4 Z4.4
 Z4.5
 X25.3 Z4.6
 X25.2
 X25.1 Z4.7
 X25.0
 X24.9 Z4.8
 X24.8
 Z4.9
 X24.6
 X24.5
 X24.4 Z5.0
 X24.3
 X24.0
 X-24.0
 X-24.1
 X-24.3
 X-24.4
 X-24.5 Z4.9
 X-24.6
 X-24.7
 X-24.8
 X-24.9 Z4.8
 X-25.0 Z4.7
 X-25.1
 X-25.3 Z4.6
 Z4.5
 X-25.4
 Z4.4
 X-25.5 Z4.3
 X-25.6 Z4.2
 X-25.7 Z4.1
 Z4.0
 X-25.8
 Z3.8
 X-25.9 Z3.7
 Z3.6
 Z3.5
 X-26.0 Z3.3
 Z3.2
 Z3.1
 Z3.0
 Z0.0
 X-29.0
 X-29.1
 X-29.2
 X-29.3
 X-29.4
 X-29.5 Z-0.1
 X-29.6
 X-29.7
 X-29.8
 X-29.9 Z-0.2
 X-30.0 Z-0.3
 X-30.1
 X-30.2 Z-0.4
 X-30.3
 Z-0.5
 X-30.4
 X-30.5 Z-0.7
 X-30.6 Z-0.8
 X-30.7 Z-0.9
 Z-1.0
 X-32.0
 Y-2.6
 X-30.8
 X-30.6 Z-0.8
 X-30.5 Z-0.7
 X-30.4 Z-0.6
 Z-0.5
 X-30.3
 Z-0.4
 X-30.1 Z-0.3
 X-30.0
 X-29.9 Z-0.2
 X-29.8
 Z-0.1
 X-29.6
 X-29.5
 X-29.4 Z-0.0
 X-29.3
 X-29.0
 X-26.0
 X-25.9 Z3.5
 Z3.6
 Z3.7
 X-25.8 Z3.8
 Z3.9
 Z4.0
 X-25.7 Z4.1
 X-25.6 Z4.2
 X-25.5 Z4.3
 X-25.4 Z4.4
 Z4.5
 X-25.3 Z4.6
 X-25.2
 X-25.1 Z4.7
 X-25.0
 X-24.9 Z4.8
 X-24.8
 Z4.9
 X-24.6
 X-24.5
 X-24.4 Z5.0
 X-24.3
 X-24.0
 X24.0
 X24.1
 X24.3
 X24.4
 X24.5 Z4.9
 X24.6
 X24.7
 X24.8
 X24.9 Z4.8
 X25.0 Z4.7
 X25.1
 X25.3 Z4.6
 Z4.5
 X25.4
 Z4.4
 X25.5 Z4.3
 X25.6 Z4.2
 X25.7 Z4.1
 Z4.0
 X25.8
 Z3.8
 X25.9 Z3.7
 Z3.6
 Z3.5
 X26.0 Z3.3
 Z3.2
 Z3.1
 Z3.0
 Z0.0
 X29.0
 X29.1
 X29.2
 X29.3
 X29.4
 X29.5 Z-0.1
 X29.6
 X29.7
 X29.8
 X29.9 Z-0.2
 X30.0 Z-0.3
 X30.1
 X30.2 Z-0.4
 X30.3
 Z-0.5
 X30.4
 X30.5 Z-0.7
 X30.6 Z-0.8
 X30.7 Z-0.9
 Z-1.0
 X32.0
 Y-2.2
 X30.8
 X30.6 Z-0.8
 X30.5 Z-0.7
 X30.4 Z-0.6
 Z-0.5
 X30.3
 Z-0.4
 X30.1 Z-0.3
 X30.0
 X29.9 Z-0.2
 X29.8
 Z-0.1
 X29.6
 X29.5
 X29.4 Z-0.0
 X29.3
 X29.0
 X26.0
 X25.9 Z3.5
 Z3.6
 Z3.7
 X25.8 Z3.8
 Z3.9
 Z4.0
 X25.7 Z4.1
 X25.6 Z4.2
 X25.5 Z4.3
 X25.4 Z4.4
 Z4.5
 X25.3 Z4.6
 X25.2
 X25.1 Z4.7
 X25.0
 X24.9 Z4.8
 X24.8
 Z4.9
 X24.6
 X24.5
 X24.4 Z5.0
 X24.3
 X24.0
 X-24.0
 X-24.1
 X-24.3
 X-24.4
 X-24.5 Z4.9
 X-24.6
 X-24.7
 X-24.8
 X-24.9 Z4.8
 X-25.0 Z4.7
 X-25.1
 X-25.3 Z4.6
 Z4.5
 X-25.4
 Z4.4
 X-25.5 Z4.3
 X-25.6 Z4.2
 X-25.7 Z4.1
 Z4.0
 X-25.8
 Z3.8
 X-25.9 Z3.7
 Z3.6
 Z3.5
 X-26.0 Z3.3
 Z3.2
 Z3.1
 Z3.0
 Z0.0
 X-29.0
 X-29.1
 X-29.2
 X-29.3
 X-29.4
 X-29.5 Z-0.1
 X-29.6
 X-29.7
 X-29.8
 X-29.9 Z-0.2
 X-30.0 Z-0.3
 X-30.1
 X-30.2 Z-0.4
 X-30.3
 Z-0.5
 X-30.4
 X-30.5 Z-0.7
 X-30.6 Z-0.8
 X-30.7 Z-0.9
 Z-1.0
 X-32.0
 Y-1.8
 X-30.8
 X-30.6 Z-0.8
 X-30.5 Z-0.7
 X-30.4 Z-0.6
 Z-0.5
 X-30.3
 Z-0.4
 X-30.1 Z-0.3
 X-30.0
 X-29.9 Z-0.2
 X-29.8
 Z-0.1
 X-29.6
 X-29.5
 X-29.4 Z-0.0
 X-29.3
 X-29.0
 X-26.0
 X-25.9 Z3.5
 Z3.6
 Z3.7
 X-25.8 Z3.8
 Z3.9
 Z4.0
 X-25.7 Z4.1
 X-25.6 Z4.2
 X-25.5 Z4.3
 X-25.4 Z4.4
 Z4.5
 X-25.3 Z4.6
 X-25.2
 X-25.1 Z4.7
 X-25.0
 X-24.9 Z4.8
 X-24.8
 Z4.9
 X-24.6
 X-24.5
 X-24.4 Z5.0
 X-24.3
 X-24.0
 X24.0
 X24.1
 X24.3
 X24.4
 X24.5 Z4.9
 X24.6
 X24.7
 X24.8
 X24.9 Z4.8
 X25.0 Z4.7
 X25.1
 X25.3 Z4.6
 Z4.5
 X25.4
 Z4.4
 X25.5 Z4.3
 X25.6 Z4.2
 X25.7 Z4.1
 Z4.0
 X25.8
 Z3.8
 X25.9 Z3.7
 Z3.6
 Z3.5
 X26.0 Z3.3
 Z3.2
 Z3.1
 Z3.0
 Z0.0
 X29.0
 X29.1
 X29.2
 X29.3
 X29.4
 X29.5 Z-0.1
 X29.6
 X29.7
 X29.8
 X29.9 Z-0.2
 X30.0 Z-0.3
 X30.1
 X30.2 Z-0.4
 X30.3
 Z-0.5
 X30.4
 X30.5 Z-0.7
 X30.6 Z-0.8
 X30.7 Z-0.9
 Z-1.0
 X32.0
 Y-1.4
 X30.8
 X30.6 Z-0.8
 X30.5 Z-0.7
 X30.4 Z-0.6
 Z-0.5
 X30.3
 Z-0.4
 X30.1 Z-0.3
 X30.0
 X29.9 Z-0.2
 X29.8
 Z-0.1
 X29.6
 X29.5
 X29.4 Z-0.0
 X29.3
 X29.0
 X26.0
 X25.9 Z3.5
 Z3.6
 Z3.7
 X25.8 Z3.8
 Z3.9
 Z4.0
 X25.7 Z4.1
 X25.6 Z4.2
 X25.5 Z4.3
 X25.4 Z4.4
 Z4.5
 X25.3 Z4.6
 X25.2
 X25.1 Z4.7
 X25.0
 X24.9 Z4.8
 X24.8
 Z4.9
 X24.6
 X24.5
 X24.4 Z5.0
 X24.3
 X24.0
 X-24.0
 X-24.1
 X-24.3
 X-24.4
 X-24.5 Z4.9
 X-24.6
 X-24.7
 X-24.8
 X-24.9 Z4.8
 X-25.0 Z4.7
 X-25.1
 X-25.3 Z4.6
 Z4.5
 X-25.4
 Z4.4
 X-25.5 Z4.3
 X-25.6 Z4.2
 X-25.7 Z4.1
 Z4.0
 X-25.8
 Z3.8
 X-25.9 Z3.7
 Z3.6
 Z3.5
 X-26.0 Z3.3
 Z3.2
 Z3.1
 Z3.0
 Z0.0
 X-29.0
 X-29.1
 X-29.2
 X-29.3
 X-29.4
 X-29.5 Z-0.1
 X-29.6
 X-29.7
 X-29.8
 X-29.9 Z-0.2
 X-30.0 Z-0.3
 X-30.1
 X-30.2 Z-0.4
 X-30.3
 Z-0.5
 X-30.4
 X-30.5 Z-0.7
 X-30.6 Z-0.8
 X-30.7 Z-0.9
 Z-1.0
 X-32.0
 Y-1.0
 X-30.8
 X-30.6 Z-0.8
 X-30.5 Z-0.7
 X-30.4 Z-0.6
 Z-0.5
 X-30.3
 Z-0.4
 X-30.1 Z-0.3
 X-30.0
 X-29.9 Z-0.2
 X-29.8
 Z-0.1
 X-29.6
 X-29.5
 X-29.4 Z-0.0
 X-29.3
 X-29.0
 X-26.0
 X-25.9 Z3.5
 Z3.6
 Z3.7
 X-25.8 Z3.8
 Z3.9
 Z4.0
 X-25.7 Z4.1
 X-25.6 Z4.2
 X-25.5 Z4.3
 X-25.4 Z4.4
 Z4.5
 X-25.3 Z4.6
 X-25.2
 X-25.1 Z4.7
 X-25.0
 X-24.9 Z4.8
 X-24.8
 Z4.9
 X-24.6
 X-24.5
 X-24.4 Z5.0
 X-24.3
 X-24.0
 X24.0
 X24.1
 X24.3
 X24.4
 X24.5 Z4.9
 X24.6
 X24.7
 X24.8
 X24.9 Z4.8
 X25.0 Z4.7
 X25.1
 X25.3 Z4.6
 Z4.5
 X25.4
 Z4.4
 X25.5 Z4.3
 X25.6 Z4.2
 X25.7 Z4.1
 Z4.0
 X25.8
 Z3.8
 X25.9 Z3.7
 Z3.6
 Z3.5
 X26.0 Z3.3
 Z3.2
 Z3.1
 Z3.0
 Z0.0
 X29.0
 X29.1
 X29.2
 X29.3
 X29.4
 X29.5 Z-0.1
 X29.6
 X29.7
 X29.8
 X29.9 Z-0.2
 X30.0 Z-0.3
 X30.1
 X30.2 Z-0.4
 X30.3
 Z-0.5
 X30.4
 X30.5 Z-0.7
 X30.6 Z-0.8
 X30.7 Z-0.9
 Z-1.0
 X32.0
 Y-0.6
 X30.8
 X30.6 Z-0.8
 X30.5 Z-0.7
 X30.4 Z-0.6
 Z-0.5
 X30.3
 Z-0.4
 X30.1 Z-0.3
 X30.0
 X29.9 Z-0.2
 X29.8
 Z-0.1
 X29.6
 X29.5
 X29.4 Z-0.0
 X29.3
 X29.0
 X26.0
 X25.9 Z3.5
 Z3.6
 Z3.7
 X25.8 Z3.8
 Z3.9
 Z4.0
 X25.7 Z4.1
 X25.6 Z4.2
 X25.5 Z4.3
 X25.4 Z4.4
 Z4.5
 X25.3 Z4.6
 X25.2
 X25.1 Z4.7
 X25.0
 X24.9 Z4.8
 X24.8
 Z4.9
 X24.6
 X24.5
 X24.4 Z5.0
 X24.3
 X24.0
 X-24.0
 X-24.1
 X-24.3
 X-24.4
 X-24.5 Z4.9
 X-24.6
 X-24.7
 X-24.8
 X-24.9 Z4.8
 X-25.0 Z4.7
 X-25.1
 X-25.3 Z4.6
 Z4.5
 X-25.4
 Z4.4
 X-25.5 Z4.3
 X-25.6 Z4.2
 X-25.7 Z4.1
 Z4.0
 X-25.8
 Z3.8
 X-25.9 Z3.7
 Z3.6
 Z3.5
 X-26.0 Z3.3
 Z3.2
 Z3.1
 Z3.0
 Z0.0
 X-29.0
 X-29.1
 X-29.2
 X-29.3
 X-29.4
 X-29.5 Z-0.1
 X-29.6
 X-29.7
 X-29.8
 X-29.9 Z-0.2
 X-30.0 Z-0.3
 X-30.1
 X-30.2 Z-0.4
 X-30.3
 Z-0.5
 X-30.4
 X-30.5 Z-0.7
 X-30.6 Z-0.8
 X-30.7 Z-0.9
 Z-1.0
 X-32.0
 Y-0.2
 X-30.8
 X-30.6 Z-0.8
 X-30.5 Z-0.7
 X-30.4 Z-0.6
 Z-0.5
 X-30.3
 Z-0.4
 X-30.1 Z-0.3
 X-30.0
 X-29.9 Z-0.2
 X-29.8
 Z-0.1
 X-29.6
 X-29.5
 X-29.4 Z-0.0
 X-29.3
 X-29.0
 X-26.0
 X-25.9 Z3.5
 Z3.6
 Z3.7
 X-25.8 Z3.8
 Z3.9
 Z4.0
 X-25.7 Z4.1
 X-25.6 Z4.2
 X-25.5 Z4.3
 X-25.4 Z4.4
 Z4.5
 X-25.3 Z4.6
 X-25.2
 X-25.1 Z4.7
 X-25.0
 X-24.9 Z4.8
 X-24.8
 Z4.9
 X-24.6
 X-24.5
 X-24.4 Z5.0
 X-24.3
 X-24.0
 X24.0
 X24.1
 X24.3
 X24.4
 X24.5 Z4.9
 X24.6
 X24.7
 X24.8
 X24.9 Z4.8
 X25.0 Z4.7
 X25.1
 X25.3 Z4.6
 Z4.5
 X25.4
 Z4.4
 X25.5 Z4.3
 X25.6 Z4.2
 X25.7 Z4.1
 Z4.0
 X25.8
 Z3.8
 X25.9 Z3.7
 Z3.6
 Z3.5
 X26.0 Z3.3
 Z3.2
 Z3.1
 Z3.0
 Z0.0
 X29.0
 X29.1
 X29.2
 X29.3
 X29.4
 X29.5 Z-0.1
 X29.6
 X29.7
 X29.8
 X29.9 Z-0.2
 X30.0 Z-0.3
 X30.1
 X30.2 Z-0.4
 X30.3
 Z-0.5
 X30.4
 X30.5 Z-0.7
 X30.6 Z-0.8
 X30.7 Z-0.9
 Z-1.0
 X32.0
 Y0.2
 X30.8
 X30.6 Z-0.8
 X30.5 Z-0.7
 X30.4 Z-0.6
 Z-0.5
 X30.3
 Z-0.4
 X30.1 Z-0.3
 X30.0
 X29.9 Z-0.2
 X29.8
 Z-0.1
 X29.6
 X29.5
 X29.4 Z-0.0
 X29.3
 X29.0
 X26.0
 X25.9 Z3.5
 Z3.6
 Z3.7
 X25.8 Z3.8
 Z3.9
 Z4.0
 X25.7 Z4.1
 X25.6 Z4.2
 X25.5 Z4.3
 X25.4 Z4.4
 Z4.5
 X25.3 Z4.6
 X25.2
 X25.1 Z4.7
 X25.0
 X24.9 Z4.8
 X24.8
 Z4.9
 X24.6
 X24.5
 X24.4 Z5.0
 X24.3
 X24.0
 X-24.0
 X-24.1
 X-24.3
 X-24.4
 X-24.5 Z4.9
 X-24.6
 X-24.7
 X-24.8
 X-24.9 Z4.8
 X-25.0 Z4.7
 X-25.1
 X-25.3 Z4.6
 Z4.5
 X-25.4
 Z4.4
 X-25.5 Z4.3
 X-25.6 Z4.2
 X-25.7 Z4.1
 Z4.0
 X-25.8
 Z3.8
 X-25.9 Z3.7
 Z3.6
 Z3.5
 X-26.0 Z3.3
 Z3.2
 Z3.1
 Z3.0
 Z0.0
 X-29.0
 X-29.1
 X-29.2
 X-29.3
 X-29.4
 X-29.5 Z-0.1
 X-29.6
 X-29.7
 X-29.8
 X-29.9 Z-0.2
 X-30.0 Z-0.3
 X-30.1
 X-30.2 Z-0.4
 X-30.3
 Z-0.5
 X-30.4
 X-30.5 Z-0.7
 X-30.6 Z-0.8
 X-30.7 Z-0.9
 Z-1.0
 X-32.0
 Y0.6
 X-30.8
 X-30.6 Z-0.8
 X-30.5 Z-0.7
 X-30.4 Z-0.6
 Z-0.5
 X-30.3
 Z-0.4
 X-30.1 Z-0.3
 X-30.0
 X-29.9 Z-0.2
 X-29.8
 Z-0.1
 X-29.6
 X-29.5
 X-29.4 Z-0.0
 X-29.3
 X-29.0
 X-26.0
 X-25.9 Z3.5
 Z3.6
 Z3.7
 X-25.8 Z3.8
 Z3.9
 Z4.0
 X-25.7 Z4.1
 X-25.6 Z4.2
 X-25.5 Z4.3
 X-25.4 Z4.4
 Z4.5
 X-25.3 Z4.6
 X-25.2
 X-25.1 Z4.7
 X-25.0
 X-24.9 Z4.8
 X-24.8
 Z4.9
 X-24.6
 X-24.5
 X-24.4 Z5.0
 X-24.3
 X-24.0
 X24.0
 X24.1
 X24.3
 X24.4
 X24.5 Z4.9
 X24.6
 X24.7
 X24.8
 X24.9 Z4.8
 X25.0 Z4.7
 X25.1
 X25.3 Z4.6
 Z4.5
 X25.4
 Z4.4
 X25.5 Z4.3
 X25.6 Z4.2
 X25.7 Z4.1
 Z4.0
 X25.8
 Z3.8
 X25.9 Z3.7
 Z3.6
 Z3.5
 X26.0 Z3.3
 Z3.2
 Z3.1
 Z3.0
 Z0.0
 X29.0
 X29.1
 X29.2
 X29.3
 X29.4
 X29.5 Z-0.1
 X29.6
 X29.7
 X29.8
 X29.9 Z-0.2
 X30.0 Z-0.3
 X30.1
 X30.2 Z-0.4
 X30.3
 Z-0.5
 X30.4
 X30.5 Z-0.7
 X30.6 Z-0.8
 X30.7 Z-0.9
 Z-1.0
 X32.0
 Y1.0
 X30.8
 X30.6 Z-0.8
 X30.5 Z-0.7
 X30.4 Z-0.6
 Z-0.5
 X30.3
 Z-0.4
 X30.1 Z-0.3
 X30.0
 X29.9 Z-0.2
 X29.8
 Z-0.1
 X29.6
 X29.5
 X29.4 Z-0.0
 X29.3
 X29.0
 X26.0
 X25.9 Z3.5
 Z3.6
 Z3.7
 X25.8 Z3.8
 Z3.9
 Z4.0
 X25.7 Z4.1
 X25.6 Z4.2
 X25.5 Z4.3
 X25.4 Z4.4
 Z4.5
 X25.3 Z4.6
 X25.2
 X25.1 Z4.7
 X25.0
 X24.9 Z4.8
 X24.8
 Z4.9
 X24.6
 X24.5
 X24.4 Z5.0
 X24.3
 X24.0
 X-24.0
 X-24.1
 X-24.3
 X-24.4
 X-24.5 Z4.9
 X-24.6
 X-24.7
 X-24.8
 X-24.9 Z4.8
 X-25.0 Z4.7
 X-25.1
 X-25.3 Z4.6
 Z4.5
 X-25.4
 Z4.4
 X-25.5 Z4.3
 X-25.6 Z4.2
 X-25.7 Z4.1
 Z4.0
 X-25.8
 Z3.8
 X-25.9 Z3.7
 Z3.6
 Z3.5
 X-26.0 Z3.3
 Z3.2
 Z3.1
 Z3.0
 Z0.0
 X-29.0
 X-29.1
 X-29.2
 X-29.3
 X-29.4
 X-29.5 Z-0.1
 X-29.6
 X-29.7
 X-29.8
 X-29.9 Z-0.2
 X-30.0 Z-0.3
 X-30.1
 X-30.2 Z-0.4
 X-30.3
 Z-0.5
 X-30.4
 X-30.5 Z-0.7
 X-30.6 Z-0.8
 X-30.7 Z-0.9
 Z-1.0
 X-32.0
 Y1.4
 X-30.8
 X-30.6 Z-0.8
 X-30.5 Z-0.7
 X-30.4 Z-0.6
 Z-0.5
 X-30.3
 Z-0.4
 X-30.1 Z-0.3
 X-30.0
 X-29.9 Z-0.2
 X-29.8
 Z-0.1
 X-29.6
 X-29.5
 X-29.4 Z-0.0
 X-29.3
 X-29.0
 X-26.0
 X-25.9 Z3.5
 Z3.6
 Z3.7
 X-25.8 Z3.8
 Z3.9
 Z4.0
 X-25.7 Z4.1
 X-25.6 Z4.2
 X-25.5 Z4.3
 X-25.4 Z4.4
 Z4.5
 X-25.3 Z4.6
 X-25.2
 X-25.1 Z4.7
 X-25.0
 X-24.9 Z4.8
 X-24.8
 Z4.9
 X-24.6
 X-24.5
 X-24.4 Z5.0
 X-24.3
 X-24.0
 X24.0
 X24.1
 X24.3
 X24.4
 X24.5 Z4.9
 X24.6
 X24.7
 X24.8
 X24.9 Z4.8
 X25.0 Z4.7
 X25.1
 X25.3 Z4.6
 Z4.5
 X25.4
 Z4.4
 X25.5 Z4.3
 X25.6 Z4.2
 X25.7 Z4.1
 Z4.0
 X25.8
 Z3.8
 X25.9 Z3.7
 Z3.6
 Z3.5
 X26.0 Z3.3
 Z3.2
 Z3.1
 Z3.0
 Z0.0
 X29.0
 X29.1
 X29.2
 X29.3
 X29.4
 X29.5 Z-0.1
 X29.6
 X29.7
 X29.8
 X29.9 Z-0.2
 X30.0 Z-0.3
 X30.1
 X30.2 Z-0.4
 X30.3
 Z-0.5
 X30.4
 X30.5 Z-0.7
 X30.6 Z-0.8
 X30.7 Z-0.9
 Z-1.0
 X32.0
 Y1.8
 X30.8
 X30.6 Z-0.8
 X30.5 Z-0.7
 X30.4 Z-0.6
 Z-0.5
 X30.3
 Z-0.4
 X30.1 Z-0.3
 X30.0
 X29.9 Z-0.2
 X29.8
 Z-0.1
 X29.6
 X29.5
 X29.4 Z-0.0
 X29.3
 X29.0
 X26.0
 X25.9 Z3.5
 Z3.6
 Z3.7
 X25.8 Z3.8
 Z3.9
 Z4.0
 X25.7 Z4.1
 X25.6 Z4.2
 X25.5 Z4.3
 X25.4 Z4.4
 Z4.5
 X25.3 Z4.6
 X25.2
 X25.1 Z4.7
 X25.0
 X24.9 Z4.8
 X24.8
 Z4.9
 X24.6
 X24.5
 X24.4 Z5.0
 X24.3
 X24.0
 X-24.0
 X-24.1
 X-24.3
 X-24.4
 X-24.5 Z4.9
 X-24.6
 X-24.7
 X-24.8
 X-24.9 Z4.8
 X-25.0 Z4.7
 X-25.1
 X-25.3 Z4.6
 Z4.5
 X-25.4
 Z4.4
 X-25.5 Z4.3
 X-25.6 Z4.2
 X-25.7 Z4.1
 Z4.0
 X-25.8
 Z3.8
 X-25.9 Z3.7
 Z3.6
 Z3.5
 X-26.0 Z3.3
 Z3.2
 Z3.1
 Z3.0
 Z0.0
 X-29.0
 X-29.1
 X-29.2
 X-29.3
 X-29.4
 X-29.5 Z-0.1
 X-29.6
 X-29.7
 X-29.8
 X-29.9 Z-0.2
 X-30.0 Z-0.3
 X-30.1
 X-30.2 Z-0.4
 X-30.3
 Z-0.5
 X-30.4
 X-30.5 Z-0.7
 X-30.6 Z-0.8
 X-30.7 Z-0.9
 Z-1.0
 X-32.0
 Y2.2
 X-30.8
 X-30.6 Z-0.8
 X-30.5 Z-0.7
 X-30.4 Z-0.6
 Z-0.5
 X-30.3
 Z-0.4
 X-30.1 Z-0.3
 X-30.0
 X-29.9 Z-0.2
 X-29.8
 Z-0.1
 X-29.6
 X-29.5
 X-29.4 Z-0.0
 X-29.3
 X-29.0
 X-26.0
 X-25.9 Z3.5
 Z3.6
 Z3.7
 X-25.8 Z3.8
 Z3.9
 Z4.0
 X-25.7 Z4.1
 X-25.6 Z4.2
 X-25.5 Z4.3
 X-25.4 Z4.4
 Z4.5
 X-25.3 Z4.6
 X-25.2
 X-25.1 Z4.7
 X-25.0
 X-24.9 Z4.8
 X-24.8
 Z4.9
 X-24.6
 X-24.5
 X-24.4 Z5.0
 X-24.3
 X-24.0
 X24.0
 X24.1
 X24.3
 X24.4
 X24.5 Z4.9
 X24.6
 X24.7
 X24.8
 X24.9 Z4.8
 X25.0 Z4.7
 X25.1
 X25.3 Z4.6
 Z4.5
 X25.4
 Z4.4
 X25.5 Z4.3
 X25.6 Z4.2
 X25.7 Z4.1
 Z4.0
 X25.8
 Z3.8
 X25.9 Z3.7
 Z3.6
 Z3.5
 X26.0 Z3.3
 Z3.2
 Z3.1
 Z3.0
 Z0.0
 X29.0
 X29.1
 X29.2
 X29.3
 X29.4
 X29.5 Z-0.1
 X29.6
 X29.7
 X29.8
 X29.9 Z-0.2
 X30.0 Z-0.3
 X30.1
 X30.2 Z-0.4
 X30.3
 Z-0.5
 X30.4
 X30.5 Z-0.7
 X30.6 Z-0.8
 X30.7 Z-0.9
 Z-1.0
 X32.0
 Y2.6
 X30.8
 X30.6 Z-0.8
 X30.5 Z-0.7
 X30.4 Z-0.6
 Z-0.5
 X30.3
 Z-0.4
 X30.1 Z-0.3
 X30.0
 X29.9 Z-0.2
 X29.8
 Z-0.1
 X29.6
 X29.5
 X29.4 Z-0.0
 X29.3
 X29.0
 X26.0
 X25.9 Z3.5
 Z3.6
 Z3.7
 X25.8 Z3.8
 Z3.9
 Z4.0
 X25.7 Z4.1
 X25.6 Z4.2
 X25.5 Z4.3
 X25.4 Z4.4
 Z4.5
 X25.3 Z4.6
 X25.2
 X25.1 Z4.7
 X25.0
 X24.9 Z4.8
 X24.8
 Z4.9
 X24.6
 X24.5
 X24.4 Z5.0
 X24.3
 X24.0
 X-24.0
 X-24.1
 X-24.3
 X-24.4
 X-24.5 Z4.9
 X-24.6
 X-24.7
 X-24.8
 X-24.9 Z4.8
 X-25.0 Z4.7
 X-25.1
 X-25.3 Z4.6
 Z4.5
 X-25.4
 Z4.4
 X-25.5 Z4.3
 X-25.6 Z4.2
 X-25.7 Z4.1
 Z4.0
 X-25.8
 Z3.8
 X-25.9 Z3.7
 Z3.6
 Z3.5
 X-26.0 Z3.3
 Z3.2
 Z3.1
 Z3.0
 Z0.0
 X-29.0
 X-29.1
 X-29.2
 X-29.3
 X-29.4
 X-29.5 Z-0.1
 X-29.6
 X-29.7
 X-29.8
 X-29.9 Z-0.2
 X-30.0 Z-0.3
 X-30.1
 X-30.2 Z-0.4
 X-30.3
 Z-0.5
 X-30.4
 X-30.5 Z-0.7
 X-30.6 Z-0.8
 X-30.7 Z-0.9
 Z-1.0
 X-32.0
 Y3.0
 X-30.8
 X-30.6 Z-0.8
 X-30.5 Z-0.7
 X-30.4 Z-0.6
 Z-0.5
 X-30.3
 Z-0.4
 X-30.1 Z-0.3
 X-30.0
 X-29.9 Z-0.2
 X-29.8
 Z-0.1
 X-29.6
 X-29.5
 X-29.4 Z-0.0
 X-29.3
 X-29.0
 X-26.0
 X-25.9 Z3.5
 Z3.6
 Z3.7
 X-25.8 Z3.8
 Z3.9
 Z4.0
 X-25.7 Z4.1
 X-25.6 Z4.2
 X-25.5 Z4.3
 X-25.4 Z4.4
 Z4.5
 X-25.3 Z4.6
 X-25.2
 X-25.1 Z4.7
 X-25.0
 X-24.9 Z4.8
 X-24.8
 Z4.9
 X-24.6
 X-24.5
 X-24.4 Z5.0
 X-24.3
 X-24.0
 X24.0
 X24.1
 X24.3
 X24.4
 X24.5 Z4.9
 X24.6
 X24.7
 X24.8
 X24.9 Z4.8
 X25.0 Z4.7
 X25.1
 X25.3 Z4.6
 Z4.5
 X25.4
 Z4.4
 X25.5 Z4.3
 X25.6 Z4.2
 X25.7 Z4.1
 Z4.0
 X25.8
 Z3.8
 X25.9 Z3.7
 Z3.6
 Z3.5
 X26.0 Z3.3
 Z3.2
 Z3.1
 Z3.0
 Z0.0
 X29.0
 X29.1
 X29.2
 X29.3
 X29.4
 X29.5 Z-0.1
 X29.6
 X29.7
 X29.8
 X29.9 Z-0.2
 X30.0 Z-0.3
 X30.1
 X30.2 Z-0.4
 X30.3
 Z-0.5
 X30.4
 X30.5 Z-0.7
 X30.6 Z-0.8
 X30.7 Z-0.9
 Z-1.0
 X32.0
 Y3.4
 X30.8
 X30.6 Z-0.8
 X30.5 Z-0.7
 X30.4 Z-0.6
 Z-0.5
 X30.3
 Z-0.4
 X30.1 Z-0.3
 X30.0
 X29.9 Z-0.2
 X29.8
 Z-0.1
 X29.6
 X29.5
 X29.4 Z-0.0
 X29.3
 X29.0
 X26.0
 X25.9 Z3.5
 Z3.6
 Z3.7
 X25.8 Z3.8
 Z3.9
 Z4.0
 X25.7 Z4.1
 X25.6 Z4.2
 X25.5 Z4.3
 X25.4 Z4.4
 Z4.5
 X25.3 Z4.6
 X25.2
 X25.1 Z4.7
 X25.0
 X24.9 Z4.8
 X24.8
 Z4.9
 X24.6
 X24.5
 X24.4 Z5.0
 X24.3
 X24.0
 X-24.0
 X-24.1
 X-24.3
 X-24.4
 X-24.5 Z4.9
 X-24.6
 X-24.7
 X-24.8
 X-24.9 Z4.8
 X-25.0 Z4.7
 X-25.1
 X-25.3 Z4.6
 Z4.5
 X-25.4
 Z4.4
 X-25.5 Z4.3
 X-25.6 Z4.2
 X-25.7 Z4.1
 Z4.0
 X-25.8
 Z3.8
 X-25.9 Z3.7
 Z3.6
 Z3.5
 X-26.0 Z3.3
 Z3.2
 Z3.1
 Z3.0
 Z0.0
 X-29.0
 X-29.1
 X-29.2
 X-29.3
 X-29.4
 X-29.5 Z-0.1
 X-29.6
 X-29.7
 X-29.8
 X-29.9 Z-0.2
 X-30.0 Z-0.3
 X-30.1
 X-30.2 Z-0.4
 X-30.3
 Z-0.5
 X-30.4
 X-30.5 Z-0.7
 X-30.6 Z-0.8
 X-30.7 Z-0.9
 Z-1.0
 X-32.0
 Y3.8
 X-30.8
 X-30.6 Z-0.8
 X-30.5 Z-0.7
 X-30.4 Z-0.6
 Z-0.5
 X-30.3
 Z-0.4
 X-30.1 Z-0.3
 X-30.0
 X-29.9 Z-0.2
 X-29.8
 Z-0.1
 X-29.6
 X-29.5
 X-29.4 Z-0.0
 X-29.3
 X-29.0
 X-26.0
 X-25.9 Z3.5
 Z3.6
 Z3.7
 X-25.8 Z3.8
 Z3.9
 Z4.0
 X-25.7 Z4.1
 X-25.6 Z4.2
 X-25.5 Z4.3
 X-25.4 Z4.4
 Z4.5
 X-25.3 Z4.6
 X-25.2
 X-25.1 Z4.7
 X-25.0
 X-24.9 Z4.8
 X-24.8
 Z4.9
 X-24.6
 X-24.5
 X-24.4 Z5.0
 X-24.3
 X-24.0
 X24.0
 X24.1
 X24.3
 X24.4
 X24.5 Z4.9
 X24.6
 X24.7
 X24.8
 X24.9 Z4.8
 X25.0 Z4.7
 X25.1
 X25.3 Z4.6
 Z4.5
 X25.4
 Z4.4
 X25.5 Z4.3
 X25.6 Z4.2
 X25.7 Z4.1
 Z4.0
 X25.8
 Z3.8
 X25.9 Z3.7
 Z3.6
 Z3.5
 X26.0 Z3.3
 Z3.2
 Z3.1
 Z3.0
 Z0.0
 X29.0
 X29.1
 X29.2
 X29.3
 X29.4
 X29.5 Z-0.1
 X29.6
 X29.7
 X29.8
 X29.9 Z-0.2
 X30.0 Z-0.3
 X30.1
 X30.2 Z-0.4
 X30.3
 Z-0.5
 X30.4
 X30.5 Z-0.7
 X30.6 Z-0.8
 X30.7 Z-0.9
 Z-1.0
 X32.0
 Y4.2
 X30.8
 X30.6 Z-0.8
 X30.5 Z-0.7
 X30.4 Z-0.6
 Z-0.5
 X30.3
 Z-0.4
 X30.1 Z-0.3
 X30.0
 X29.9 Z-0.2
 X29.8
 Z-0.1
 X29.6
 X29.5
 X29.4 Z-0.0
 X29.3
 X29.0
 X26.0
 X25.9 Z3.5
 Z3.6
 Z3.7
 X25.8 Z3.8
 Z3.9
 Z4.0
 X25.7 Z4.1
 X25.6 Z4.2
 X25.5 Z4.3
 X25.4 Z4.4
 Z4.5
 X25.3 Z4.6
 X25.2
 X25.1 Z4.7
 X25.0
 X24.9 Z4.8
 X24.8
 Z4.9
 X24.6
 X24.5
 X24.4 Z5.0
 X24.3
 X24.0
 X-24.0
 X-24.1
 X-24.3
 X-24.4
 X-24.5 Z4.9
 X-24.6
 X-24.7
 X-24.8
 X-24.9 Z4.8
 X-25.0 Z4.7
 X-25.1
 X-25.3 Z4.6
 Z4.5
 X-25.4
 Z4.4
 X-25.5 Z4.3
 X-25.6 Z4.2
 X-25.7 Z4.1
 Z4.0
 X-25.8
 Z3.8
 X-25.9 Z3.7
 Z3.6
 Z3.5
 X-26.0 Z3.3
 Z3.2
 Z3.1
 Z3.0
 Z0.0
 X-29.0
 X-29.1
 X-29.2
 X-29.3
 X-29.4
 X-29.5 Z-0.1
 X-29.6
 X-29.7
 X-29.8
 X-29.9 Z-0.2
 X-30.0 Z-0.3
 X-30.1
 X-30.2 Z-0.4
 X-30.3
 Z-0.5
 X-30.4
 X-30.5 Z-0.7
 X-30.6 Z-0.8
 X-30.7 Z-0.9
 Z-1.0
 X-32.0
 Y4.6
 X-30.8
 X-30.6 Z-0.8
 X-30.5 Z-0.7
 X-30.4 Z-0.6
 Z-0.5
 X-30.3
 Z-0.4
 X-30.1 Z-0.3
 X-30.0
 X-29.9 Z-0.2
 X-29.8
 Z-0.1
 X-29.6
 X-29.5
 X-29.4 Z-0.0
 X-29.3
 X-29.0
 X-26.0
 X-25.9 Z3.5
 Z3.6
 Z3.7
 X-25.8 Z3.8
 Z3.9
 Z4.0
 X-25.7 Z4.1
 X-25.6 Z4.2
 X-25.5 Z4.3
 X-25.4 Z4.4
 Z4.5
 X-25.3 Z4.6
 X-25.2
 X-25.1 Z4.7
 X-25.0
 X-24.9 Z4.8
 X-24.8
 Z4.9
 X-24.6
 X-24.5
 X-24.4 Z5.0
 X-24.3
 X-24.0
 X24.0
 X24.1
 X24.3
 X24.4
 X24.5 Z4.9
 X24.6
 X24.7
 X24.8
 X24.9 Z4.8
 X25.0 Z4.7
 X25.1
 X25.3 Z4.6
 Z4.5
 X25.4
 Z4.4
 X25.5 Z4.3
 X25.6 Z4.2
 X25.7 Z4.1
 Z4.0
 X25.8
 Z3.8
 X25.9 Z3.7
 Z3.6
 Z3.5
 X26.0 Z3.3
 Z3.2
 Z3.1
 Z3.0
 Z0.0
 X29.0
 X29.1
 X29.2
 X29.3
 X29.4
 X29.5 Z-0.1
 X29.6
 X29.7
 X29.8
 X29.9 Z-0.2
 X30.0 Z-0.3
 X30.1
 X30.2 Z-0.4
 X30.3
 Z-0.5
 X30.4
 X30.5 Z-0.7
 X30.6 Z-0.8
 X30.7 Z-0.9
 Z-1.0
 X32.0
 Y5.0
 X30.8
 X30.6 Z-0.8
 X30.5 Z-0.7
 X30.4 Z-0.6
 Z-0.5
 X30.3
 Z-0.4
 X30.1 Z-0.3
 X30.0
 X29.9 Z-0.2
 X29.8
 Z-0.1
 X29.6
 X29.5
 X29.4 Z-0.0
 X29.3
 X29.0
 X26.0
 X25.9 Z3.5
 Z3.6
 Z3.7
 X25.8 Z3.8
 Z3.9
 Z4.0
 X25.7 Z4.1
 X25.6 Z4.2
 X25.5 Z4.3
 X25.4 Z4.4
 Z4.5
 X25.3 Z4.6
 X25.2
 X25.1 Z4.7
 X25.0
 X24.9 Z4.8
 X24.8
 Z4.9
 X24.6
 X24.5
 X24.4 Z5.0
 X24.3
 X24.0
 X-24.0
 X-24.1
 X-24.3
 X-24.4
 X-24.5 Z4.9
 X-24.6
 X-24.7
 X-24.8
 X-24.9 Z4.8
 X-25.0 Z4.7
 X-25.1
 X-25.3 Z4.6
 Z4.5
 X-25.4
 Z4.4
 X-25.5 Z4.3
 X-25.6 Z4.2
 X-25.7 Z4.1
 Z4.0
 X-25.8
 Z3.8
 X-25.9 Z3.7
 Z3.6
 Z3.5
 X-26.0 Z3.3
 Z3.2
 Z3.1
 Z3.0
 Z0.0
 X-29.0
 X-29.1
 X-29.2
 X-29.3
 X-29.4
 X-29.5 Z-0.1
 X-29.6
 X-29.7
 X-29.8
 X-29.9 Z-0.2
 X-30.0 Z-0.3
 X-30.1
 X-30.2 Z-0.4
 X-30.3
 Z-0.5
 X-30.4
 X-30.5 Z-0.7
 X-30.6 Z-0.8
 X-30.7 Z-0.9
 Z-1.0
 X-32.0
 Y5.4
 X-30.8
 X-30.6 Z-0.8
 X-30.5 Z-0.7
 X-30.4 Z-0.6
 Z-0.5
 X-30.3
 Z-0.4
 X-30.1 Z-0.3
 X-30.0
 X-29.9 Z-0.2
 X-29.8
 Z-0.1
 X-29.6
 X-29.5
 X-29.4 Z-0.0
 X-29.3
 X-29.0
 X-26.0
 X-25.9 Z3.5
 Z3.6
 Z3.7
 X-25.8 Z3.8
 Z3.9
 Z4.0
 X-25.7 Z4.1
 X-25.6 Z4.2
 X-25.5 Z4.3
 X-25.4 Z4.4
 Z4.5
 X-25.3 Z4.6
 X-25.2
 X-25.1 Z4.7
 X-25.0
 X-24.9 Z4.8
 X-24.8
 Z4.9
 X-24.6
 X-24.5
 X-24.4 Z5.0
 X-24.3
 X-24.0
 X24.0
 X24.1
 X24.3
 X24.4
 X24.5 Z4.9
 X24.6
 X24.7
 X24.8
 X24.9 Z4.8
 X25.0 Z4.7
 X25.1
 X25.3 Z4.6
 Z4.5
 X25.4
 Z4.4
 X25.5 Z4.3
 X25.6 Z4.2
 X25.7 Z4.1
 Z4.0
 X25.8
 Z3.8
 X25.9 Z3.7
 Z3.6
 Z3.5
 X26.0 Z3.3
 Z3.2
 Z3.1
 Z3.0
 Z0.0
 X29.0
 X29.1
 X29.2
 X29.3
 X29.4
 X29.5 Z-0.1
 X29.6
 X29.7
 X29.8
 X29.9 Z-0.2
 X30.0 Z-0.3
 X30.1
 X30.2 Z-0.4
 X30.3
 Z-0.5
 X30.4
 X30.5 Z-0.7
 X30.6 Z-0.8
 X30.7 Z-0.9
 Z-1.0
 X32.0
 Y5.8
 X30.8
 X30.6 Z-0.8
 X30.5 Z-0.7
 X30.4 Z-0.6
 Z-0.5
 X30.3
 Z-0.4
 X30.1 Z-0.3
 X30.0
 X29.9 Z-0.2
 X29.8
 Z-0.1
 X29.6
 X29.5
 X29.4 Z-0.0
 X29.3
 X29.0
 X26.0
 X25.9 Z3.5
 Z3.6
 Z3.7
 X25.8 Z3.8
 Z3.9
 Z4.0
 X25.7 Z4.1
 X25.6 Z4.2
 X25.5 Z4.3
 X25.4 Z4.4
 Z4.5
 X25.3 Z4.6
 X25.2
 X25.1 Z4.7
 X25.0
 X24.9 Z4.8
 X24.8
 Z4.9
 X24.6
 X24.5
 X24.4 Z5.0
 X24.3
 X24.0
 X-24.0
 X-24.1
 X-24.3
 X-24.4
 X-24.5 Z4.9
 X-24.6
 X-24.7
 X-24.8
 X-24.9 Z4.8
 X-25.0 Z4.7
 X-25.1
 X-25.3 Z4.6
 Z4.5
 X-25.4
 Z4.4
 X-25.5 Z4.3
 X-25.6 Z4.2
 X-25.7 Z4.1
 Z4.0
 X-25.8
 Z3.8
 X-25.9 Z3.7
 Z3.6
 Z3.5
 X-26.0 Z3.3
 Z3.2
 Z3.1
 Z3.0
 Z0.0
 X-29.0
 X-29.1
 X-29.2
 X-29.3
 X-29.4
 X-29.5 Z-0.1
 X-29.6
 X-29.7
 X-29.8
 X-29.9 Z-0.2
 X-30.0 Z-0.3
 X-30.1
 X-30.2 Z-0.4
 X-30.3
 Z-0.5
 X-30.4
 X-30.5 Z-0.7
 X-30.6 Z-0.8
 X-30.7 Z-0.9
 Z-1.0
 X-32.0
 Y6.2
 X-30.8
 X-30.6 Z-0.8
 X-30.5 Z-0.7
 X-30.4 Z-0.6
 Z-0.5
 X-30.3
 Z-0.4
 X-30.1 Z-0.3
 X-30.0
 X-29.9 Z-0.2
 X-29.8
 Z-0.1
 X-29.6
 X-29.5
 X-29.4 Z-0.0
 X-29.3
 X-29.0
 X-26.0
 X-25.9 Z3.5
 Z3.6
 Z3.7
 X-25.8 Z3.8
 Z3.9
 Z4.0
 X-25.7 Z4.1
 X-25.6 Z4.2
 X-25.5 Z4.3
 X-25.4 Z4.4
 Z4.5
 X-25.3 Z4.6
 X-25.2
 X-25.1 Z4.7
 X-25.0
 X-24.9 Z4.8
 X-24.8
 Z4.9
 X-24.6
 X-24.5
 X-24.4 Z5.0
 X-24.3
 X-24.0
 X24.0
 X24.1
 X24.3
 X24.4
 X24.5 Z4.9
 X24.6
 X24.7
 X24.8
 X24.9 Z4.8
 X25.0 Z4.7
 X25.1
 X25.3 Z4.6
 Z4.5
 X25.4
 Z4.4
 X25.5 Z4.3
 X25.6 Z4.2
 X25.7 Z4.1
 Z4.0
 X25.8
 Z3.8
 X25.9 Z3.7
 Z3.6
 Z3.5
 X26.0 Z3.3
 Z3.2
 Z3.1
 Z3.0
 Z0.0
 X29.0
 X29.1
 X29.2
 X29.3
 X29.4
 X29.5 Z-0.1
 X29.6
 X29.7
 X29.8
 X29.9 Z-0.2
 X30.0 Z-0.3
 X30.1
 X30.2 Z-0.4
 X30.3
 Z-0.5
 X30.4
 X30.5 Z-0.7
 X30.6 Z-0.8
 X30.7 Z-0.9
 Z-1.0
 X32.0
 Y6.6
 X30.8
 X30.6 Z-0.8
 X30.5 Z-0.7
 X30.4 Z-0.6
 Z-0.5
 X30.3
 Z-0.4
 X30.1 Z-0.3
 X30.0
 X29.9 Z-0.2
 X29.8
 Z-0.1
 X29.6
 X29.5
 X29.4 Z-0.0
 X29.3
 X29.0
 X26.0
 X25.9 Z3.5
 Z3.6
 Z3.7
 X25.8 Z3.8
 Z3.9
 Z4.0
 X25.7 Z4.1
 X25.6 Z4.2
 X25.5 Z4.3
 X25.4 Z4.4
 Z4.5
 X25.3 Z4.6
 X25.2
 X25.1 Z4.7
 X25.0
 X24.9 Z4.8
 X24.8
 Z4.9
 X24.6
 X24.5
 X24.4 Z5.0
 X24.3
 X24.0
 X-24.0
 X-24.1
 X-24.3
 X-24.4
 X-24.5 Z4.9
 X-24.6
 X-24.7
 X-24.8
 X-24.9 Z4.8
 X-25.0 Z4.7
 X-25.1
 X-25.3 Z4.6
 Z4.5
 X-25.4
 Z4.4
 X-25.5 Z4.3
 X-25.6 Z4.2
 X-25.7 Z4.1
 Z4.0
 X-25.8
 Z3.8
 X-25.9 Z3.7
 Z3.6
 Z3.5
 X-26.0 Z3.3
 Z3.2
 Z3.1
 Z3.0
 Z0.0
 X-29.0
 X-29.1
 X-29.2
 X-29.3
 X-29.4
 X-29.5 Z-0.1
 X-29.6
 X-29.7
 X-29.8
 X-29.9 Z-0.2
 X-30.0 Z-0.3
 X-30.1
 X-30.2 Z-0.4
 X-30.3
 Z-0.5
 X-30.4
 X-30.5 Z-0.7
 X-30.6 Z-0.8
 X-30.7 Z-0.9
 Z-1.0
 X-32.0
 Y7.0
 X-30.8
 X-30.6 Z-0.8
 X-30.5 Z-0.7
 X-30.4 Z-0.6
 Z-0.5
 X-30.3
 Z-0.4
 X-30.1 Z-0.3
 X-30.0
 X-29.9 Z-0.2
 X-29.8
 Z-0.1
 X-29.6
 X-29.5
 X-29.4 Z-0.0
 X-29.3
 X-29.0
 X-26.0
 X-25.9 Z3.5
 Z3.6
 Z3.7
 X-25.8 Z3.8
 Z3.9
 Z4.0
 X-25.7 Z4.1
 X-25.6 Z4.2
 X-25.5 Z4.3
 X-25.4 Z4.4
 Z4.5
 X-25.3 Z4.6
 X-25.2
 X-25.1 Z4.7
 X-25.0
 X-24.9 Z4.8
 X-24.8
 Z4.9
 X-24.6
 X-24.5
 X-24.4 Z5.0
 X-24.3
 X-24.0
 X24.0
 X24.1
 X24.3
 X24.4
 X24.5 Z4.9
 X24.6
 X24.7
 X24.8
 X24.9 Z4.8
 X25.0 Z4.7
 X25.1
 X25.3 Z4.6
 Z4.5
 X25.4
 Z4.4
 X25.5 Z4.3
 X25.6 Z4.2
 X25.7 Z4.1
 Z4.0
 X25.8
 Z3.8
 X25.9 Z3.7
 Z3.6
 Z3.5
 X26.0 Z3.3
 Z3.2
 Z3.1
 Z3.0
 Z0.0
 X29.0
 X29.1
 X29.2
 X29.3
 X29.4
 X29.5 Z-0.1
 X29.6
 X29.7
 X29.8
 X29.9 Z-0.2
 X30.0 Z-0.3
 X30.1
 X30.2 Z-0.4
 X30.3
 Z-0.5
 X30.4
 X30.5 Z-0.7
 X30.6 Z-0.8
 X30.7 Z-0.9
 Z-1.0
 X32.0
 Y7.4
 X30.8
 X30.6 Z-0.8
 X30.5 Z-0.7
 X30.4 Z-0.6
 Z-0.5
 X30.3
 Z-0.4
 X30.1 Z-0.3
 X30.0
 X29.9 Z-0.2
 X29.8
 Z-0.1
 X29.6
 X29.5
 X29.4 Z-0.0
 X29.3
 X29.0
 X26.0
 X25.9 Z3.5
 Z3.6
 Z3.7
 X25.8 Z3.8
 Z3.9
 Z4.0
 X25.7 Z4.1
 X25.6 Z4.2
 X25.5 Z4.3
 X25.4 Z4.4
 Z4.5
 X25.3 Z4.6
 X25.2
 X25.1 Z4.7
 X25.0
 X24.9 Z4.8
 X24.8
 Z4.9
 X24.6
 X24.5
 X24.4 Z5.0
 X24.3
 X24.0
 X-24.0
 X-24.1
 X-24.3
 X-24.4
 X-24.5 Z4.9
 X-24.6
 X-24.7
 X-24.8
 X-24.9 Z4.8
 X-25.0 Z4.7
 X-25.1
 X-25.3 Z4.6
 Z4.5
 X-25.4
 Z4.4
 X-25.5 Z4.3
 X-25.6 Z4.2
 X-25.7 Z4.1
 Z4.0
 X-25.8
 Z3.8
 X-25.9 Z3.7
 Z3.6
 Z3.5
 X-26.0 Z3.3
 Z3.2
 Z3.1
 Z3.0
 Z0.0
 X-29.0
 X-29.1
 X-29.2
 X-29.3
 X-29.4
 X-29.5 Z-0.1
 X-29.6
 X-29.7
 X-29.8
 X-29.9 Z-0.2
 X-30.0 Z-0.3
 X-30.1
 X-30.2 Z-0.4
 X-30.3
 Z-0.5
 X-30.4
 X-30.5 Z-0.7
 X-30.6 Z-0.8
 X-30.7 Z-0.9
 Z-1.0
 X-32.0
 Y7.8
 X-30.8
 X-30.6 Z-0.8
 X-30.5 Z-0.7
 X-30.4 Z-0.6
 Z-0.5
 X-30.3
 Z-0.4
 X-30.1 Z-0.3
 X-30.0
 X-29.9 Z-0.2
 X-29.8
 Z-0.1
 X-29.6
 X-29.5
 X-29.4 Z-0.0
 X-29.3
 X-29.0
 X-26.0
 X-25.9 Z3.5
 Z3.6
 Z3.7
 X-25.8 Z3.8
 Z3.9
 Z4.0
 X-25.7 Z4.1
 X-25.6 Z4.2
 X-25.5 Z4.3
 X-25.4 Z4.4
 Z4.5
 X-25.3 Z4.6
 X-25.2
 X-25.1 Z4.7
 X-25.0
 X-24.9 Z4.8
 X-24.8
 Z4.9
 X-24.6
 X-24.5
 X-24.4 Z5.0
 X-24.3
 X-24.0
 X24.0
 X24.1
 X24.3
 X24.4
 X24.5 Z4.9
 X24.6
 X24.7
 X24.8
 X24.9 Z4.8
 X25.0 Z4.7
 X25.1
 X25.3 Z4.6
 Z4.5
 X25.4
 Z4.4
 X25.5 Z4.3
 X25.6 Z4.2
 X25.7 Z4.1
 Z4.0
 X25.8
 Z3.8
 X25.9 Z3.7
 Z3.6
 Z3.5
 X26.0 Z3.3
 Z3.2
 Z3.1
 Z3.0
 Z0.0
 X29.0
 X29.1
 X29.2
 X29.3
 X29.4
 X29.5 Z-0.1
 X29.6
 X29.7
 X29.8
 X29.9 Z-0.2
 X30.0 Z-0.3
 X30.1
 X30.2 Z-0.4
 X30.3
 Z-0.5
 X30.4
 X30.5 Z-0.7
 X30.6 Z-0.8
 X30.7 Z-0.9
 Z-1.0
 X32.0
 Y8.1
 X30.8
 X30.6 Z-0.8
 X30.5 Z-0.7
 X30.4 Z-0.6
 Z-0.5
 X30.3
 Z-0.4
 X30.1 Z-0.3
 X30.0
 X29.9 Z-0.2
 X29.8
 Z-0.1
 X29.6
 X29.5
 X29.4 Z-0.0
 X29.3
 X29.0
 X26.0
 X25.9 Z3.5
 Z3.6
 Z3.7
 X25.8 Z3.8
 Z3.9
 Z4.0
 X25.7 Z4.1
 X25.6 Z4.2
 X25.5 Z4.3
 X25.4 Z4.4
 Z4.5
 X25.3 Z4.6
 X25.2
 X25.1 Z4.7
 X25.0
 X24.9 Z4.8
 X24.8
 Z4.9
 X24.6
 X24.5
 X24.4 Z5.0
 X24.3
 X24.0
 X-24.0
 X-24.1
 X-24.3
 X-24.4
 X-24.5 Z4.9
 X-24.6
 X-24.7
 X-24.8
 X-24.9 Z4.8
 X-25.0 Z4.7
 X-25.1
 X-25.3 Z4.6
 Z4.5
 X-25.4
 Z4.4
 X-25.5 Z4.3
 X-25.6 Z4.2
 X-25.7 Z4.1
 Z4.0
 X-25.8
 Z3.8
 X-25.9 Z3.7
 Z3.6
 Z3.5
 X-26.0 Z3.3
 Z3.2
 Z3.1
 Z3.0
 Z0.0
 X-29.0
 X-29.1
 X-29.2
 X-29.3
 X-29.4
 X-29.5 Z-0.1
 X-29.6
 X-29.7
 X-29.8
 X-29.9 Z-0.2
 X-30.0 Z-0.3
 X-30.1
 X-30.2 Z-0.4
 X-30.3
 Z-0.5
 X-30.4
 X-30.5 Z-0.7
 X-30.6 Z-0.8
 X-30.7 Z-0.9
 Z-1.0
 X-32.0
 Y8.5
 X-30.8
 X-30.6 Z-0.8
 X-30.5 Z-0.7
 X-30.4 Z-0.6
 Z-0.5
 X-30.3
 Z-0.4
 X-30.1 Z-0.3
 X-30.0
 X-29.9 Z-0.2
 X-29.8
 Z-0.1
 X-29.6
 X-29.5
 X-29.4 Z-0.0
 X-29.3
 X-29.0
 X-26.0
 X-25.9 Z3.5
 Z3.6
 Z3.7
 X-25.8 Z3.8
 Z3.9
 Z4.0
 X-25.7 Z4.1
 X-25.6 Z4.2
 X-25.5 Z4.3
 X-25.4 Z4.4
 Z4.5
 X-25.3 Z4.6
 X-25.2
 X-25.1 Z4.7
 X-25.0
 X-24.9 Z4.8
 X-24.8
 Z4.9
 X-24.6
 X-24.5
 X-24.4 Z5.0
 X-24.3
 X-24.0
 X24.0
 X24.1
 X24.3
 X24.4
 X24.5 Z4.9
 X24.6
 X24.7
 X24.8
 X24.9 Z4.8
 X25.0 Z4.7
 X25.1
 X25.3 Z4.6
 Z4.5
 X25.4
 Z4.4
 X25.5 Z4.3
 X25.6 Z4.2
 X25.7 Z4.1
 Z4.0
 X25.8
 Z3.8
 X25.9 Z3.7
 Z3.6
 Z3.5
 X26.0 Z3.3
 Z3.2
 Z3.1
 Z3.0
 Z0.0
 X29.0
 X29.1
 X29.2
 X29.3
 X29.4
 X29.5 Z-0.1
 X29.6
 X29.7
 X29.8
 X29.9 Z-0.2
 X30.0 Z-0.3
 X30.1
 X30.2 Z-0.4
 X30.3
 Z-0.5
 X30.4
 X30.5 Z-0.7
 X30.6 Z-0.8
 X30.7 Z-0.9
 Z-1.0
 X32.0
 Y8.9
 X30.8
 X30.6 Z-0.8
 X30.5 Z-0.7
 X30.4 Z-0.6
 Z-0.5
 X30.3
 Z-0.4
 X30.2
 X30.1 Z-0.3
 X30.0
 X29.9 Z-0.2
 X29.8
 Z-0.1
 X29.6
 X29.5
 X29.4 Z-0.0
 X29.3
 X29.0
 X26.0
 X25.9 Z3.5
 Z3.6
 Z3.7
 X25.8 Z3.8
 Z3.9
 Z4.0
 X25.7 Z4.1
 X25.6 Z4.2
 X25.5 Z4.3
 X25.4 Z4.4
 Z4.5
 X25.3 Z4.6
 X25.2
 X25.1 Z4.7
 X25.0
 X24.9 Z4.8
 X24.8
 Z4.9
 X24.6
 X24.5
 X24.4 Z5.0
 X24.3
 X24.0
 X-24.0
 X-24.1
 X-24.3
 X-24.4
 X-24.5 Z4.9
 X-24.6
 X-24.7
 X-24.8
 X-24.9 Z4.8
 X-25.0 Z4.7
 X-25.1
 X-25.3 Z4.6
 Z4.5
 X-25.4
 Z4.4
 X-25.5 Z4.3
 X-25.6 Z4.2
 X-25.7 Z4.1
 Z4.0
 X-25.8
 Z3.8
 X-25.9 Z3.7
 Z3.6
 Z3.5
 X-26.0 Z3.3
 Z3.2
 Z3.1
 Z3.0
 Z0.0
 X-29.0
 X-29.1
 X-29.2
 X-29.3
 X-29.4
 X-29.5 Z-0.1
 X-29.6
 X-29.7
 X-29.8
 X-29.9 Z-0.2
 X-30.0 Z-0.3
 X-30.1
 X-30.2 Z-0.4
 X-30.3
 Z-0.5
 X-30.4
 X-30.5 Z-0.7
 X-30.6 Z-0.8
 X-30.7 Z-0.9
 Z-1.0
 X-32.0
 Y9.3
 X-30.8
 X-30.6 Z-0.8
 X-30.5 Z-0.7
 X-30.4 Z-0.6
 Z-0.5
 X-30.3
 Z-0.4
 X-30.1 Z-0.3
 X-30.0
 X-29.9 Z-0.2
 X-29.8
 Z-0.1
 X-29.6
 X-29.5
 X-29.4 Z-0.0
 X-29.3
 X-29.0
 X-26.0
 X-25.9 Z3.5
 Z3.6
 Z3.7
 X-25.8 Z3.8
 Z3.9
 Z4.0
 X-25.7 Z4.1
 X-25.6 Z4.2
 X-25.5 Z4.3
 X-25.4 Z4.4
 Z4.5
 X-25.3 Z4.6
 X-25.2
 X-25.1 Z4.7
 X-25.0
 X-24.9 Z4.8
 X-24.8
 Z4.9
 X-24.6
 X-24.5
 X-24.4 Z5.0
 X-24.3
 X-24.0
 X24.0
 X24.1
 X24.3
 X24.4
 X24.5 Z4.9
 X24.6
 X24.7
 X24.8
 X24.9 Z4.8
 X25.0 Z4.7
 X25.1
 X25.3 Z4.6
 Z4.5
 X25.4
 Z4.4
 X25.5 Z4.3
 X25.6 Z4.2
 X25.7 Z4.1
 Z4.0
 X25.8
 Z3.8
 X25.9 Z3.7
 Z3.6
 Z3.5
 X26.0 Z3.3
 Z3.2
 Z3.1
 Z3.0
 Z0.0
 X29.0
 X29.1
 X29.2
 X29.3
 X29.4
 X29.5 Z-0.1
 X29.6
 X29.7
 X29.8
 X29.9 Z-0.2
 X30.0 Z-0.3
 X30.1
 X30.2 Z-0.4
 X30.3
 Z-0.5
 X30.4
 X30.5 Z-0.7
 X30.6 Z-0.8
 X30.7 Z-0.9
 Z-1.0
 X32.0
 Y9.7
 X30.8
 X30.6 Z-0.8
 X30.5 Z-0.7
 X30.4 Z-0.6
 Z-0.5
 X30.3
 Z-0.4
 X30.2
 X30.1 Z-0.3
 X30.0
 X29.9 Z-0.2
 X29.8
 Z-0.1
 X29.6
 X29.5
 X29.4 Z-0.0
 X29.3
 X29.0
 X26.0
 X25.9 Z3.5
 Z3.6
 Z3.7
 X25.8 Z3.8
 Z3.9
 Z4.0
 X25.7 Z4.1
 X25.6 Z4.2
 X25.5 Z4.3
 X25.4 Z4.4
 Z4.5
 X25.3 Z4.6
 X25.2
 X25.1 Z4.7
 X25.0
 X24.9 Z4.8
 X24.8
 Z4.9
 X24.6
 X24.5
 X24.4 Z5.0
 X24.3
 X24.0
 X-24.0
 X-24.1
 X-24.3
 X-24.4
 X-24.5 Z4.9
 X-24.6
 X-24.7
 X-24.8
 X-24.9 Z4.8
 X-25.0 Z4.7
 X-25.1
 X-25.3 Z4.6
 Z4.5
 X-25.4
 Z4.4
 X-25.5 Z4.3
 X-25.6 Z4.2
 X-25.7 Z4.1
 Z4.0
 X-25.8
 Z3.8
 X-25.9 Z3.7
 Z3.6
 Z3.5
 X-26.0 Z3.3
 Z3.2
 Z3.1
 Z3.0
 Z0.0
 X-29.0
 X-29.1
 X-29.2
 X-29.3
 X-29.4
 X-29.5 Z-0.1
 X-29.6
 X-29.7
 X-29.8
 X-29.9 Z-0.2
 X-30.0 Z-0.3
 X-30.1
 X-30.2 Z-0.4
 X-30.3
 Z-0.5
 X-30.4
 X-30.5 Z-0.7
 X-30.6 Z-0.8
 X-30.7 Z-0.9
 Z-1.0
 X-32.0
 Y10.1
 X-30.8
 X-30.6 Z-0.8
 X-30.5 Z-0.7
 X-30.4 Z-0.6
 Z-0.5
 X-30.3
 Z-0.4
 X-30.1 Z-0.3
 X-30.0
 X-29.9 Z-0.2
 X-29.8
 Z-0.1
 X-29.6
 X-29.5
 X-29.4 Z-0.0
 X-29.3
 X-29.0
 X-26.0
 X-25.9 Z3.5
 Z3.6
 Z3.7
 X-25.8 Z3.8
 Z3.9
 Z4.0
 X-25.7 Z4.1
 X-25.6 Z4.2
 X-25.5 Z4.3
 X-25.4 Z4.4
 Z4.5
 X-25.3 Z4.6
 X-25.2
 X-25.1 Z4.7
 X-25.0
 X-24.9 Z4.8
 X-24.8
 Z4.9
 X-24.6
 X-24.5
 X-24.4 Z5.0
 X-24.3
 X-24.0
 X24.0
 X24.1
 X24.3
 X24.4
 X24.5 Z4.9
 X24.6
 X24.7
 X24.8
 X24.9 Z4.8
 X25.0 Z4.7
 X25.1
 X25.3 Z4.6
 Z4.5
 X25.4
 Z4.4
 X25.5 Z4.3
 X25.6 Z4.2
 X25.7 Z4.1
 Z4.0
 X25.8
 Z3.8
 X25.9 Z3.7
 Z3.6
 Z3.5
 X26.0 Z3.3
 Z3.2
 Z3.1
 Z3.0
 Z0.0
 X29.0
 X29.1
 X29.2
 X29.3
 X29.4
 X29.5 Z-0.1
 X29.6
 X29.7
 X29.8
 X29.9 Z-0.2
 X30.0 Z-0.3
 X30.1
 X30.2 Z-0.4
 X30.3
 Z-0.5
 X30.4
 X30.5 Z-0.7
 X30.6 Z-0.8
 X30.7 Z-0.9
 Z-1.0
 X32.0
 Y10.5
 X30.8
 X30.6 Z-0.8
 X30.5 Z-0.7
 X30.4 Z-0.6
 Z-0.5
 X30.3
 Z-0.4
 X30.2
 X30.1 Z-0.3
 X30.0
 X29.9 Z-0.2
 X29.8
 Z-0.1
 X29.6
 X29.5
 X29.4 Z-0.0
 X29.3
 X29.0
 X26.0
 X25.9 Z3.5
 Z3.6
 Z3.7
 X25.8 Z3.8
 Z3.9
 Z4.0
 X25.7 Z4.1
 X25.6 Z4.2
 X25.5 Z4.3
 X25.4 Z4.4
 Z4.5
 X25.3 Z4.6
 X25.2
 X25.1 Z4.7
 X25.0
 X24.9 Z4.8
 X24.8
 Z4.9
 X24.6
 X24.5
 X24.4 Z5.0
 X24.3
 X24.0
 X-24.0
 X-24.1
 X-24.3
 X-24.4
 X-24.5 Z4.9
 X-24.6
 X-24.7
 X-24.8
 X-24.9 Z4.8
 X-25.0 Z4.7
 X-25.1
 X-25.3 Z4.6
 Z4.5
 X-25.4
 Z4.4
 X-25.5 Z4.3
 X-25.6 Z4.2
 X-25.7 Z4.1
 Z4.0
 X-25.8
 Z3.8
 X-25.9 Z3.7
 Z3.6
 Z3.5
 X-26.0 Z3.3
 Z3.2
 Z3.1
 Z3.0
 Z0.0
 X-29.0
 X-29.1
 X-29.2
 X-29.3
 X-29.4
 X-29.5 Z-0.1
 X-29.6
 X-29.7
 X-29.8
 X-29.9 Z-0.2
 X-30.0 Z-0.3
 X-30.1
 X-30.2 Z-0.4
 X-30.3
 Z-0.5
 X-30.4
 X-30.5 Z-0.7
 X-30.6 Z-0.8
 X-30.7 Z-0.9
 Z-1.0
 X-32.0
 Y10.9
 X-30.8
 X-30.6 Z-0.8
 X-30.5 Z-0.7
 X-30.4 Z-0.6
 Z-0.5
 X-30.3
 Z-0.4
 X-30.1 Z-0.3
 X-30.0
 X-29.9 Z-0.2
 X-29.8
 Z-0.1
 X-29.6
 X-29.5
 X-29.4 Z-0.0
 X-29.3
 X-29.0
 X-26.0
 X-25.9 Z3.5
 Z3.6
 Z3.7
 X-25.8 Z3.8
 Z3.9
 Z4.0
 X-25.7 Z4.1
 X-25.6 Z4.2
 X-25.5 Z4.3
 X-25.4 Z4.4
 Z4.5
 X-25.3 Z4.6
 X-25.2
 X-25.1 Z4.7
 X-25.0
 X-24.9 Z4.8
 X-24.8
 Z4.9
 X-24.6
 X-24.5
 X-24.4 Z5.0
 X-24.3
 X-24.0
 X24.0
 X24.1
 X24.3
 X24.4
 X24.5 Z4.9
 X24.6
 X24.7
 X24.8
 X24.9 Z4.8
 X25.0 Z4.7
 X25.1
 X25.3 Z4.6
 Z4.5
 X25.4
 Z4.4
 X25.5 Z4.3
 X25.6 Z4.2
 X25.7 Z4.1
 Z4.0
 X25.8
 Z3.8
 X25.9 Z3.7
 Z3.6
 Z3.5
 X26.0 Z3.3
 Z3.2
 Z3.1
 Z3.0
 Z0.0
 X29.0
 X29.1
 X29.3
 X29.4
 X29.5 Z-0.1
 X29.6
 X29.7
 X29.8
 X29.9 Z-0.2
 X30.0 Z-0.3
 X30.1
 X30.2 Z-0.4
 X30.3
 Z-0.5
 X30.4
 X30.5 Z-0.7
 X30.6 Z-0.8
 X30.7 Z-0.9
 Z-1.0
 X32.0
 Y11.3
 X30.8
 X30.6 Z-0.8
 X30.5 Z-0.7
 X30.4 Z-0.6
 Z-0.5
 X30.3
 Z-0.4
 X30.2
 X30.1 Z-0.3
 X30.0
 X29.9 Z-0.2
 X29.8
 Z-0.1
 X29.6
 X29.5
 X29.4 Z-0.0
 X29.3
 X29.0
 X26.0
 X25.9 Z3.5
 Z3.6
 Z3.7
 X25.8 Z3.8
 Z3.9
 Z4.0
 X25.7 Z4.1
 X25.6 Z4.2
 X25.5 Z4.3
 X25.4 Z4.4
 Z4.5
 X25.3 Z4.6
 X25.2
 X25.1 Z4.7
 X25.0
 X24.9 Z4.8
 X24.8
 Z4.9
 X24.6
 X24.5
 X24.4 Z5.0
 X24.3
 X24.0
 X-24.0
 X-24.1
 X-24.3
 X-24.4
 X-24.5 Z4.9
 X-24.6
 X-24.7
 X-24.8
 X-24.9 Z4.8
 X-25.0 Z4.7
 X-25.1
 X-25.3 Z4.6
 Z4.5
 X-25.4
 Z4.4
 X-25.5 Z4.3
 X-25.6 Z4.2
 X-25.7 Z4.1
 Z4.0
 X-25.8
 Z3.8
 X-25.9 Z3.7
 Z3.6
 Z3.5
 X-26.0 Z3.3
 Z3.2
 Z3.1
 Z3.0
 Z0.0
 X-29.0
 X-29.1
 X-29.2
 X-29.3
 X-29.4
 X-29.5 Z-0.1
 X-29.6
 X-29.7
 X-29.8
 X-29.9 Z-0.2
 X-30.0 Z-0.3
 X-30.1
 X-30.2 Z-0.4
 X-30.3
 Z-0.5
 X-30.4
 X-30.5 Z-0.7
 X-30.6 Z-0.8
 X-30.7 Z-0.9
 Z-1.0
 X-32.0
 Y11.7
 X-30.8
 X-30.6 Z-0.8
 X-30.5 Z-0.7
 X-30.4 Z-0.6
 Z-0.5
 X-30.3
 Z-0.4
 X-30.1 Z-0.3
 X-30.0
 X-29.9 Z-0.2
 X-29.8
 Z-0.1
 X-29.6
 X-29.5
 X-29.4 Z-0.0
 X-29.3
 X-29.0
 X-26.0
 X-25.9 Z3.5
 Z3.6
 Z3.7
 X-25.8 Z3.8
 Z3.9
 Z4.0
 X-25.7 Z4.1
 X-25.6 Z4.2
 X-25.5 Z4.3
 X-25.4 Z4.4
 Z4.5
 X-25.3 Z4.6
 X-25.2
 X-25.1 Z4.7
 X-25.0
 X-24.9 Z4.8
 X-24.8
 Z4.9
 X-24.6
 X-24.5
 X-24.4 Z5.0
 X-24.3
 X-24.0
 X24.0
 X24.1
 X24.3
 X24.4
 X24.5 Z4.9
 X24.6
 X24.7
 X24.8
 X24.9 Z4.8
 X25.0 Z4.7
 X25.1
 X25.3 Z4.6
 Z4.5
 X25.4
 Z4.4
 X25.5 Z4.3
 X25.6 Z4.2
 X25.7 Z4.1
 Z4.0
 X25.8
 Z3.8
 X25.9 Z3.7
 Z3.6
 Z3.5
 X26.0 Z3.3
 Z3.2
 Z3.1
 Z3.0
 Z0.0
 X29.0
 X29.1
 X29.3
 X29.4
 X29.5 Z-0.1
 X29.6
 X29.7
 X29.8
 X29.9 Z-0.2
 X30.0 Z-0.3
 X30.1
 X30.2 Z-0.4
 X30.3
 Z-0.5
 X30.4
 X30.5 Z-0.7
 X30.6 Z-0.8
 X30.7 Z-0.9
 Z-1.0
 X32.0
 Y12.1
 X30.8
 X30.6 Z-0.8
 X30.5 Z-0.7
 X30.4 Z-0.6
 Z-0.5
 X30.3
 Z-0.4
 X30.2
 X30.1 Z-0.3
 X30.0
 X29.9 Z-0.2
 X29.8
 Z-0.1
 X29.6
 X29.5
 X29.4 Z-0.0
 X29.3
 X29.0
 X26.0
 X25.9 Z3.5
 Z3.6
