;PYCAM-META-DATA: Filename: V:\Portable\Documents\Fraesen2023\sylvester\venus-stl\venusscaledcenteredaunrolledR15simplifiedrep.stl
;PYCAM-META-DATA: Timestamp: 2025-12-11 14:27:13.250000
;PYCAM-META-DATA: Version: 0.5.1.1
;Estimated machine time: 9 minutes
G40 (disable tool radius compensation)
G49 (disable tool length compensation)
G80 (cancel modal motion)
G54 (select coordinate system 1)
G90 (disable incremental moves)
G21 (metric)
G61 (exact path mode)
F3000.00000
S3000.00000
;PYCAM_TOOLPATH_SETTINGS: START
;[Bounds]
;maxz = 18.447003
;maxx = 102.525032
;maxy = 41.9558006
;minx = 1.0
;miny = 0.1577294
;minz = 0.0
;
;[Tool]
;torus_radius = 0.25
;speed = 3000.0
;shape = SphericalCutter
;tool_radius = 1.0
;feedrate = 3000.0
;
;[Process]
;generator = DropCutter
;pocketing_type = none
;engrave_offset = 0.0
;milling_style = ignore
;path_direction = x
;step_down = 3.0
;postprocessor = PathAccumulator
;overlap_percent = 90
;material_allowance = 0.0
;
;PYCAM_TOOLPATH_SETTINGS: END
T1 M6
G0 Z25.0
M3 (start spindle)
G04 P3 (wait for 3 seconds)
 X1.0 Y0.2
G1 Z0.0
 X3.1
 Z10.4
 Z10.5
 X3.2 Z10.6
 Z10.7
 Z10.8
 X3.3 Z10.9
 X3.4 Z11.0
 X3.5 Z11.1
 X3.6
 Z11.2
 X3.7
 X3.8 Z11.3
 X3.9
 X4.0
 X4.2
 X4.5
 X4.7
 X6.5 Z11.4
 X6.7 Z11.5
 X7.5 Z11.6
 X7.7
 X8.0
 X8.7 Z11.8
 X9.5 Z11.9
 X9.7
 X10.0 Z12.0
 X10.2
 X10.7 Z12.1
 X11.0
 X11.2
 X12.5
 X12.7
 X14.5
 X14.7
 X15.0
 X17.0 Z11.8
 X17.2
 X18.0 Z11.7
 X18.2
 X18.5 Z11.6
 X18.7
 X21.0 Z11.2
 X21.5
 X21.7
 X23.5
 X23.7 Z11.3
 X24.7 Z11.4
 X24.9 Z11.5
 X25.7 Z11.7
 X25.9
 X26.4 Z11.9
 X26.7 Z12.0
 X27.7 Z12.3
 X27.9 Z12.4
 X28.9 Z12.8
 X29.2 Z12.9
 X30.4 Z13.5
 X30.7 Z13.6
 X31.4 Z14.0
 X32.2 Z14.3
 X32.9 Z14.6
 X33.4 Z14.8
 X33.6 Z14.9
 X33.7
 X33.9 Z15.0
 X34.2
 X34.4 Z15.1
 X34.8 Z15.2
 X34.9
 Z15.3
 X35.2
 X36.4 Z15.4
 X36.7 Z15.5
 X37.9 Z15.4
 X38.2
 X38.4 Z15.3
 X39.7 Z15.2
 X39.9 Z15.1
 X41.9 Z14.9
 X42.2 Z14.8
 X42.4
 X45.7 Z14.6
 X45.9
 X47.9 Z14.7
 X48.1
 X49.9 Z14.9
 X50.1
 X50.4 Z15.0
 X51.6 Z15.1
 X51.9
 X52.1
 X52.4
 X54.1
 X54.4 Z15.2
 X54.5
 X54.6
 Z15.1
 X54.7
 X54.8
 X54.9
 X55.0
 X55.1 Z15.0
 X55.4 Z14.8
 X56.0 Z14.4
 X56.1
 X56.2
 X56.3
 X56.4
 Z14.3
 X56.6 Z14.2
 X58.4 Z13.1
 X58.5 Z13.0
 X58.6 Z12.9
 X58.9 Z12.8
 X59.1 Z12.7
 X61.1 Z11.7
 X61.4 Z11.6
 X61.6 Z11.5
 X63.1 Z10.8
 X63.4 Z10.7
 X63.6 Z10.6
 X64.4 Z10.3
 X64.6 Z10.2
 X64.9 Z10.1
 X66.4 Z9.4
 X66.6 Z9.2
 X66.9 Z9.1
 X67.1 Z9.0
 X68.5 Z8.5
 X68.6
 X68.8 Z8.4
 X69.8 Z8.2
 X70.8
 X71.1
 X72.1 Z8.3
 X72.3 Z8.4
 X72.6
 X73.6 Z8.7
 X73.8
 X75.6 Z9.3
 X75.8 Z9.4
 X76.1 Z9.5
 X76.3 Z9.6
 X78.8 Z10.8
 X79.1 Z10.9
 X79.8 Z11.4
 X80.1 Z11.6
 X80.8 Z12.1
 X81.1 Z12.3
 X81.3 Z12.5
 X82.6 Z13.5
 X82.7 Z13.6
 X82.8
 Z13.7
 X83.1 Z13.8
 X83.3 Z13.9
 X83.9 Z14.0
 Z14.1
 X84.0
 X84.1
 X84.2
 X84.3
 X84.6
 X86.6 Z13.8
 X86.8
 X87.1 Z13.7
 X88.1 Z13.5
 X88.3
 X88.6 Z13.4
 X89.3 Z13.2
 X89.6 Z13.1
 X89.8 Z13.0
 X91.8 Z12.2
 X92.0 Z12.1
 X92.4 Z12.0
 X92.5 Z11.9
 X93.3 Z11.7
 X93.7 Z11.6
 X93.8
 X94.5 Z11.5
 X95.3 Z11.4
 X96.0 Z11.3
 X96.3
 X96.8
 X97.3
 X97.5
 X97.6
 X97.7
 X97.8
 Z11.2
 X97.9
 X98.0
 X98.1 Z11.1
 X98.2
 Z11.0
 X98.3
 Z10.9
 X98.4
 Z10.8
 X98.5 Z10.7
 Z10.5
 X98.6 Z10.3
 Z0.0
 X102.5
 Y0.4
 X98.6
 Z10.5
 X98.5
 Z10.6
 Z10.7
 X98.4 Z10.8
 Z10.9
 X98.3
 Z11.0
 X98.2 Z11.1
 X98.1
 Z11.2
 X98.0
 X97.9
 X97.8 Z11.3
 X97.5
 X96.5
 X96.3
 X96.0
 X95.8 Z11.4
 X94.0 Z11.6
 X93.8
 X93.5 Z11.7
 X93.3
 X92.5 Z11.9
 X92.3 Z12.0
 X92.0 Z12.1
 X91.8 Z12.2
 X89.8 Z13.0
 X89.6 Z13.1
 X89.3 Z13.2
 X89.1
 X88.3 Z13.5
 X88.1
 X87.3 Z13.7
 X87.1
 X86.8 Z13.8
 X86.6
 X86.3
 X86.1 Z13.9
 X85.8
 X84.4 Z14.1
 X84.3
 X84.2
 X84.1
 X83.8 Z14.0
 X83.3 Z13.9
 X83.1 Z13.8
 X82.9 Z13.7
 X82.8
 X82.6 Z13.5
 X81.6 Z12.7
 X81.3 Z12.5
 X80.8 Z12.1
 X80.6 Z11.9
 X80.1 Z11.6
 X79.8 Z11.4
 X79.6 Z11.3
 X79.3 Z11.1
 X79.1 Z10.9
 X78.8 Z10.8
 X76.8 Z9.9
 X76.6 Z9.8
 X76.1 Z9.5
 X75.8 Z9.4
 X75.3 Z9.3
 X75.1 Z9.2
 X73.8 Z8.7
 X73.6
 X72.8 Z8.5
 X72.6 Z8.4
 X72.1 Z8.3
 X71.8
 X71.3 Z8.2
 X71.1
 X70.8
 X70.6
 X70.1
 X69.8
 X69.6
 X68.8 Z8.4
 X68.6 Z8.5
 X68.4
 X68.1 Z8.6
 X67.1 Z9.0
 X66.9 Z9.1
 X66.6 Z9.2
 X66.4 Z9.4
 X66.1 Z9.5
 X64.9 Z10.1
 X64.6 Z10.2
 X64.4 Z10.3
 X64.1 Z10.4
 X63.6 Z10.6
 X63.4 Z10.7
 X63.1 Z10.8
 X62.9 Z11.0
 X61.9 Z11.4
 X61.6 Z11.5
 X61.4 Z11.6
 X61.1 Z11.7
 X59.4 Z12.5
 X59.1 Z12.7
 X58.7 Z12.9
 X58.6
 X58.1 Z13.2
 X57.9 Z13.4
 X56.6 Z14.3
 X56.5
 X56.4
 X56.3 Z14.4
 X56.2
 X56.0
 X55.6 Z14.7
 X55.4 Z14.8
 X55.3 Z14.9
 X55.2 Z15.0
 X55.1
 X55.0 Z15.1
 X54.9
 X54.8
 X54.6
 X54.4
 X54.1 Z15.2
 X53.9 Z15.1
 X52.6
 X52.4
 X52.1
 X51.9
 X51.6
 X50.6 Z15.0
 X50.4
 X50.1 Z14.9
 X49.9
 X48.4 Z14.7
 X48.1
 X47.9
 X46.4 Z14.6
 X46.1
 X45.9
 X45.7
 X45.4
 X42.9 Z14.8
 X42.7
 X42.4
 X42.2
 X41.9 Z14.9
 X41.7
 X40.2 Z15.1
 X39.9
 X38.9 Z15.3
 X38.7
 X38.4
 X38.2 Z15.4
 X37.9
 X37.2
 X36.9
 X36.7
 X36.5 Z15.5
 X36.4 Z15.4
 X36.2
 X35.9
 X35.0 Z15.3
 X34.9
 X34.7 Z15.2
 X34.2 Z15.0
 X33.9
 X33.8 Z14.9
 X33.7
 X33.4 Z14.8
 X33.2 Z14.7
 X32.9 Z14.6
 X30.9 Z13.7
 X30.7 Z13.6
 X29.7 Z13.2
 X29.4 Z13.0
 X29.2 Z12.9
 X28.9 Z12.8
 X28.2 Z12.5
 X27.9 Z12.4
 X27.7 Z12.3
 X27.4 Z12.2
 X26.4 Z11.9
 X26.2 Z11.8
 X25.9 Z11.7
 X25.7
 X24.9 Z11.5
 X24.7 Z11.4
 X24.4
 X23.7 Z11.3
 X23.5 Z11.2
 X23.2
 X21.7 Z11.1
 X21.5 Z11.2
 X21.2
 X19.0 Z11.5
 X18.7 Z11.6
 X18.5
 X18.2 Z11.7
 X18.0
 X17.7
 X17.2 Z11.8
 X17.0
 X16.7 Z11.9
 X15.0 Z12.1
 X14.7
 X14.5
 X13.0
 X12.7
 X12.5
 X12.2
 X12.0
 X11.2
 X11.0
 X10.7
 X10.2 Z12.0
 X10.0
 X9.7 Z11.9
 X9.5
 X8.0 Z11.6
 X7.7
 X7.0 Z11.5
 X6.7
 X6.5 Z11.4
 X5.0 Z11.3
 X4.7
 X4.5
 X4.3
 X4.2
 X4.1
 X4.0
 X3.9
 Z11.2
 X3.8
 X3.7
 Z11.1
 X3.6
 X3.5
 Z11.0
 X3.4
 Z10.9
 X3.3
 Z10.8
 X3.2 Z10.7
 Z10.6
 Z10.4
 X3.1 Z0.0
 X1.0
 Y0.6
 X3.2
 Z10.4
 Z10.5
 X3.3
 Z10.6
 Z10.7
 X3.4 Z10.8
 Z10.9
 X3.5
 X3.6 Z11.0
 Z11.1
 X3.7
 X3.8 Z11.2
 X3.9
 X4.0
 X4.1 Z11.3
 X4.2
 X4.5
 X4.7
 X5.2
 X5.5 Z11.4
 X6.2
 X6.5
 X7.2 Z11.5
 X7.5 Z11.6
 X8.0
 X8.2 Z11.7
 X9.0 Z11.8
 X9.2
 X9.7 Z11.9
 X10.0 Z12.0
 X10.2
 X10.5
 X10.7 Z12.1
 X11.0
 X11.2
 X12.2
 X12.5
 X12.7
 X14.2
 X14.5
 X14.7
 X15.5 Z12.0
 X15.7
 X16.0
 X16.2 Z11.9
 X16.5
 X17.5 Z11.8
 X17.7
 X19.2 Z11.5
 X19.5
 X20.7 Z11.3
 X21.0 Z11.2
 X21.5
 X21.7
 X22.2
 X22.3
 X22.5
 X22.7
 X23.0
 X23.7 Z11.3
 X23.9
 X24.4 Z11.4
 X24.7 Z11.5
 X24.9
 X25.4 Z11.7
 X25.7
 X26.7 Z12.0
 X26.9 Z12.1
 X27.9 Z12.5
 X28.2 Z12.6
 X28.7 Z12.7
 X28.9 Z12.8
 X30.2 Z13.4
 X30.4 Z13.5
 X30.7 Z13.6
 X30.9 Z13.7
 X32.4 Z14.4
 X32.7 Z14.5
 X33.4 Z14.8
 X33.7 Z14.9
 X34.2 Z15.0
 X34.4 Z15.1
 X34.9 Z15.2
 X35.2 Z15.3
 X35.7 Z15.4
 X35.9
 X36.4
 X36.7
 X37.2
 X37.4
 X37.9
 X38.2
 X38.4 Z15.3
 X39.4 Z15.2
 X39.7
 X40.2 Z15.1
 X40.4
 X41.4 Z14.9
 X41.7
 X41.9
 X42.2
 X42.4 Z14.8
 X42.7
 X43.4
 X43.7 Z14.7
 X45.2 Z14.6
 X45.4
 X45.7
 X45.9
 X46.4
 X46.6
 X47.6 Z14.7
 X47.9
 X48.4
 X48.6 Z14.8
 X49.6 Z14.9
 X49.9
 X50.1
 X50.4 Z15.0
 X50.6
 X51.4 Z15.1
 X51.6
 X51.9
 X52.4
 X52.6
 X52.9
 X53.6
 X53.9 Z15.2
 X54.1 Z15.1
 X54.6
 X54.7
 X54.8
 X54.9
 X55.0
 X55.1
 Z15.0
 X55.4 Z14.9
 X55.6 Z14.7
 X55.8 Z14.6
 X56.0 Z14.5
 X56.1 Z14.4
 X56.2
 X56.3
 X56.4
 Z14.3
 X56.6 Z14.2
 X57.4 Z13.7
 X57.6 Z13.6
 X58.6 Z13.0
 Z12.9
 X59.6 Z12.4
 X59.9 Z12.3
 X60.9 Z11.8
 X61.1 Z11.7
 X61.9 Z11.4
 X62.1 Z11.3
 X62.9 Z11.0
 X63.1 Z10.8
 X63.4 Z10.7
 X63.6 Z10.6
 X63.9 Z10.5
 X64.1 Z10.4
 X64.4 Z10.3
 X64.6 Z10.2
 X64.9 Z10.1
 X65.6 Z9.7
 X65.9 Z9.6
 X66.4 Z9.4
 X66.6 Z9.2
 X67.1 Z9.0
 X67.4 Z8.9
 X68.1 Z8.6
 X68.4
 X68.8 Z8.4
 X69.1 Z8.3
 X69.3
 X69.6 Z8.2
 X70.0
 X70.1
 X70.6
 X70.8
 X71.1
 X71.3
 X71.8 Z8.3
 X72.1
 X72.8 Z8.5
 X73.1 Z8.6
 X73.6 Z8.7
 X73.8
 X74.6 Z9.0
 X74.8 Z9.1
 X75.8 Z9.4
 X76.1 Z9.5
 X77.3 Z10.1
 X77.6 Z10.2
 X78.6 Z10.7
 X78.8 Z10.8
 X79.1 Z10.9
 X79.3 Z11.1
 X79.6 Z11.3
 X79.8 Z11.4
 X80.0 Z11.5
 X80.1 Z11.6
 X80.3 Z11.8
 X80.6 Z11.9
 X81.8 Z12.9
 X82.1 Z13.1
 X82.6 Z13.5
 X82.7 Z13.6
 X82.8
 Z13.7
 X83.1 Z13.8
 X83.3 Z13.9
 X83.6 Z14.0
 X83.9 Z14.1
 X84.0
 X84.1
 X84.2
 X84.3
 X84.6
 X85.3 Z14.0
 X85.6 Z13.9
 X86.6 Z13.8
 X86.8 Z13.7
 X87.3
 X87.6 Z13.6
 X88.1 Z13.5
 X88.3
 X88.8 Z13.3
 X89.1 Z13.2
 X89.6 Z13.1
 X89.8 Z13.0
 X91.1 Z12.5
 X91.3 Z12.4
 X92.5 Z12.0
 Z11.9
 X93.0 Z11.8
 X93.3 Z11.7
 X93.5
 X93.8 Z11.6
 X94.0
 X94.3 Z11.5
 X95.5 Z11.4
 X95.8
 X96.0 Z11.3
 X96.3
 X96.8
 X97.0
 X97.6
 X97.7
 X97.8
 X97.9 Z11.2
 X98.0
 X98.1
 Z11.1
 X98.2
 X98.3 Z11.0
 X98.4 Z10.9
 Z10.8
 X98.5
 Z10.7
 X98.6 Z10.4
 Z0.0
 X102.5
 Y0.8
 X98.7
 X98.6 Z10.5
 Z10.6
 X98.5 Z10.7
 Z10.8
 X98.4 Z10.9
 X98.3 Z11.0
 X98.2 Z11.1
 X98.1 Z11.2
 X98.0
 X97.9
 X97.8 Z11.3
 X97.5
 X97.3
 X97.0
 X96.5
 X96.3 Z11.4
 X95.5
 X95.3 Z11.5
 X95.0
 X94.8
 X94.0 Z11.6
 X93.8 Z11.7
 X93.5 Z11.8
 X93.3
 X92.8 Z12.0
 X92.5 Z12.1
 X92.3 Z12.2
 X92.0
 X91.3 Z12.5
 X91.1 Z12.6
 X90.8 Z12.7
 X90.3 Z12.9
 X90.1 Z13.0
 X89.8
 X89.6 Z13.1
 X89.1 Z13.2
 X88.8 Z13.3
 X88.6 Z13.4
 X88.3 Z13.5
 X88.1
 X87.8 Z13.6
 X87.6
 X86.8 Z13.7
 X86.6 Z13.8
 X85.1 Z14.0
 X84.8
 X84.3 Z14.1
 X84.2
 X84.1
 X84.0
 X83.9
 X83.8 Z14.0
 X83.6
 X82.9 Z13.7
 X82.8
 X82.6 Z13.5
 X82.3 Z13.3
 X82.1 Z13.1
 X80.6 Z11.9
 X80.3 Z11.8
 X80.1 Z11.6
 X79.8 Z11.4
 X79.3 Z11.1
 X79.1 Z10.9
 X78.8 Z10.8
 X78.6 Z10.7
 X78.1 Z10.5
 X77.8 Z10.3
 X76.1 Z9.5
 X75.8 Z9.4
 X74.3 Z8.9
 X74.1 Z8.8
 X73.8
 X73.6 Z8.7
 X73.3 Z8.6
 X71.8 Z8.3
 X71.6 Z8.2
 X71.3
 X70.5
 X70.3
 X70.1
 X69.3 Z8.3
 X69.1
 X68.8 Z8.4
 X68.1 Z8.6
 X67.9 Z8.7
 X67.6 Z8.8
 X67.4 Z8.9
 X66.6 Z9.3
 X66.4 Z9.4
 X65.4 Z9.9
 X65.1 Z10.0
 X64.6 Z10.2
 X64.4 Z10.3
 X63.9 Z10.5
 X63.6 Z10.6
 X63.4 Z10.7
 X62.9 Z11.0
 X62.6 Z11.1
 X62.4 Z11.2
 X62.1 Z11.3
 X61.1 Z11.7
 X60.9 Z11.8
 X60.4 Z12.1
 X60.1 Z12.2
 X58.6 Z12.9
 X58.4 Z13.1
 X57.4 Z13.7
 X57.1 Z13.9
 X56.6 Z14.3
 X56.5
 X56.4
 X56.3 Z14.4
 X56.2
 X56.1
 X56.0
 Z14.5
 X55.9
 X55.6 Z14.7
 X55.4 Z14.9
 X55.3
 Z15.0
 X55.2
 X55.1
 Z15.1
 X55.0
 X54.9
 X54.6
 X53.9
 X53.6
 X53.4
 X52.9
 X52.6
 X51.6
 X51.4
 X50.6 Z15.0
 X50.4
 X50.1 Z14.9
 X49.6
 X49.4 Z14.8
 X48.9
 X48.6
 X47.9 Z14.7
 X47.6
 X47.1
 X46.9 Z14.6
 X45.9
 X45.7
 X45.4
 X45.2
 X44.2 Z14.7
 X43.9
 X43.2 Z14.8
 X42.9
 X42.7
 X42.4 Z14.9
 X41.9
 X41.7 Z15.0
 X41.4
 X41.2
 X40.9 Z15.1
 X40.7
 X39.9 Z15.2
 X39.7 Z15.3
 X38.7 Z15.4
 X38.4 Z15.5
 X38.2
 X37.9
 X37.4
 X37.2
 X36.2 Z15.6
 X35.9
 X35.7 Z15.5
 X35.4
 X34.9 Z15.4
 X34.7
 X34.2 Z15.2
 X33.9
 X33.7 Z15.1
 X33.4 Z15.0
 X32.2 Z14.5
 X31.9 Z14.4
 X30.9 Z14.0
 X30.7 Z13.9
 X29.9 Z13.6
 X29.7 Z13.4
 X29.2 Z13.2
 X28.9 Z13.1
 X27.9 Z12.7
 X27.7 Z12.6
 X27.4
 X27.2 Z12.5
 X25.7 Z12.0
 X25.4 Z11.9
 X24.9 Z11.8
 X24.7 Z11.7
 X24.4
 X24.2 Z11.6
 X23.9
 X23.7 Z11.5
 X23.2
 X23.0
 X22.5 Z11.4
 X22.2
 X22.0
 X21.7
 X21.5
 X20.5 Z11.5
 X20.2 Z11.6
 X19.2 Z11.7
 X19.0 Z11.8
 X18.0 Z11.9
 X17.7 Z12.0
 X17.0 Z12.1
 X16.7
 X16.5
 X16.2
 X15.7 Z12.2
 X15.5
 X14.7 Z12.3
 X14.5
 X14.2
 X14.0
 X13.0
 X12.7
 X12.5
 X12.2
 X11.5
 X11.2
 X10.7 Z12.2
 X10.5
 X10.1
 X10.0 Z12.1
 X9.7
 X9.5 Z12.0
 X9.2
 X8.7 Z11.9
 X8.5 Z11.8
 X7.7 Z11.7
 X7.5
 X7.2 Z11.6
 X7.0
 X6.7
 X6.0 Z11.5
 X5.7 Z11.4
 X5.5
 X5.2
 X4.5
 X4.2 Z11.3
 X4.1
 X4.0
 X3.9
 X3.8
 X3.7
 X3.6
 Z11.2
 X3.5
 X3.4
 Z11.1
 X3.3
 Z11.0
 X3.2 Z10.9
 Z10.8
 Z10.7
 X3.1 Z0.0
 X1.0
 Y1.0
 X2.9
 X3.0 Z10.7
 Z10.8
 Z10.9
 Z11.0
 X3.1
 Z11.1
 X3.2 Z11.2
 Z11.3
 X3.3
 X3.4
 Z11.4
 X3.5
 X3.6
 X3.7
 X4.0 Z11.5
 X4.2
 X4.7
 X5.0
 X5.5 Z11.6
 X5.7
 X6.0
 X6.2
 X7.0 Z11.8
 X7.2
 X7.5
 X7.7 Z11.9
 X8.5 Z12.0
 X8.7
 X9.0 Z12.1
 X9.2 Z12.2
 X10.0 Z12.3
 X10.2 Z12.4
 X10.5
 X11.4 Z12.5
 X11.5
 X11.7
 X12.0
 X12.2
 X12.7
 X13.0
 X14.0
 X14.2
 X14.7
 X15.0
 X15.5 Z12.4
 X15.7
 X16.5 Z12.3
 X16.7
 X17.2 Z12.2
 X17.5
 X18.0 Z12.1
 X18.2
 X19.0 Z12.0
 X19.2 Z11.9
 X19.7
 X20.0 Z11.8
 X21.5 Z11.7
 X21.7 Z11.6
 X22.0
 X22.2
 X22.5
 X23.0 Z11.7
 X23.2
 X23.5 Z11.8
 X23.7
 X23.9
 X24.2 Z11.9
 X24.7 Z12.0
 X24.9
 X25.2 Z12.1
 X25.4 Z12.2
 X26.9 Z12.7
 X27.2
 X27.4 Z12.8
 X27.7 Z12.9
 X28.2 Z13.1
 X28.4 Z13.2
 X28.7 Z13.3
 X28.9 Z13.4
 X29.2 Z13.5
 X29.4 Z13.6
 X30.7 Z14.1
 X30.9 Z14.2
 X31.2 Z14.3
 X31.4 Z14.4
 X33.2 Z15.1
 X33.4 Z15.2
 X33.7 Z15.3
 X34.2 Z15.5
 X34.4
 X34.7 Z15.6
 X34.9
 X35.2 Z15.7
 X35.4
 X35.9 Z15.8
 X36.2
 X37.4 Z15.7
 X37.7
 X37.9
 X38.2
 X38.7 Z15.6
 X38.9
 X39.2 Z15.5
 X39.4
 X39.7
 X39.9 Z15.4
 X40.2
 X40.7 Z15.3
 X40.9 Z15.2
 X41.2
 X41.7 Z15.1
 X41.9
 X42.2 Z15.0
 X42.4
 X42.7
 X42.9 Z14.9
 X43.4
 X43.7
 X44.2 Z14.8
 X44.4
 X44.7
 X45.2 Z14.7
 X45.4
 X45.9
 X46.1
 X46.4
 X47.4
 X47.6
 X48.6 Z14.8
 X48.9
 X49.1
 X49.4
 X49.6 Z14.9
 X49.9
 X50.1
 X50.4 Z15.0
 X50.6
 X50.9
 X51.1
 X51.4 Z15.1
 X51.6
 X52.9
 X53.1
 X53.4
 X53.6
 X54.8
 X54.9
 X55.0
 X55.1
 X55.2 Z15.0
 X55.3
 X55.4 Z14.9
 X55.6 Z14.7
 X56.0 Z14.5
 X56.1 Z14.4
 X56.3
 X56.4
 X56.6 Z14.2
 X56.9 Z14.1
 X58.5 Z13.0
 X58.6 Z12.9
 X60.4 Z12.1
 X60.6 Z12.0
 X60.9 Z11.9
 X62.4 Z11.2
 X62.6 Z11.1
 X62.9 Z11.0
 X63.4 Z10.7
 X63.6 Z10.6
 X64.4 Z10.3
 X64.6 Z10.2
 X64.9 Z10.1
 X66.4 Z9.4
 X66.6 Z9.3
 X67.6 Z8.8
 X67.9 Z8.7
 X69.1 Z8.3
 X69.3
 X70.3 Z8.2
 X71.5
 X71.6
 X73.6 Z8.7
 X73.8 Z8.8
 X75.8 Z9.4
 X76.1 Z9.5
 X78.6 Z10.7
 X78.8 Z10.8
 X79.3 Z11.1
 X79.6 Z11.2
 X80.1 Z11.6
 X80.3 Z11.8
 X82.3 Z13.3
 X82.6 Z13.5
 Z13.6
 X82.7
 X82.8
 Z13.7
 X83.1 Z13.8
 X83.3 Z13.9
 X83.6 Z14.0
 X83.7
 X83.8
 X83.9 Z14.1
 X84.0
 X84.1
 X84.2
 X84.3
 X84.6
 X86.3 Z13.8
 X86.6
 X87.8 Z13.6
 X88.1 Z13.5
 X88.3
 X88.6
 X88.8 Z13.4
 X89.1 Z13.3
 X89.3
 X89.6 Z13.2
 X89.8 Z13.1
 X90.1
 X90.3 Z13.0
 X90.6 Z12.9
 X91.8 Z12.5
 X92.0 Z12.4
 X92.8 Z12.1
 X93.0
 X93.3 Z12.0
 X93.5 Z11.9
 X93.8
 X94.3 Z11.8
 X94.5 Z11.7
 X94.8
 X95.0 Z11.6
 X95.5
 X95.8 Z11.5
 X96.3
 X96.5
 X97.0 Z11.4
 X97.2
 X97.3
 X97.4
 X97.5
 X97.6
 X97.7
 Z11.3
 X97.8
 X97.9
 Z11.2
 X98.0
 X98.1
 X98.2 Z11.1
 X98.3
 Z11.0
 X98.4
 Z10.9
 X98.5 Z10.8
 Z10.7
 X98.6
 Z10.6
 Z10.4
 Z0.0
 X102.5
 Y1.2
 X98.7
 X98.6 Z10.5
 Z10.6
 X98.5
 Z10.7
 Z10.8
 X98.4
 Z10.9
 X98.3 Z11.0
 X98.0 Z11.2
 Z11.3
 X97.9
 Z11.4
 X97.8
 X97.7 Z11.5
 X97.6
 X97.5
 X97.3 Z11.6
 X97.0
 X96.8
 X96.5
 X96.0
 X95.8 Z11.7
 X95.0 Z11.8
 X94.8
 X94.5 Z11.9
 X93.8 Z12.0
 X93.5 Z12.1
 X93.3 Z12.2
 X93.0
 X92.8 Z12.3
 X92.5 Z12.4
 X92.3 Z12.5
 X92.0 Z12.6
 X91.5 Z12.7
 X91.3 Z12.8
 X90.8 Z13.0
 X90.6 Z13.1
 X90.3
 X90.1 Z13.2
 X89.8
 X89.6 Z13.3
 X89.3
 X89.1 Z13.4
 X88.8 Z13.5
 X88.6
 X88.3
 X88.1 Z13.6
 X86.8 Z13.7
 X86.6 Z13.8
 X86.3
 X85.8 Z13.9
 X85.6
 X85.3 Z14.0
 X85.1
 X84.8
 X84.6 Z14.1
 X84.4
 X84.3
 X84.2
 X84.1
 X84.0
 X83.9
 X83.8 Z14.0
 X83.6 Z13.9
 X83.3 Z13.8
 X83.1 Z13.7
 X82.9
 X82.8
 Z13.6
 X82.6 Z13.5
 X80.8 Z12.1
 X80.3 Z11.7
 X80.1 Z11.6
 X79.8 Z11.4
 X79.6 Z11.2
 X79.3 Z11.1
 X79.1 Z10.9
 X78.8 Z10.8
 X78.6 Z10.7
 X78.3 Z10.6
 X78.1 Z10.4
 X77.8 Z10.3
 X77.6 Z10.2
 X77.3 Z10.1
 X77.1 Z10.0
 X76.8 Z9.9
 X76.6 Z9.8
 X76.3 Z9.6
 X76.1 Z9.5
 X75.8 Z9.4
 X73.8 Z8.7
 X73.6
 X71.6 Z8.2
 X71.3
 X70.3
 X70.1
 X69.8
 X69.6
 X69.3 Z8.3
 X69.2
 X69.1
 X67.9 Z8.7
 X67.6 Z8.8
 X67.1 Z9.0
 X66.6 Z9.3
 X66.4 Z9.4
 X66.1 Z9.5
 X65.9 Z9.6
 X65.6 Z9.7
 X65.4 Z9.9
 X65.1 Z10.0
 X64.9 Z10.1
 X64.6 Z10.2
 X64.4 Z10.3
 X64.1 Z10.4
 X63.9 Z10.5
 X63.6 Z10.6
 X63.4 Z10.7
 X62.6 Z11.1
 X62.4 Z11.2
 X61.6 Z11.5
 X60.9 Z11.8
 X60.6 Z12.0
 X60.1 Z12.2
 X59.6 Z12.4
 X59.1 Z12.7
 X58.6 Z12.9
 X58.4 Z13.1
 X57.4 Z13.7
 X56.6 Z14.2
 X56.5 Z14.3
 X56.4
 X56.3 Z14.4
 X56.2
 X56.1
 X56.0
 Z14.5
 X55.9 Z14.6
 X55.6 Z14.8
 X55.5
 X55.4 Z14.9
 X55.3 Z15.0
 X55.2
 X55.1 Z15.1
 X55.0
 X54.9
 X54.6
 X54.4
 X54.1
 X53.9
 X53.6
 X53.4
 X53.1
 X52.9
 X52.6
 X51.4
 X51.1 Z15.0
 X50.9
 X50.6
 X50.4
 X50.1
 X49.9
 X49.6 Z14.9
 X49.1
 X48.9
 X48.6
 X48.4 Z14.8
 X47.6
 X47.4
 X46.9
 X46.6
 X46.1
 X45.9
 X45.7
 X45.4
 X44.4 Z14.9
 X44.2
 X43.9 Z15.0
 X43.7
 X43.4
 X42.9 Z15.1
 X42.7
 X42.4 Z15.2
 X42.2
 X41.9
 X41.7 Z15.3
 X41.4
 X41.2
 X40.7 Z15.5
 X40.4
 X38.9 Z15.8
 X38.7
 X38.4 Z15.9
 X38.2
 X37.9
 X36.0 Z16.0
 X35.9
 X35.7
 X34.9 Z15.9
 X34.8 Z15.8
 X34.7
 X34.4
 X34.2 Z15.7
 X33.4 Z15.5
 X33.2 Z15.4
 X30.9 Z14.5
 X30.7 Z14.4
 X30.4 Z14.2
 X30.2 Z14.1
 X29.2 Z13.7
 X28.9 Z13.6
 X28.7 Z13.5
 X27.7 Z13.1
 X27.4
 X27.2 Z13.0
 X26.9 Z12.9
 X26.4 Z12.8
 X26.2 Z12.7
 X25.2 Z12.3
 X24.9
 X24.7 Z12.2
 X23.9 Z12.1
 X23.7 Z12.0
 X23.5
 X23.2
 X22.5 Z11.9
 X22.2
 X22.0 Z11.8
 X21.8
 X21.7 Z11.9
 X19.7 Z12.1
 X19.5
 X19.2 Z12.2
 X19.0
 X18.5 Z12.3
 X18.2
 X18.0 Z12.4
 X17.7
 X17.5
 X17.0 Z12.5
 X16.7
 X15.7 Z12.6
 X15.5
 X15.0 Z12.7
 X14.7
 X14.2
 X14.0
 X13.2
 X13.0
 X12.2
 X12.0
 X11.7
 X11.5
 X10.5 Z12.6
 X10.2 Z12.5
 X10.0
 X9.0 Z12.3
 X8.7 Z12.2
 X7.5 Z12.0
 X7.2
 X6.7 Z11.9
 X6.5 Z11.8
 X5.7 Z11.7
 X5.5
 X5.2
 X4.5 Z11.6
 X4.2
 X4.0
 X3.7
 X3.6
 X3.5 Z11.5
 X3.4
 X3.3
 Z11.4
 X3.2
 X3.1 Z11.3
 X3.0 Z11.2
 Z11.1
 X2.9
 Z11.0
 Z10.9
 X2.8 Z10.7
 Z0.0
 X1.0
 Y1.4
 X2.7
 X2.8 Z11.0
 X2.9 Z11.1
 Z11.2
 X3.0 Z11.3
 X3.1 Z11.4
 X3.2 Z11.5
 X3.3
 X3.4 Z11.6
 X3.5
 X3.6 Z11.7
 X3.7
 X4.0
 X4.2
 X4.5 Z11.8
 X5.0
 X5.2
 X6.2 Z12.0
 X6.5
 X7.0 Z12.1
 X7.2
 X8.0 Z12.3
 X8.2
 X8.7 Z12.4
 X9.0 Z12.5
 X9.7 Z12.6
 X10.0 Z12.7
 X10.2
 X11.5 Z12.9
 X11.7
 X12.0
 X12.2
 X13.0
 X13.2
 X13.7
 X14.0
 X15.0
 X15.2 Z12.8
 X15.5
 X15.7
 X17.0 Z12.7
 X17.2
 X18.0 Z12.6
 X18.2 Z12.5
 X18.5
 X18.7
 X19.0 Z12.4
 X19.2
 X21.2 Z12.1
 X21.5
 X21.6
 X21.7
 X22.0
 X22.2
 X22.5
 X23.5 Z12.2
 X23.7 Z12.3
 X24.7 Z12.5
 X24.9
 X25.2 Z12.6
 X25.4 Z12.7
 X26.7 Z13.1
 X26.9
 X27.4 Z13.3
 X27.7 Z13.4
 X28.4 Z13.7
 X28.7 Z13.8
 X28.9
 X29.2 Z14.0
 X29.9 Z14.3
 X30.2 Z14.4
 X31.7 Z15.0
 X31.9 Z15.1
 X33.2 Z15.6
 X33.4 Z15.7
 X34.2 Z15.9
 X34.4 Z16.0
 X34.5
 X34.6
 X34.7
 X34.9 Z16.1
 X35.7
 X35.8 Z16.2
 X35.9
 X36.2
 X37.7 Z16.1
 X37.9
 X38.0
 X38.2
 X38.4 Z16.0
 X38.7
 X38.9 Z15.9
 X39.2
 X40.2 Z15.7
 X40.4
 X41.7 Z15.4
 X41.9
 X42.2 Z15.3
 X42.7 Z15.2
 X42.9
 X43.7 Z15.1
 X43.9
 X44.2 Z15.0
 X45.7 Z14.9
 X45.9 Z14.8
 X46.1
 X47.1
 X47.4
 X47.6 Z14.9
 X47.9
 X48.1
 X48.4
 X48.6
 X48.9
 X49.1
 X49.4
 X49.6 Z15.0
 X49.9
 X50.1
 X50.4
 X50.6
 X50.9
 X51.1
 X51.4 Z15.1
 X51.9
 X52.1
 X52.4
 X52.6
 X52.9
 X53.1
 X53.4
 X54.4
 X54.6
 X54.8
 X54.9
 X55.0
 X55.1 Z15.0
 X55.2
 X55.3
 X55.4 Z14.9
 X55.6 Z14.7
 X55.9 Z14.5
 X56.0
 Z14.4
 X56.1
 X56.3 Z14.3
 X56.4
 X56.6 Z14.2
 X57.4 Z13.7
 X58.4 Z13.0
 X58.6 Z12.9
 X59.1 Z12.6
 X59.6 Z12.4
 X60.1 Z12.2
 X60.6 Z11.9
 X60.9 Z11.8
 X61.4 Z11.6
 X61.9 Z11.4
 X62.4 Z11.1
 X62.6 Z11.0
 X63.4 Z10.7
 X63.6 Z10.6
 X63.9 Z10.5
 X64.1 Z10.4
 X64.4 Z10.3
 X64.6 Z10.2
 X64.9 Z10.1
 X65.1 Z9.9
 X65.4 Z9.8
 X65.6 Z9.7
 X65.9 Z9.6
 X66.1 Z9.4
 X66.4 Z9.3
 X66.6 Z9.2
 X67.1 Z9.0
 X67.6 Z8.8
 X67.9 Z8.7
 X69.1 Z8.3
 X69.3 Z8.2
 X69.6
 X69.8
 X70.1 Z8.1
 X70.2
 X70.3
 X71.5 Z8.2
 X71.6
 X73.6 Z8.6
 X73.8 Z8.7
 X75.8 Z9.4
 X76.1 Z9.5
 X76.3 Z9.6
 X76.6 Z9.7
 X76.8 Z9.8
 X77.1 Z9.9
 X77.3 Z10.0
 X77.6 Z10.1
 X77.8 Z10.3
 X78.1 Z10.4
 X78.3 Z10.5
 X78.6 Z10.6
 X78.8 Z10.7
 X79.1 Z10.9
 X79.3 Z11.0
 X79.6 Z11.2
 X79.8 Z11.3
 X80.1 Z11.5
 X80.3 Z11.7
 X81.8 Z12.8
 X82.7 Z13.5
 X82.8
 Z13.6
 X83.1 Z13.7
 X83.3 Z13.8
 X83.6 Z13.9
 X83.8
 X83.9 Z14.0
 X84.0
 X84.1
 X84.3
 X84.6
 X84.8
 X85.8 Z13.9
 X86.1 Z13.8
 X86.3
 X86.6
 X86.8
 X87.1 Z13.7
 X87.3
 X88.1 Z13.6
 X88.3
 X88.6 Z13.5
 X88.8
 X89.1
 X89.3 Z13.4
 X89.6
 X90.1 Z13.3
 X90.3 Z13.2
 X90.6
 X90.8 Z13.1
 X91.1 Z13.0
 X91.3
 X92.5 Z12.6
 X92.8 Z12.5
 X93.0 Z12.4
 X93.3 Z12.3
 X93.8 Z12.2
 X94.0 Z12.1
 X94.8 Z12.0
 X95.0 Z11.9
 X95.3
 X96.3 Z11.7
 X96.5
 X96.8
 X97.0
 X97.4
 X97.5
 X97.6
 X97.7
 Z11.6
 X97.8
 X97.9
 Z11.5
 X98.0
 Z11.4
 X98.3 Z10.9
 X98.4 Z10.8
 Z10.7
 X98.5
 Z10.5
 Z10.3
 X98.6 Z0.0
 X102.5
 Y1.6
 X98.5
 X98.4 Z10.5
 Z10.6
 Z10.9
 Z11.0
 X98.3 Z11.1
 Z11.2
 Z11.3
 X98.2 Z11.4
 Z11.5
 X98.1
 Z11.6
 X98.0
 Z11.7
 X97.9
 X97.8
 Z11.8
 X97.7
 X97.6
 X97.5
 X97.3
 X96.9
 X96.8
 X96.5 Z11.9
 X95.8 Z12.0
 X95.5
 X95.3
 X95.0 Z12.1
 X94.0 Z12.3
 X93.8 Z12.4
 X93.3 Z12.5
 X93.0 Z12.6
 X92.8 Z12.7
 X92.3 Z12.8
 X92.0 Z12.9
 X91.8 Z13.0
 X91.5
 X91.3 Z13.1
 X91.1 Z13.2
 X90.8
 X90.6 Z13.3
 X90.1
 X89.8 Z13.4
 X89.6
 X89.3 Z13.5
 X89.1
 X88.3 Z13.6
 X88.1
 X87.8
 X87.6 Z13.7
 X87.3
 X87.1
 X86.8
 X86.6 Z13.8
 X85.8
 X85.6 Z13.9
 X85.1
 X84.8
 X84.6
 X84.3
 X84.2
 X84.1
 X83.8 Z13.8
 X83.1 Z13.6
 X83.0 Z13.5
 X82.9
 X82.8
 Z13.4
 X82.6 Z13.3
 X81.6 Z12.5
 X80.6 Z11.7
 X80.3 Z11.5
 X80.1 Z11.4
 X79.8 Z11.2
 X79.6 Z11.0
 X79.3 Z10.9
 X79.1 Z10.7
 X78.8 Z10.6
 X78.6 Z10.5
 X78.3 Z10.4
 X78.1 Z10.3
 X77.8 Z10.1
 X77.6 Z10.0
 X77.3 Z9.9
 X77.1 Z9.8
 X76.8 Z9.7
 X76.6 Z9.6
 X76.3 Z9.5
 X76.2 Z9.4
 X76.1 Z9.3
 X73.8 Z8.6
 X73.6 Z8.5
 X71.6 Z8.1
 X71.3 Z8.0
 X70.3
 X70.1
 X69.8 Z8.1
 X69.6
 X69.3
 X69.2
 Z8.2
 X69.1
 X67.9 Z8.6
 X67.6 Z8.7
 X67.4 Z8.8
 X67.1 Z8.9
 X66.9 Z9.0
 X66.6 Z9.1
 X66.4 Z9.2
 X66.1 Z9.3
 X65.9 Z9.5
 X65.6 Z9.6
 X65.4 Z9.7
 X65.1 Z9.8
 X64.9 Z10.0
 X64.6 Z10.1
 X64.4 Z10.2
 X64.1 Z10.3
 X63.9 Z10.4
 X63.6 Z10.5
 X63.4 Z10.6
 X63.1 Z10.7
 X62.6 Z10.9
 X62.4 Z11.0
 X61.9 Z11.3
 X61.4 Z11.5
 X60.9 Z11.7
 X60.6 Z11.8
 X60.4 Z11.9
 X60.1 Z12.0
 X59.9 Z12.2
 X59.6 Z12.3
 X59.4 Z12.4
 X59.1 Z12.5
 X58.9 Z12.7
 X58.6 Z12.8
 X58.4 Z12.9
 X57.9 Z13.2
 X57.4 Z13.6
 X56.9 Z13.9
 X56.5 Z14.1
 X56.4 Z14.2
 X56.3 Z14.3
 X56.2
 X56.1
 X55.9 Z14.5
 X55.6 Z14.6
 X55.5 Z14.7
 X55.4 Z14.8
 X55.3
 Z14.9
 X55.2
 X55.1
 Z15.0
 X55.0
 X54.9
 X54.6
 X54.4
 X54.1
 X53.1
 X52.9 Z15.1
 X52.4
 X52.1
 X51.9
 X51.6
 X51.4
 X51.1 Z15.0
 X50.9
 X50.4
 X50.1
 X49.9
 X49.6
 X49.4
 X49.1
 X48.9 Z14.9
 X48.6
 X48.1
 X47.9
 X47.6
 X47.4
 X46.0
 X45.9
 X45.7 Z15.0
 X44.9 Z15.1
 X44.7
 X44.4
 X44.2
 X43.9 Z15.2
 X43.7
 X43.4 Z15.3
 X43.2
 X42.9
 X42.7 Z15.4
 X41.9 Z15.5
 X41.7 Z15.6
 X41.4
 X41.2 Z15.7
 X40.2 Z15.9
 X39.9
 X39.4 Z16.0
 X39.2 Z16.1
 X38.9
 X38.7
 X38.4 Z16.2
 X38.2
 X37.9
 X37.7 Z16.3
 X37.4
 X36.2
 X35.9
 X35.7
 X35.4
 X34.9 Z16.2
 X34.7
 X34.4
 X34.2 Z16.1
 X33.3 Z15.9
 X33.2 Z15.8
 X32.9 Z15.7
 X32.7 Z15.6
 X32.4 Z15.5
 X29.7 Z14.4
 X29.4 Z14.3
 X29.2 Z14.2
 X28.9 Z14.1
 X28.7 Z14.0
 X28.2 Z13.8
 X27.9 Z13.7
 X27.7 Z13.6
 X27.4 Z13.5
 X26.4 Z13.2
 X26.2 Z13.1
 X25.4 Z12.9
 X25.2 Z12.8
 X24.9
 X24.7 Z12.7
 X23.7 Z12.5
 X23.5
 X22.5 Z12.3
 X22.2
 X22.0
 X21.7
 X21.5
 X21.2 Z12.4
 X19.0 Z12.7
 X18.7
 X18.5
 X17.5 Z12.8
 X17.2 Z12.9
 X15.7 Z13.0
 X15.5
 X15.2
 X15.0 Z13.1
 X14.0
 X13.7
 X13.5
 X13.2
 X12.2
 X12.0
 X11.7
 X10.2 Z12.9
 X10.0
 X9.7 Z12.8
 X9.0 Z12.7
 X8.7 Z12.6
 X7.7 Z12.4
 X7.5
 X7.0 Z12.3
 X6.7 Z12.2
 X6.0 Z12.1
 X5.7
 X5.2 Z12.0
 X5.0
 X4.7 Z11.9
 X4.5
 X4.0
 X3.9
 X3.8 Z11.8
 X3.7
 X3.6
 X3.5 Z11.7
 X3.4
 X3.3 Z11.6
 X3.2
 X3.1 Z11.5
 Z11.4
 X3.0
 Z11.3
 X2.9
 Z11.2
 X2.8 Z11.1
 X2.7 Z10.9
 Z10.8
 Z0.0
 X1.0
 Y1.8
 X2.7
 Z10.9
 Z11.0
 X3.0 Z11.4
 X3.1 Z11.6
 X3.2
 Z11.7
 X3.3 Z11.8
 X3.4
 X3.5 Z11.9
 X3.7 Z12.0
 X3.9
 X4.0
 X4.2
 X5.0 Z12.1
 X5.2 Z12.2
 X5.5
 X5.7
 X6.5 Z12.4
 X6.7
 X7.0 Z12.5
 X8.7 Z12.8
 X9.0 Z12.9
 X9.5 Z13.0
 X9.7
 X10.0 Z13.1
 X10.2
 X11.5 Z13.3
 X11.7
 X12.0
 X12.5
 X12.7
 X13.2
 X13.5
 X13.7
 X14.0
 X15.0
 X15.2 Z13.2
 X15.5
 X15.7
 X17.5 Z13.0
 X17.7
 X18.0
 X18.2 Z12.9
 X18.7
 X19.0
 X19.2 Z12.8
 X21.0 Z12.6
 X21.2
 X21.5
 X21.7
 X21.8 Z12.5
 X22.0
 X22.2
 X22.5 Z12.6
 X23.2 Z12.7
 X23.5
 X23.7
 X23.9 Z12.8
 X24.4 Z12.9
 X24.7
 X25.9 Z13.3
 X26.2 Z13.4
 X26.4 Z13.5
 X26.7
 X26.9 Z13.6
 X27.4 Z13.8
 X27.7 Z13.9
 X27.9
 X28.7 Z14.2
 X28.9 Z14.3
 X29.2 Z14.4
 X29.4 Z14.5
 X32.4 Z15.7
 X32.7 Z15.8
 X32.9 Z15.9
 X33.2 Z16.0
 X33.4 Z16.1
 X33.9 Z16.2
 X34.2 Z16.3
 X34.7 Z16.4
 X34.9
 X35.4 Z16.5
 X35.7
 X35.9
 X36.2
 X36.4
 X37.2
 X37.4 Z16.4
 X38.2
 X38.4 Z16.3
 X38.7
 X38.9
 X39.4 Z16.2
 X39.7
 X39.9 Z16.1
 X40.2
 X41.2 Z15.8
 X41.4
 X41.7 Z15.7
 X41.8 Z15.6
 X41.9
 X42.2
 X42.4 Z15.5
 X42.7
 X42.9
 X43.2 Z15.4
 X43.7 Z15.3
 X43.9
 X44.2 Z15.2
 X44.4
 X45.7 Z15.1
 X45.9 Z15.0
 X46.1
 X46.4
 X46.6
 X46.9
 X47.1
 X47.4
 X47.6
 X47.9
 X48.6
 X48.9
 X49.1
 X49.4
 X49.6
 X49.9
 X50.1
 X50.4
 X50.6
 X50.9
 X51.1
 X51.4
 X52.6
 X52.9
 X53.9
 X54.1
 X54.4 Z14.9
 X54.6
 X54.8
 X54.9
 X55.0 Z14.8
 X55.1
 X55.4 Z14.6
 X55.6 Z14.5
 X55.9 Z14.3
 X56.1 Z14.2
 X56.4 Z14.0
 X56.6 Z13.9
 X56.9 Z13.7
 X57.1 Z13.5
 X57.4 Z13.4
 X57.6 Z13.2
 X57.9 Z13.1
 X58.2 Z12.8
 X58.4 Z12.7
 X58.6 Z12.6
 X58.9 Z12.5
 X59.1 Z12.4
 X59.4 Z12.2
 X59.6 Z12.1
 X59.9 Z12.0
 X60.1 Z11.9
 X60.4 Z11.7
 X60.6 Z11.6
 X60.9 Z11.5
 X61.1 Z11.4
 X61.4 Z11.3
 X61.6 Z11.2
 X61.9 Z11.1
 X62.1 Z11.0
 X62.4 Z10.9
 X62.6 Z10.7
 X63.1 Z10.5
 X63.4 Z10.4
 X63.6 Z10.3
 X63.9 Z10.2
 X64.1 Z10.1
 X64.4 Z10.0
 X64.6 Z9.9
 X64.9 Z9.8
 X65.1 Z9.7
 X65.4 Z9.5
 X65.6 Z9.4
 X65.9 Z9.3
 X66.1 Z9.1
 X66.4 Z9.0
 X66.6 Z8.9
 X66.9 Z8.8
 X67.1 Z8.7
 X67.4 Z8.6
 X67.6 Z8.5
 X67.9 Z8.4
 X68.6 Z8.1
 X69.1 Z8.0
 X69.3
 X69.6 Z7.9
 X69.8
 X70.1 Z7.8
 X70.2
 X70.3
 X70.8
 X71.5 Z7.9
 X71.6
 X73.6 Z8.3
 X73.8 Z8.4
 X76.1 Z9.2
 X76.3 Z9.3
 X76.6 Z9.4
 X76.8 Z9.5
 X77.1 Z9.6
 X77.3 Z9.7
 X77.6 Z9.8
 X77.8 Z9.9
 X78.1 Z10.0
 X78.3 Z10.2
 X78.6 Z10.3
 X78.8 Z10.4
 X79.1 Z10.5
 X79.3 Z10.7
 X79.6 Z10.8
 X80.3 Z11.3
 X80.6 Z11.5
 X82.8 Z13.2
 X82.9 Z13.3
 X83.1 Z13.4
 X83.2
 X83.3 Z13.5
 X83.6 Z13.6
 X84.0 Z13.8
 X84.1
 X84.2
 X84.3
 X84.6
 X84.8 Z13.9
 X85.1
 X85.3
 X85.6 Z13.8
 X85.8
 X86.6 Z13.7
 X86.8
 X87.8 Z13.6
 X88.1
 X88.3
 X88.6
 X88.8 Z13.5
 X89.1
 X89.3
 X89.6
 X89.8
 X90.1 Z13.4
 X90.8 Z13.3
 X91.1 Z13.2
 X91.3
 X91.5
 X91.8 Z13.1
 X93.0 Z12.7
 X93.3
 X93.8 Z12.5
 X94.0
 X94.8 Z12.3
 X95.0 Z12.2
 X95.3
 X96.5 Z12.0
 X96.8
 X97.0
 X97.5
 X97.6
 X97.7
 Z11.9
 X97.8
 X97.9
 X98.0 Z11.8
 X98.1 Z11.7
 X98.2
 Z11.6
 X98.3
 Z11.5
 Z11.4
 X98.4
 Z11.3
 Z11.2
 Z11.1
 Z11.0
 Z0.0
 X102.5
 Y2.0
 X98.5
 Z11.3
 X98.4 Z11.4
 Z11.5
 Z11.6
 X98.3
 Z11.7
 X98.2 Z11.8
 Z11.9
 X98.1
 Z12.0
 X98.0
 X97.9
 Z12.1
 X97.8
 X97.7
 X97.5
 X97.3
 X97.0 Z12.2
 X96.8
 X96.5
 X96.3
 X95.3 Z12.4
 X95.0
 X94.8
 X94.5 Z12.5
 X94.0 Z12.6
 X93.8 Z12.7
 X93.5 Z12.8
 X93.3
 X93.0 Z12.9
 X92.8
 X92.3 Z13.1
 X92.0 Z13.2
 X91.8
 X91.5 Z13.3
 X91.3
 X91.1
 X90.6 Z13.4
 X90.3 Z13.5
 X90.1
 X89.8
 X89.6
 X89.3
 X89.1
 X88.6 Z13.6
 X88.3
 X87.8
 X87.6
 X87.1 Z13.7
 X86.8
 X86.6
 X86.3 Z13.8
 X86.1
 X85.8
 X85.6
 X85.3
 X85.1
 X84.8 Z13.7
 X84.4
 X84.3
 X84.1 Z13.6
 X83.8 Z13.5
 X83.7
 X83.6 Z13.4
 X83.3 Z13.3
 X83.1 Z13.1
 X82.8 Z12.9
 X81.6 Z12.0
 X81.3 Z11.8
 X80.7 Z11.3
 X80.6 Z11.2
 X80.3 Z11.0
 X80.1 Z10.9
 X79.8 Z10.7
 X79.6 Z10.5
 X79.1 Z10.2
 X78.8 Z10.1
 X78.6 Z10.0
 X78.3 Z9.9
 X78.1 Z9.8
 X76.6 Z9.1
 X76.3 Z9.0
 X76.1 Z8.9
 X75.8 Z8.8
 X74.1 Z8.2
 X73.8 Z8.1
 X73.6 Z8.0
 X73.3
 X71.8 Z7.7
 X71.6 Z7.6
 X71.3
 X71.1
 X70.3 Z7.5
 X70.1
 X69.1 Z7.7
 X68.8 Z7.8
 X67.7 Z8.1
 X67.6 Z8.2
 X67.4 Z8.3
 X66.4 Z8.7
 X66.1 Z8.8
 X65.9 Z9.0
 X64.4 Z9.7
 X64.1 Z9.8
 X63.9 Z9.9
 X63.1 Z10.2
 X62.9 Z10.3
 X62.6 Z10.5
 X62.4 Z10.6
 X62.1 Z10.7
 X61.9 Z10.8
 X61.6 Z10.9
 X60.9 Z11.3
 X60.6 Z11.4
 X60.4 Z11.5
 X60.1 Z11.6
 X58.4 Z12.5
 X58.1 Z12.6
 X56.6 Z13.6
 X56.4 Z13.7
 X56.1 Z13.9
 X55.9 Z14.1
 X55.6 Z14.2
 X55.1 Z14.5
 X55.0 Z14.6
 X54.9 Z14.7
 X54.8
 X54.7 Z14.8
 X54.6
 X54.4
 X54.1 Z14.9
 X53.9
 X53.6
 X53.4
 X52.6
 X52.4
 X51.4 Z15.0
 X51.1
 X50.9
 X50.6
 X50.4
 X50.1
 X49.9
 X49.1
 X48.9
 X48.6
 X47.9
 X47.6
 X47.4
 X47.1 Z15.1
 X46.1
 X45.9
 X45.7 Z15.2
 X45.4
 X44.4 Z15.3
 X44.2
 X43.7 Z15.4
 X43.4 Z15.5
 X42.9 Z15.6
 X42.7
 X42.4 Z15.7
 X41.9 Z15.8
 X41.7
 X41.4 Z15.9
 X41.2 Z16.0
 X40.9
 X39.9 Z16.3
 X39.7
 X39.4 Z16.4
 X39.2
 X38.7
 X38.4 Z16.5
 X37.2 Z16.6
 X36.9
 X36.7
 X36.4 Z16.7
 X36.2
 X35.4 Z16.6
 X35.2
 X34.9
 X34.7 Z16.5
 X33.9 Z16.4
 X33.7 Z16.3
 X33.4
 X33.2 Z16.2
 X32.9 Z16.1
 X32.7 Z16.0
 X32.4 Z15.9
 X32.2 Z15.8
 X30.2 Z15.0
 X29.9 Z14.9
 X29.7 Z14.8
 X28.7 Z14.4
 X28.4 Z14.3
 X27.7 Z14.1
 X27.4 Z14.0
 X26.4 Z13.7
 X26.2 Z13.6
 X25.7 Z13.4
 X25.4
 X24.7 Z13.1
 X24.4
 X24.2 Z13.0
 X23.9
 X23.5 Z12.9
 X23.2
 X22.5 Z12.8
 X22.2
 X22.1
 X22.0
 X21.7
 X21.5
 X21.0 Z12.9
 X20.7
 X19.5 Z13.0
 X19.2 Z13.1
 X19.0
 X18.2 Z13.2
 X18.0
 X17.7
 X17.5
 X15.7 Z13.4
 X15.5
 X15.2
 X13.7 Z13.5
 X13.5
 X13.2
 X13.0
 X12.2
 X12.0
 X11.5 Z13.4
 X11.2
 X10.2 Z13.3
 X10.0
 X9.5 Z13.2
 X9.2 Z13.1
 X9.0
 X8.7 Z13.0
 X7.0 Z12.7
 X6.7 Z12.6
 X6.5 Z12.5
 X6.0
 X5.7 Z12.4
 X5.2 Z12.3
 X5.0
 X4.7
 X4.5 Z12.2
 X4.1
 X4.0
 X3.7 Z12.1
 X3.5 Z12.0
 X3.4
 X3.3 Z11.9
 X3.2
 Z11.8
 X3.1
 X3.0 Z11.6
 X2.9 Z11.4
 X2.8 Z11.3
 Z11.2
 X2.7
 Z11.1
 Z11.0
 X2.6 Z10.9
 Z10.8
 Z0.0
 X1.0
 Y2.2
 X2.5
 X2.6 Z11.1
 Z11.2
 X2.7 Z11.4
 X2.9 Z11.6
 Z11.7
 X3.0
 Z11.8
 X3.1 Z11.9
 X3.2 Z12.0
 X3.5 Z12.1
 X3.7 Z12.2
 X3.9 Z12.3
 X4.0
 X4.2 Z12.4
 X4.5
 X4.7
 X5.0 Z12.5
 X6.2 Z12.7
 X6.5
 X6.7 Z12.8
 X7.0
 X7.2 Z12.9
 X7.5 Z13.0
 X8.5 Z13.2
 X8.7
 X9.0 Z13.3
 X9.2
 X9.5 Z13.4
 X10.0
 X10.2 Z13.5
 X11.2 Z13.6
 X11.5
 X12.0 Z13.7
 X12.2
 X13.2
 X13.5
 X13.7
 X14.0
 X14.2
 X14.5
 X15.2 Z13.6
 X15.5
 X15.7
 X16.0
 X16.2
 X16.5 Z13.5
 X17.7 Z13.4
 X18.0
 X18.5
 X18.7 Z13.3
 X19.2
 X19.5
 X20.2 Z13.2
 X20.5
 X21.5 Z13.1
 X21.7 Z13.0
 X21.9
 X22.0
 X22.2
 X22.5
 X22.7 Z13.1
 X23.2
 X23.5
 X23.9 Z13.2
 X24.2 Z13.3
 X24.4
 X24.7 Z13.4
 X24.9
 X25.2 Z13.5
 X26.2 Z13.8
 X26.4
 X27.2 Z14.1
 X27.4 Z14.2
 X27.7
 X28.2 Z14.4
 X28.4 Z14.5
 X31.7 Z15.8
 X31.9 Z15.9
 X32.7 Z16.2
 X32.9 Z16.3
 X33.2 Z16.4
 X33.4 Z16.5
 X33.7
 X33.9 Z16.6
 X34.7 Z16.7
 X34.9 Z16.8
 X35.2
 X35.4
 X36.3
 X36.4
 X36.7
 X38.4 Z16.6
 X38.7
 X38.9
 X39.4 Z16.5
 X39.7
 X39.9 Z16.4
 X40.7 Z16.2
 X40.9
 X41.2 Z16.1
 X41.8 Z15.9
 X41.9
 X42.2 Z15.8
 X42.4
 X42.9 Z15.7
 X43.2 Z15.6
 X43.4
 X43.7 Z15.5
 X44.4 Z15.4
 X44.7
 X44.9 Z15.3
 X45.2
 X45.4
 X45.9 Z15.2
 X46.1
 X46.4 Z15.1
 X46.9
 X47.1
 X47.4
 X47.9 Z15.0
 X48.1
 X48.4
 X48.6
 X48.9
 X49.6
 X49.9
 X50.1
 X50.4
 X50.6
 X50.9
 X51.4 Z14.9
 X51.6
 X52.1
 X52.4
 X52.9
 X53.1
 X53.4
 X53.6 Z14.8
 X54.0
 X54.1
 X54.3 Z14.7
 X54.4
 X54.5 Z14.6
 X54.6
 X54.9 Z14.4
 X55.4 Z14.1
 X55.6 Z14.0
 X55.9 Z13.8
 X56.1 Z13.6
 X56.6 Z13.3
 X56.9 Z13.1
 X57.9 Z12.5
 X58.1 Z12.3
 X58.4 Z12.2
 X59.4 Z11.7
 X59.6 Z11.6
 X60.6 Z11.1
 X60.9 Z11.0
 X61.1 Z10.9
 X62.1 Z10.4
 X62.4 Z10.3
 X62.8 Z10.0
 X62.9
 X63.4 Z9.8
 X63.6 Z9.7
 X63.9 Z9.6
 X64.1 Z9.5
 X64.4 Z9.4
 X65.1 Z9.0
 X65.4 Z8.9
 X65.6 Z8.7
 X65.9 Z8.6
 X66.1 Z8.5
 X66.4 Z8.4
 X66.6 Z8.3
 X67.1 Z8.0
 X67.4 Z7.9
 X67.6 Z7.8
 X67.9 Z7.7
 X68.4 Z7.6
 X68.6 Z7.5
 X68.8 Z7.4
 X69.1
 X69.6 Z7.3
 X69.8
 X70.2 Z7.2
 X70.3
 X70.8 Z7.3
 X71.1
 X71.3
 X71.6
 X71.8 Z7.4
 X72.1
 X73.1 Z7.6
 X73.3 Z7.7
 X73.8 Z7.8
 X74.1 Z7.9
 X74.3 Z8.0
 X75.6 Z8.4
 X75.8 Z8.5
 X76.8 Z8.9
 X77.1 Z9.0
 X77.3 Z9.1
 X77.6 Z9.2
 X78.8 Z9.8
 X79.1 Z10.0
 X79.3 Z10.1
 X79.8 Z10.4
 X80.1 Z10.5
 X80.3 Z10.7
 X80.6 Z10.9
 X80.8 Z11.1
 X81.1 Z11.3
 X82.3 Z12.3
 X82.6 Z12.4
 X82.8 Z12.6
 X83.1 Z12.8
 X83.3 Z13.0
 X83.6 Z13.2
 X83.8 Z13.3
 X83.9 Z13.4
 X84.1 Z13.5
 X84.2
 X84.3
 Z13.6
 X84.6
 X84.8 Z13.7
 X85.1
 X85.3
 X85.6
 X86.1
 X86.3
 X86.6
 X86.8
 X87.1
 X87.3 Z13.6
 X87.6
 X88.6
 X88.8 Z13.5
 X89.1
 X90.1
 X90.3
 X90.6
 X90.8
 X91.1 Z13.4
 X91.3
 X91.8 Z13.3
 X92.0
 X92.3 Z13.2
 X92.5
 X92.8 Z13.1
 X93.0 Z13.0
 X93.5 Z12.9
 X93.8
 X94.0 Z12.8
 X94.3 Z12.7
 X94.5
 X95.0 Z12.6
 X95.3 Z12.5
 X96.0 Z12.4
 X96.3
 X96.5
 X97.3 Z12.3
 X97.5
 X97.6
 X97.7
 X97.8
 X97.9
 Z12.2
 X98.0
 X98.1 Z12.1
 X98.2
 Z12.0
 X98.3
 Z11.9
 Z11.8
 X98.4
 Z11.7
 Z11.6
 X98.5
 Z11.5
 Z11.3
 Z11.1
 X98.6 Z0.0
 X102.5
 Y2.4
 X98.6
 X98.5 Z11.4
 Z11.5
 Z11.6
 Z11.7
 X98.4 Z11.8
 Z11.9
 X98.3 Z12.0
 Z12.1
 X98.2 Z12.2
 X98.1 Z12.3
 X98.0
 Z12.4
 X97.9
 X97.8
 Z12.5
 X97.5
 X96.5 Z12.6
 X96.3
 X96.0
 X95.8
 X95.3 Z12.7
 X95.0
 X94.3 Z12.9
 X94.0
 X93.8 Z13.0
 X93.3 Z13.1
 X93.0 Z13.2
 X92.8
 X92.5 Z13.3
 X92.3
 X91.3 Z13.4
 X91.1 Z13.5
 X90.8
 X90.6
 X90.3
 X89.6
 X89.3
 X89.1
 X88.8
 X88.6 Z13.6
 X88.3
 X88.1
 X87.8
 X87.6
 X87.3
 X86.6
 X86.3 Z13.7
 X86.1
 X85.8
 X85.6 Z13.6
 X85.3
 X85.1
 X84.8 Z13.5
 X84.7
 X84.6
 X84.4 Z13.4
 X84.3
 X84.1 Z13.2
 X83.8 Z13.1
 X83.6 Z12.9
 X83.3 Z12.7
 X83.1 Z12.5
 X81.3 Z11.1
 X81.1 Z10.9
 X80.8 Z10.8
 X80.6 Z10.6
 X80.3 Z10.4
 X80.1 Z10.2
 X79.8 Z10.1
 X79.6 Z9.9
 X79.3 Z9.8
 X79.1 Z9.7
 X78.8 Z9.6
 X77.6 Z9.0
 X77.3 Z8.8
 X77.1 Z8.7
 X76.8 Z8.6
 X76.6
 X75.6 Z8.2
 X75.3 Z8.1
 X74.8 Z7.9
 X74.6 Z7.8
 X74.1 Z7.6
 X73.8
 X73.1 Z7.3
 X72.8
 X72.3 Z7.2
 X72.1 Z7.1
 X71.6
 X71.3 Z7.0
 X70.5 Z6.9
 X70.4
 X70.3
 X70.1 Z7.0
 X69.6
 X69.3
 X69.1 Z7.1
 X68.8
 X68.4 Z7.2
 X68.1 Z7.3
 X67.9 Z7.4
 X67.6 Z7.5
 X67.1 Z7.7
 X66.9 Z7.8
 X66.6 Z7.9
 X65.9 Z8.3
 X65.6 Z8.4
 X64.9 Z8.8
 X64.6 Z8.9
 X64.1 Z9.2
 X63.9 Z9.3
 X63.4 Z9.5
 X63.1 Z9.6
 X62.9 Z9.7
 X62.6 Z9.8
 X61.9 Z10.2
 X61.6 Z10.4
 X61.4 Z10.5
 X60.9 Z10.7
 X60.6 Z10.8
 X60.1 Z11.1
 X59.9 Z11.2
 X59.6 Z11.3
 X59.1 Z11.6
 X58.9 Z11.7
 X58.4 Z11.9
 X58.1 Z12.1
 X57.6 Z12.4
 X57.4 Z12.5
 X57.1 Z12.7
 X56.9 Z12.9
 X56.1 Z13.3
 X55.9 Z13.5
 X55.1 Z14.0
 X54.9 Z14.2
 X54.6 Z14.3
 X54.4 Z14.5
 X54.3
 X54.2 Z14.6
 X54.1
 X54.0
 X53.9 Z14.7
 X53.6
 X53.4
 X53.1 Z14.8
 X52.9
 X52.6
 X52.4
 X52.1
 X51.9
 X51.6 Z14.9
 X50.6
 X50.4 Z15.0
 X49.9
 X49.6
 X49.4
 X48.9
 X48.6
 X48.4
 X48.1
 X47.9 Z15.1
 X47.1 Z15.2
 X46.9
 X46.6
 X46.4
 X46.1
 X45.9 Z15.3
 X44.9 Z15.4
 X44.7
 X44.4 Z15.5
 X44.2 Z15.6
 X43.9
 X43.4 Z15.7
 X43.2
 X42.4 Z15.9
 X42.2 Z16.0
 X42.0
 X41.9
 X41.7 Z16.1
 X40.7 Z16.4
 X40.4 Z16.5
 X40.2
 X39.9 Z16.6
 X39.7
 X39.4 Z16.7
 X38.9
 X38.7
 X38.4 Z16.8
 X36.9 Z16.9
 X36.7 Z17.0
 X36.4
 X36.2
 X35.2 Z16.9
 X34.9
 X34.7
 X34.4 Z16.8
 X33.7 Z16.7
 X33.4 Z16.6
 X33.2
 X32.7 Z16.4
 X32.4 Z16.3
 X32.2 Z16.2
 X31.9 Z16.1
 X30.7 Z15.6
 X30.4 Z15.5
 X30.2 Z15.4
 X29.9 Z15.3
 X28.2 Z14.6
 X27.9 Z14.5
 X27.7 Z14.4
 X27.4
 X27.2 Z14.3
 X26.9 Z14.2
 X26.7 Z14.1
 X26.4 Z14.0
 X24.7 Z13.6
 X24.6
 X24.5 Z13.5
 X24.4
 X24.2
 X23.2 Z13.3
 X23.0
 X22.7
 X22.5
 X22.2 Z13.2
 X22.1
 X22.0
 X21.7 Z13.3
 X21.5
 X20.2 Z13.4
 X20.0
 X19.7 Z13.5
 X19.5
 X19.2
 X19.0
 X17.7 Z13.6
 X17.5
 X16.0 Z13.8
 X15.7
 X15.5
 X15.2
 X14.2 Z13.9
 X14.0
 X13.7
 X13.5
 X13.2
 X13.0
 X12.7
 X12.2
 X12.0
 X11.2 Z13.8
 X11.0
 X10.2 Z13.7
 X10.0 Z13.6
 X9.2 Z13.5
 X9.0
 X8.7 Z13.4
 X8.5
 X8.0 Z13.3
 X7.7 Z13.2
 X7.2 Z13.1
 X7.0 Z13.0
 X6.7
 X6.5 Z12.9
 X6.2
 X5.2 Z12.7
 X5.0 Z12.6
 X4.7
 X4.2
 X4.1
 Z12.5
 X4.0
 X3.7 Z12.4
 X3.6 Z12.3
 X3.5
 X3.4
 Z12.2
 X3.3
 X3.2
 Z12.1
 X3.1
 X3.0 Z12.0
 X2.7 Z11.6
 X2.6 Z11.4
 X2.5 Z11.3
 Z11.2
 X2.4 Z11.0
 Z0.0
 X1.0
 Y2.6
 X2.3
 Z11.2
 X2.4
 Z11.3
 Z11.4
 X2.5 Z11.5
 X2.7 Z11.8
 X2.8 Z11.9
 Z12.0
 X2.9
 Z12.1
 X3.0
 Z12.2
 X3.1
 Z12.3
 X3.2
 X3.3
 Z12.4
 X3.4
 X3.5
 X3.6 Z12.5
 X3.7
 Z12.6
 X3.9
 X4.0 Z12.7
 X4.1
 X4.2 Z12.8
 X4.5
 X4.7
 X5.0
 X5.2 Z12.9
 X6.2 Z13.1
 X6.5
 X6.7 Z13.2
 X7.0
 X7.2 Z13.3
 X8.2 Z13.5
 X8.5 Z13.6
 X8.7
 X9.0 Z13.7
 X10.0 Z13.8
 X10.2 Z13.9
 X10.5
 X10.7
 X11.0 Z14.0
 X12.0 Z14.1
 X12.2
 X12.5
 X13.2
 X13.5
 X13.7
 X14.2
 X14.5
 X14.7
 X15.2 Z14.0
 X15.5
 X15.7
 X16.0
 X16.2 Z13.9
 X16.5
 X17.5 Z13.8
 X17.7
 X19.7 Z13.7
 X20.0
 X20.2
 X20.5 Z13.6
 X21.5 Z13.5
 X21.7
 X22.0
 X22.2
 X22.7
 X23.0
 X23.2 Z13.6
 X23.9 Z13.7
 X24.2
 X24.3
 X24.4
 X24.7 Z13.8
 X24.9 Z13.9
 X25.2
 X25.4 Z14.0
 X25.7 Z14.1
 X25.9
 X26.2 Z14.2
 X26.4
 X26.7 Z14.3
 X26.9 Z14.4
 X27.7 Z14.6
 X27.9 Z14.7
 X28.2 Z14.8
 X28.4 Z14.9
 X28.7 Z15.0
 X28.9 Z15.1
 X31.7 Z16.2
 X31.9 Z16.3
 X32.2 Z16.4
 X32.4 Z16.5
 X32.7 Z16.6
 X32.9 Z16.7
 X33.1
 X33.2
 X33.4 Z16.8
 X33.7
 X34.9 Z17.1
 X35.2
 X35.4
 X36.2
 X36.4
 X36.9
 X37.2 Z17.0
 X37.4
 X38.2 Z16.9
 X38.4
 X38.7
 X39.2 Z16.8
 X39.4
 X39.7
 X39.9 Z16.7
 X40.2
 X40.4 Z16.6
 X41.7 Z16.2
 X41.9 Z16.1
 X42.2
 X42.4 Z16.0
 X42.7
 X42.9 Z15.9
 X43.2
 X43.4 Z15.8
 X43.7 Z15.7
 X44.4 Z15.6
 X44.7 Z15.5
 X45.2 Z15.4
 X45.4
 X45.7
 X45.9 Z15.3
 X46.4 Z15.2
 X46.6
 X46.9
 X47.4
 X47.6 Z15.1
 X47.9
 X48.1 Z15.0
 X48.9
 X49.1
 X49.4
 X49.6
 X49.9
 X50.1 Z14.9
 X50.4
 X50.6
 X51.9 Z14.8
 X52.1
 X52.4
 X52.6 Z14.7
 X52.9
 X53.1
 X53.4 Z14.6
 X53.5
 X53.6
 X53.8 Z14.5
 X53.9
 X54.1 Z14.4
 X54.4 Z14.2
 X54.6 Z14.1
 X54.9 Z13.9
 X55.4 Z13.5
 X55.6 Z13.4
 X55.9 Z13.2
 X56.4 Z12.9
 X56.6 Z12.7
 X56.9 Z12.6
 X57.1 Z12.4
 X57.4 Z12.3
 X58.1 Z11.8
 X58.4 Z11.7
 X58.6 Z11.6
 X58.9 Z11.4
 X59.1 Z11.3
 X60.4 Z10.7
 X60.6 Z10.6
 X60.9 Z10.4
 X61.1 Z10.3
 X62.4 Z9.6
 X62.6 Z9.5
 X62.9 Z9.4
 X63.6 Z9.1
 X63.9 Z9.0
 X64.1 Z8.9
 X64.4 Z8.7
 X65.4 Z8.1
 X65.6 Z8.0
 X65.9 Z7.9
 X66.1 Z7.8
 X66.4 Z7.7
 X66.6 Z7.6
 X66.9 Z7.5
 X67.1 Z7.4
 X67.4 Z7.3
 X67.6 Z7.1
 X67.9
 X68.1 Z7.0
 X68.8 Z6.8
 X69.1
 X69.3 Z6.7
 X69.6
 X69.8
 X70.0
 X70.1
 X70.3
 X70.6
 X71.1
 X71.3 Z6.8
 X72.5 Z6.9
 X72.6
 X72.8 Z7.0
 X74.1 Z7.4
 X74.3 Z7.5
 X74.8 Z7.6
 X75.1 Z7.7
 X75.3 Z7.8
 X75.6 Z7.9
 X75.8 Z8.0
 X77.3 Z8.6
 X77.6 Z8.7
 X77.8 Z8.8
 X78.1 Z8.9
 X78.8 Z9.3
 X79.1 Z9.4
 X79.8 Z9.8
 X80.1 Z9.9
 X80.3 Z10.1
 X80.8 Z10.4
 X81.1 Z10.6
 X81.3 Z10.8
 X81.6 Z11.0
 X81.8 Z11.2
 X82.1 Z11.4
 X82.3 Z11.6
 X83.3 Z12.4
 X83.6 Z12.6
 X83.8 Z12.8
 X83.9 Z12.9
 X84.1 Z13.0
 X84.3 Z13.1
 X84.6 Z13.3
 X84.7
 X84.8
 Z13.4
 X85.1
 X85.3 Z13.5
 X85.6
 X85.8 Z13.6
 X86.1
 X86.3
 X86.6
 X86.8
 X87.1
 X87.6
 X87.8
 X88.6 Z13.5
 X88.8
 X89.1 Z13.6
 X89.3
 X89.6
 X89.8
 X90.3
 X90.6 Z13.5
 X90.8
 X91.1
 X91.3
 X91.5
 X91.8
 X93.0 Z13.3
 X93.3 Z13.2
 X93.5
 X93.8
 X94.0 Z13.1
 X94.3
 X95.0 Z12.9
 X95.3
 X95.5 Z12.8
 X95.8
 X96.3
 X96.5 Z12.7
 X97.3
 X97.4
 X97.5
 X97.6
 X97.7
 Z12.6
 X97.8
 X97.9
 X98.0
 Z12.5
 X98.1
 Z12.4
 X98.2
 X98.3 Z12.3
 Z12.2
 X98.4 Z12.1
 Z12.0
 X98.5
 Z11.9
 Z11.7
 X98.6 Z11.5
 Z0.0
 X102.5
 Y2.8
 X98.6
 Z11.7
 X98.5 Z11.8
 Z11.9
 Z12.0
 Z12.1
 X98.4 Z12.2
 Z12.3
 X98.3 Z12.4
 X98.2 Z12.5
 Z12.6
 X98.1
 X98.0 Z12.7
 X97.9
 X97.8 Z12.8
 X97.7
 X97.6
 X97.5
 Z12.9
 X97.4
 X97.3
 X97.0
 X96.8
 X96.3
 X96.0 Z13.0
 X95.5
 X95.3
 X95.0 Z13.1
 X94.5 Z13.2
 X94.3
 X94.0
 X93.8 Z13.3
 X92.3 Z13.5
 X92.0
 X91.8 Z13.6
 X91.5
 X91.3
 X91.1
 X90.3
 X90.1
 X89.8
 X89.6
 X89.3
 X88.6 Z13.5
 X88.3
 X88.1
 X87.8
 X87.6
 X87.3
 X87.1
 X86.8
 X86.6
 X86.3
 X86.1
 X85.8
 X85.6 Z13.4
 X85.4
 X85.3
 X85.2 Z13.3
 X85.1
 X84.8 Z13.2
 X84.6 Z13.0
 X84.4
 X84.3 Z12.9
 X84.1 Z12.7
 X83.8 Z12.5
 X83.1 Z11.9
 X82.8 Z11.7
 X82.1 Z11.1
 X81.8 Z10.9
 X81.6 Z10.7
 X81.3 Z10.5
 X81.1 Z10.3
 X80.3 Z9.8
 X80.1 Z9.7
 X79.1 Z9.1
 X78.8 Z9.0
 X78.3 Z8.8
 X78.1 Z8.7
 X77.8 Z8.5
 X77.6 Z8.4
 X75.8 Z7.8
 X75.6 Z7.7
 X75.3 Z7.6
 X75.1 Z7.5
 X74.3 Z7.2
 X74.1 Z7.1
 X73.1 Z6.8
 X72.8 Z6.7
 X72.6
 X72.1 Z6.6
 X71.8
 X71.3 Z6.5
 X71.1
 X70.8 Z6.4
 X69.7
 X69.6
 X69.1 Z6.5
 X68.8
 X68.7
 X68.6
 X67.7 Z6.8
 X67.6
 X66.4 Z7.3
 X66.1 Z7.4
 X65.4 Z7.8
 X65.1 Z7.9
 X64.9 Z8.1
 X63.9 Z8.6
 X63.6 Z8.8
 X63.4 Z8.9
 X62.4 Z9.3
 X62.1 Z9.4
 X61.9 Z9.6
 X61.6 Z9.7
 X61.4 Z9.8
 X61.1 Z10.0
 X60.9 Z10.1
 X60.6 Z10.3
 X60.4 Z10.4
 X60.1 Z10.5
 X59.9 Z10.6
 X59.6 Z10.8
 X59.4 Z10.9
 X59.1 Z11.0
 X58.9 Z11.2
 X58.6 Z11.3
 X58.4 Z11.4
 X58.1 Z11.5
 X57.9 Z11.7
 X57.6 Z11.8
 X57.4 Z12.0
 X57.1 Z12.1
 X56.9 Z12.3
 X56.6 Z12.4
 X55.9 Z12.9
 X55.6 Z13.0
 X54.9 Z13.6
 X54.6 Z13.8
 X54.4 Z14.0
 X54.1 Z14.1
 X53.9 Z14.3
 X53.7 Z14.4
 X53.6
 X53.4 Z14.5
 X53.1 Z14.6
 X52.9
 X52.6 Z14.7
 X52.4
 X52.1
 X51.9
 X51.6 Z14.8
 X51.4
 X50.6
 X50.4 Z14.9
 X50.1
 X49.9
 X49.6 Z15.0
 X49.4
 X49.1
 X48.9
 X48.6
 X48.1
 X47.9 Z15.1
 X47.6
 X47.4 Z15.2
 X47.1
 X46.9
 X46.6 Z15.3
 X46.4
 X46.1
 X45.9 Z15.4
 X45.7
 X45.4 Z15.5
 X44.4 Z15.7
 X44.2
 X43.7 Z15.8
 X43.4 Z15.9
 X43.2 Z16.0
 X42.9
 X42.2 Z16.2
 X41.9 Z16.3
 X41.7
 X40.9 Z16.6
 X40.7
 X40.4 Z16.7
 X39.9 Z16.9
 X39.8
 X39.7
 X39.4 Z17.0
 X38.4 Z17.1
 X38.2
 X37.7
 X37.4 Z17.2
 X36.3 Z17.3
 X36.2
 X35.9
 X35.7
 X35.4 Z17.2
 X35.2
 X34.9
 X33.9 Z17.0
 X33.7
 X33.4 Z16.9
 X33.2
 X32.9 Z16.8
 X32.4 Z16.6
 X32.2 Z16.5
 X31.9 Z16.4
 X31.7 Z16.3
 X31.4 Z16.2
 X27.9 Z14.9
 X27.7 Z14.8
 X26.9 Z14.6
 X26.7 Z14.5
 X26.4 Z14.4
 X26.2
 X24.7 Z14.0
 X24.4 Z13.9
 X24.2
 X23.7 Z13.8
 X23.5
 X23.2
 X23.0
 X22.7 Z13.7
 X22.1
 X22.0
 X21.7
 X21.5 Z13.8
 X21.2
 X21.0
 X20.7
 X20.2
 X20.0 Z13.9
 X19.7
 X19.5
 X18.7
 X18.5 Z14.0
 X18.2
 X17.7
 X17.5
 X17.2
 X17.0 Z14.1
 X16.5
 X16.2
 X15.7 Z14.2
 X15.5
 X15.2
 X15.0
 X14.7 Z14.3
 X14.0
 X13.7
 X13.5
 X13.2
 X12.2
 X12.0
 X11.7 Z14.2
 X11.5
 X10.7 Z14.1
 X10.5
 X10.2
 X10.0 Z14.0
 X9.2 Z13.9
 X9.0 Z13.8
 X8.7
 X8.5 Z13.7
 X7.5 Z13.5
 X7.2
 X6.7 Z13.3
 X6.5
 X6.2 Z13.2
 X6.0
 X5.5 Z13.1
 X5.2
 X4.7 Z13.0
 X4.5
 X4.2
 Z12.9
 X4.1
 X4.0
 X3.7 Z12.8
 X3.5 Z12.6
 X3.2 Z12.5
 Z12.4
 X3.1
 X3.0
 Z12.3
 X2.9
 Z12.2
 X2.7 Z12.0
 X2.4 Z11.5
 X2.3
 Z11.4
 X2.2 Z11.3
 Z11.1
 Z0.0
 X1.0
 Y3.0
 X2.1
 Z11.2
 Z11.3
 X2.2 Z11.4
 Z11.5
 Z11.6
 X2.5 Z11.9
 X2.7 Z12.2
 Z12.3
 X2.9 Z12.4
 Z12.5
 X3.0
 X3.2 Z12.7
 X3.4 Z12.8
 X3.5
 Z12.9
 X3.7 Z13.0
 X4.0 Z13.1
 X4.1
 X4.2
 X4.5 Z13.2
 X5.2 Z13.3
 X5.5
 X6.0 Z13.4
 X6.2
 X6.5 Z13.5
 X6.7
 X7.5 Z13.7
 X7.7 Z13.8
 X8.5 Z13.9
 X8.7 Z14.0
 X9.5 Z14.1
 X9.7 Z14.2
 X10.0
 X10.2 Z14.3
 X10.5
 X10.7
 X11.0
 X11.2 Z14.4
 X12.0
 X12.2 Z14.5
 X12.5
 X13.0
 X13.2
 X13.7
 X14.0
 X15.0 Z14.4
 X15.2
 X15.5
 X15.7
 X16.7 Z14.3
 X17.0 Z14.2
 X17.5
 X17.7
 X19.2 Z14.1
 X19.5
 X20.2 Z14.0
 X20.5
 X21.2
 X21.5
 X21.7
 X22.0 Z13.9
 X22.1
 X22.2
 X22.5
 X22.7 Z14.0
 X23.0
 X23.2
 X23.9
 X24.2 Z14.1
 X24.7
 X24.9 Z14.2
 X25.4 Z14.3
 X25.7 Z14.4
 X25.9
 X26.4 Z14.6
 X26.7
 X26.9 Z14.7
 X27.2 Z14.8
 X27.4 Z14.9
 X27.7 Z15.0
 X28.4 Z15.2
 X28.7 Z15.3
 X30.4 Z16.0
 X30.7 Z16.1
 X30.9 Z16.2
 X31.2 Z16.3
 X31.7 Z16.5
 X31.9
 X32.4 Z16.7
 X32.7 Z16.8
 X32.9 Z16.9
 X33.2 Z17.0
 X33.7 Z17.1
 X33.9
 X34.2 Z17.2
 X34.4
 X34.9 Z17.3
 X35.2 Z17.4
 X35.4
 X35.7
 X35.9
 X36.2
 X37.9 Z17.3
 X38.2 Z17.2
 X38.4
 X38.7
 X38.9 Z17.1
 X39.6
 X39.7 Z17.0
 X39.9
 X41.2 Z16.6
 X41.4 Z16.5
 X41.9 Z16.4
 X42.2 Z16.3
 X42.7 Z16.2
 X42.9 Z16.1
 X43.2 Z16.0
 X43.7 Z15.9
 X43.9 Z15.8
 X44.2
 X44.4 Z15.7
 X44.7
 X44.9 Z15.6
 X45.2
 X45.4 Z15.5
 X45.7
 X45.9 Z15.4
 X46.1
 X46.4 Z15.3
 X46.6
 X46.9
 X47.9 Z15.1
 X48.1 Z15.0
 X48.9
 X49.1
 X49.4 Z14.9
 X49.6
 X50.1
 X50.4 Z14.8
 X50.6
 X50.9
 X51.1 Z14.7
 X51.4
 X51.6
 X51.9 Z14.6
 X52.1
 X52.4
 X52.6 Z14.5
 X52.9
 X53.1 Z14.4
 X53.2
 X53.3 Z14.3
 X53.4
 X53.6 Z14.1
 X53.8
 Z14.0
 X53.9
 X54.1 Z13.8
 X55.4 Z12.9
 X55.6 Z12.7
 X56.1 Z12.4
 X56.4 Z12.2
 X56.9 Z11.9
 X57.1 Z11.7
 X57.6 Z11.5
 X57.9 Z11.3
 X58.1 Z11.2
 X59.6 Z10.4
 X59.9 Z10.3
 X60.9 Z9.8
 X61.1 Z9.6
 X61.4 Z9.5
 X61.7 Z9.3
 X61.9 Z9.2
 X62.1 Z9.1
 X62.4 Z9.0
 X63.1 Z8.7
 X63.4 Z8.5
 X63.6 Z8.4
 X63.9 Z8.2
 X64.6 Z7.8
 X64.9 Z7.6
 X65.4 Z7.4
 X65.6 Z7.2
 X65.7
 X65.9 Z7.1
 X66.1 Z7.0
 X66.4 Z6.9
 X66.6 Z6.8
 X67.0 Z6.6
 X67.1
 X67.4 Z6.5
 X67.6
 X68.1 Z6.3
 X68.4
 X69.1 Z6.2
 X69.2
 X69.3
 X70.8
 X71.1
 X71.3
 X72.3 Z6.4
 X72.6
 X72.8 Z6.5
 X73.1
 X73.3 Z6.6
 X74.3 Z6.9
 X74.6 Z7.0
 X75.1 Z7.2
 X75.3 Z7.3
 X75.6 Z7.4
 X76.3 Z7.7
 X76.6 Z7.8
 X76.8 Z7.9
 X77.1 Z8.0
 X77.8 Z8.3
 X78.1 Z8.4
 X78.6 Z8.6
 X78.8 Z8.7
 X79.1 Z8.9
 X79.3 Z9.0
 X80.3 Z9.5
 X80.6 Z9.7
 X81.6 Z10.3
 X81.8 Z10.5
 X82.3 Z10.9
 X82.6 Z11.1
 X83.6 Z12.0
 X83.8 Z12.2
 X84.1 Z12.4
 X84.3 Z12.6
 X84.4 Z12.7
 X84.5
 X84.6 Z12.8
 X84.8 Z12.9
 X85.3 Z13.1
 Z13.2
 X85.4
 X85.6 Z13.3
 X85.8
 X86.1 Z13.4
 X86.3
 X86.6 Z13.5
 X86.8
 X87.1
 X87.3
 X87.6
 X87.8
 X88.1
 X88.3
 X88.6
 X89.8 Z13.6
 X90.1
 X90.3
 X90.6
 X90.8
 X91.1
 X91.3
 X91.5
 X91.8
 X92.0
 X92.3
 X92.5
 X93.0 Z13.5
 X93.3 Z13.4
 X93.5
 X94.3
 X94.5 Z13.3
 X94.8
 X95.0
 X95.3 Z13.2
 X95.5
 X96.0 Z13.1
 X96.3
 X96.5
 X96.8
 X97.0
 X97.1
 X97.2
 X97.3
 X97.5 Z13.0
 X97.7 Z12.9
 X97.8
 X97.9
 X98.0 Z12.8
 X98.1 Z12.7
 X98.2
 Z12.6
 X98.3
 Z12.5
 X98.4 Z12.4
 Z12.3
 X98.5 Z12.2
 Z12.1
 X98.6 Z12.0
 Z11.8
 Z0.0
 X102.5
 Y3.2
 X98.6
 Z12.0
 X98.5 Z12.1
 Z12.3
 X98.4 Z12.4
 X98.3 Z12.5
 Z12.6
 X98.2 Z12.7
 Z12.8
 X98.1
 Z12.9
 X98.0
 X97.9 Z13.0
 X97.8
 Z13.1
 X97.5
 X97.3 Z13.2
 X97.2
 Z13.3
 X97.1
 X97.0
 X96.8
 X96.5
 X96.3
 X96.0
 X95.3 Z13.4
 X95.0
 X94.8 Z13.5
 X93.8
 X93.5
 X93.3 Z13.6
 X93.0
 X92.8
 X92.5
 X92.3
 X92.0
 X91.3
 X91.1
 X90.8
 X90.6
 X90.3
 X89.6 Z13.5
 X89.3
 X89.1
 X88.8
 X88.6
 X88.3 Z13.4
 X88.1
 X87.8
 X87.3
 X87.1
 X86.8
 X86.6 Z13.3
 X86.3
 X86.1 Z13.2
 X85.9
 X85.8
 X85.6 Z13.1
 X85.3 Z12.9
 X85.1 Z12.8
 X84.9
 Z12.7
 X84.8
 X84.6 Z12.5
 X83.1 Z11.2
 X82.8 Z11.0
 X82.3 Z10.6
 X82.1 Z10.4
 X81.8 Z10.2
 X81.6 Z10.0
 X80.8 Z9.5
 X80.6 Z9.4
 X79.8 Z9.0
 X79.6 Z8.8
 X79.3 Z8.7
 X79.1 Z8.6
 X78.8 Z8.5
 X78.6 Z8.4
 X78.3 Z8.2
 X78.1 Z8.1
 X77.8 Z8.0
 X77.6 Z7.9
 X75.8 Z7.2
 X75.6 Z7.1
 X75.1 Z6.9
 X74.8 Z6.8
 X74.6 Z6.7
 X74.3 Z6.6
 X73.8 Z6.5
 X73.6 Z6.4
 X73.1 Z6.3
 X72.8 Z6.2
 X72.6
 X72.3
 X71.6 Z6.0
 X71.3
 X71.1
 X70.6
 X70.3 Z5.9
 X69.6
 X69.3
 X68.4 Z6.0
 X68.1
 X67.9 Z6.1
 X67.6
 X67.4 Z6.2
 X67.1
 X66.6 Z6.4
 X66.4 Z6.5
 X65.6 Z6.8
 X65.5 Z6.9
 X65.4
 X65.1 Z7.1
 X64.9 Z7.2
 X64.6 Z7.3
 X64.4 Z7.5
 X64.1 Z7.6
 X63.9 Z7.8
 X62.7 Z8.5
 X62.6
 X62.4 Z8.6
 X62.1 Z8.7
 X61.5 Z9.0
 X61.4 Z9.1
 X60.1 Z9.8
 X59.9 Z10.0
 X59.1 Z10.4
 X58.9 Z10.5
 X57.9 Z11.0
 X57.6 Z11.1
 X57.4 Z11.2
 X56.9 Z11.5
 X56.6 Z11.7
 X55.9 Z12.2
 X55.6 Z12.4
 X55.4 Z12.6
 X55.1 Z12.8
 X54.9 Z12.9
 X53.9 Z13.6
 X53.6 Z13.8
 X53.5 Z13.9
 X53.4 Z14.0
 X53.1 Z14.2
 X53.0
 X52.9 Z14.3
 X52.6 Z14.4
 X52.4 Z14.5
 X52.1
 X51.9 Z14.6
 X51.6
 X51.4
 X51.1 Z14.7
 X50.9
 X50.6
 X50.4 Z14.8
 X50.1
 X49.9
 X49.6 Z14.9
 X49.4
 X49.1
 X48.9 Z15.0
 X48.6
 X48.4
 X48.1
 X47.9 Z15.1
 X47.6
 X47.1 Z15.2
 X46.9
 X46.6 Z15.3
 X46.4
 X45.9 Z15.4
 X45.7 Z15.5
 X45.4 Z15.6
 X45.2
 X44.9 Z15.7
 X44.7
 X44.4 Z15.8
 X44.2 Z15.9
 X43.9
 X43.7 Z16.0
 X42.9 Z16.2
 X42.7 Z16.3
 X42.4
 X42.2 Z16.4
 X40.9 Z16.8
 X40.7 Z16.9
 X39.8 Z17.1
 X39.7 Z17.2
 X39.4
 X38.7 Z17.3
 X38.4
 X38.2 Z17.4
 X37.9
 X37.2 Z17.5
 X36.9
 X36.7
 X36.2
 X36.0
 X35.9
 X35.7
 X35.2
 X34.9 Z17.4
 X34.7
 X34.4
 X34.2 Z17.3
 X32.9 Z17.0
 X32.7 Z16.9
 X32.4 Z16.8
 X31.4 Z16.5
 X31.2 Z16.4
 X30.2 Z16.0
 X29.9 Z15.9
 X29.7
 X29.4 Z15.8
 X29.2 Z15.7
 X28.9 Z15.6
 X27.7 Z15.1
 X27.4 Z15.0
 X27.2 Z14.9
 X26.7 Z14.8
 X26.4 Z14.7
 X25.2 Z14.4
 X24.9
 X24.7 Z14.3
 X24.4
 X24.2
 X23.9 Z14.2
 X23.5
 X23.2
 X22.8 Z14.1
 X22.7
 X22.5
 X22.2
 X22.0
 X21.2 Z14.2
 X21.0
 X20.7
 X20.5
 X19.5
 X19.2 Z14.3
 X18.5
 X18.2
 X17.7 Z14.4
 X17.5
 X17.2
 X17.0
 X16.2 Z14.5
 X16.0
 X15.7 Z14.6
 X15.5
 X15.2
 X14.0
 X13.7
 X13.2 Z14.7
 X13.0
 X12.5 Z14.6
 X12.2
 X12.0
 X11.7
 X10.5 Z14.5
 X10.2
 X10.0 Z14.4
 X8.7 Z14.2
 X8.5 Z14.1
 X8.0 Z14.0
 X7.7
 X7.5 Z13.9
 X6.7 Z13.7
 X6.5
 X6.2 Z13.6
 X6.0
 X5.7 Z13.5
 X5.5
 X4.4 Z13.4
 X4.3 Z13.3
 X4.2
 X4.1
 X4.0
 X3.6 Z13.1
 X3.5
 X3.2 Z12.9
 Z12.8
 X3.1
 X3.0 Z12.7
 X2.7 Z12.5
 X2.5 Z12.1
 X2.2 Z11.7
 X2.1 Z11.6
 Z11.5
 X2.0 Z11.4
 Z11.3
 Z0.0
 X1.0
 Y3.4
 X1.9
 Z11.4
 X2.0
 Z11.5
 Z11.6
 X2.1 Z11.7
 Z11.8
 X2.2 Z12.0
 X2.4 Z12.2
 X2.5 Z12.4
 X2.7 Z12.6
 X2.9 Z12.8
 X3.0 Z12.9
 X3.1 Z13.0
 X3.2 Z13.1
 X3.3
 Z13.2
 X3.4
 X3.5
 X3.7 Z13.4
 X3.9
 X4.0 Z13.5
 X4.1
 X4.2
 X4.5 Z13.6
 X5.5 Z13.7
 X5.7
 X6.0
 X6.5 Z13.8
 X6.7 Z13.9
 X7.7 Z14.2
 X8.0
 X8.5 Z14.3
 X8.7 Z14.4
 X9.7 Z14.6
 X10.0
 X10.2
 X10.5 Z14.7
 X10.7
 X11.7 Z14.8
 X12.0
 X12.2
 X12.5
 X13.0
 X13.2
 X13.7
 X14.0
 X15.0
 X15.2
 X15.5
 X15.7 Z14.7
 X17.0 Z14.6
 X17.2
 X17.5
 X17.7 Z14.5
 X18.7
 X19.0
 X19.2 Z14.4
 X20.7
 X21.0
 X21.2
 X21.5 Z14.3
 X21.7
 X22.0
 X22.2
 X22.6
 X22.7
 X23.7 Z14.4
 X23.9
 X24.2
 X24.4 Z14.5
 X24.9
 X25.2 Z14.6
 X25.4
 X25.7 Z14.7
 X26.2 Z14.8
 X26.4 Z14.9
 X27.2 Z15.1
 X27.4 Z15.2
 X27.7 Z15.3
 X27.9 Z15.4
 X28.2
 X28.4 Z15.5
 X28.7 Z15.6
 X28.9 Z15.7
 X29.2 Z15.8
 X29.4 Z15.9
 X30.4 Z16.2
 X30.7 Z16.3
 X30.9 Z16.4
 X31.2 Z16.5
 X31.4 Z16.6
 X31.7 Z16.7
 X31.9 Z16.8
 X32.2 Z16.9
 X32.4
 X32.6 Z17.0
 X32.7
 X32.9 Z17.1
 X34.7 Z17.5
 X34.9 Z17.6
 X35.2
 X35.4
 X35.7 Z17.7
 X35.8
 X35.9
 X36.2
 X36.4 Z17.6
 X37.9 Z17.5
 X38.2
 X38.4 Z17.4
 X38.7
 X38.9
 X39.5 Z17.3
 X39.6
 X39.7
 X39.9 Z17.2
 X40.4 Z17.1
 X40.7 Z17.0
 X42.2 Z16.5
 X42.4 Z16.4
 X42.7
 X42.9 Z16.3
 X43.2 Z16.2
 X43.4 Z16.1
 X43.7
 X43.9 Z16.0
 X44.2 Z15.9
 X44.4 Z15.8
 X45.4 Z15.6
 X45.7 Z15.5
 X45.9 Z15.4
 X46.1
 X46.4 Z15.3
 X46.6
 X47.4 Z15.1
 X47.6
 X47.9
 X48.1 Z15.0
 X48.4
 X48.6
 X48.9 Z14.9
 X49.1
 X49.4 Z14.8
 X50.4 Z14.7
 X50.6
 X50.9 Z14.6
 X51.1
 X51.4 Z14.5
 X51.6
 X51.9 Z14.4
 X52.1 Z14.3
 X52.4
 X52.5 Z14.2
 X52.6
 X52.7 Z14.1
 X52.8
 X52.9 Z14.0
 X53.1 Z13.8
 X53.4 Z13.6
 X53.6 Z13.4
 X53.9 Z13.3
 X54.9 Z12.6
 X55.1 Z12.4
 X55.4 Z12.2
 X55.6 Z12.0
 X56.5 Z11.4
 X56.6 Z11.3
 X56.9 Z11.2
 X57.1 Z11.0
 X57.6 Z10.8
 X57.9 Z10.7
 X58.1 Z10.5
 X58.4 Z10.4
 X58.6 Z10.3
 X58.9 Z10.1
 X60.9 Z9.0
 X61.1 Z8.8
 X61.4 Z8.7
 X61.6 Z8.6
 X61.9 Z8.5
 X62.0 Z8.4
 X62.1
 X62.4 Z8.2
 X63.6 Z7.4
 X63.9 Z7.3
 X64.4 Z7.0
 X64.6 Z6.8
 X64.7
 X64.9 Z6.7
 X65.1 Z6.6
 X65.4 Z6.5
 X65.9 Z6.2
 X66.1
 X67.0 Z5.9
 X67.1
 X67.4
 X69.3 Z5.7
 X69.6
 X69.8
 X70.1
 X71.1 Z5.8
 X71.3
 X71.6
 X71.8
 X72.3 Z5.9
 X72.6
 X73.1 Z6.0
 X73.3 Z6.1
 X73.8 Z6.2
 X74.1 Z6.3
 X74.6 Z6.4
 X74.8 Z6.5
 X75.1 Z6.6
 X75.6 Z6.8
 X75.8 Z6.9
 X77.3 Z7.5
 X77.6 Z7.6
 X78.1 Z7.8
 X78.3 Z7.9
 X78.6 Z8.1
 X78.8 Z8.2
 X79.5 Z8.5
 X79.6
 X79.8 Z8.7
 X80.1 Z8.8
 X80.8 Z9.2
 X81.1 Z9.3
 X81.6 Z9.7
 X81.8 Z9.8
 X82.3 Z10.2
 X82.6 Z10.4
 X82.8 Z10.6
 X83.1 Z10.9
 X83.3 Z11.1
 X83.6 Z11.3
 X84.3 Z11.9
 X84.6 Z12.1
 X84.8 Z12.3
 X85.0 Z12.5
 X85.1
 X85.3 Z12.7
 X85.6 Z12.8
 X85.8 Z13.0
 X85.9
 X86.0
 X86.1 Z13.1
 X86.3
 X86.6 Z13.2
 X87.1 Z13.3
 X87.3
 X87.6
 X87.8 Z13.4
 X88.1
 X88.3
 X88.6
 X88.8
 X89.1 Z13.5
 X90.3 Z13.6
 X90.6
 X90.8
 X91.1
 X91.3
 X91.5
 X91.8
 X92.0 Z13.7
 X92.3
 X92.5
 X92.8
 X93.0
 X93.3
 X93.5
 X93.8 Z13.6
 X94.8
 X95.0
 X95.3
 X95.5 Z13.5
 X95.8
 X96.0
 X97.1
 X97.2
 X97.3
 Z13.4
 X97.4
 X97.5
 X97.7 Z13.3
 X97.8
 Z13.2
 X97.9
 X98.0 Z13.0
 X98.1
 Z12.9
 X98.2
 Z12.8
 X98.3
 Z12.7
 Z12.6
 X98.4
 Z12.5
 Z12.4
 X98.5
 Z12.3
 Z12.0
 Z0.0
 X102.5
 Y3.6
 X98.5
 Z12.3
 X98.4 Z12.5
 Z12.7
 X98.3 Z12.8
 Z12.9
 Z13.0
 Z13.1
 X98.2
 Z13.2
 Z13.3
 X98.1
 Z13.4
 X98.0
 Z13.5
 X97.9
 X97.8
 X97.7 Z13.6
 X97.6
 X97.5
 X97.3 Z13.7
 X96.8
 X96.5
 X96.3
 X96.0
 X95.8 Z13.6
 X95.5 Z13.7
 X95.0
 X94.8
 X94.3
 X94.0
 X93.8
 X93.5
 X93.3
 X93.0
 X92.8
 X92.5
 X91.5 Z13.6
 X91.3
 X90.3 Z13.5
 X90.1
 X89.6
 X89.3
 X89.1 Z13.4
 X88.6
 X88.3 Z13.3
 X88.1
 X87.8
 X87.6 Z13.2
 X87.3
 X87.1
 X86.8 Z13.1
 X86.6 Z13.0
 X86.4
 X86.3
 X86.1 Z12.8
 X85.6 Z12.5
 X85.3 Z12.4
 X84.3 Z11.5
 X84.1 Z11.3
 X83.8 Z11.1
 X83.6 Z10.9
 X83.3 Z10.7
 X83.1 Z10.5
 X82.9 Z10.4
 X82.8 Z10.2
 X82.6 Z10.1
 X82.3 Z9.9
 X81.6 Z9.3
 X81.3 Z9.1
 X81.1 Z9.0
 X80.8 Z8.9
 X80.6 Z8.7
 X80.1 Z8.5
 Z8.4
 X78.8 Z7.9
 X78.6 Z7.8
 X78.3 Z7.7
 X78.1 Z7.5
 X77.8 Z7.4
 X76.8 Z7.0
 X76.6 Z6.9
 X76.1 Z6.7
 X75.8 Z6.6
 X75.1 Z6.3
 X74.8 Z6.2
 X74.6
 X74.3 Z6.1
 X73.6 Z5.9
 X73.3 Z5.8
 X72.6 Z5.7
 X72.3
 X72.1 Z5.6
 X71.3 Z5.5
 X71.1
 X70.3
 X70.1
 X69.6
 X69.3
 X67.9 Z5.6
 X67.6
 X67.1 Z5.7
 X66.9
 X66.4 Z5.8
 X66.1
 X65.9 Z5.9
 X65.6 Z6.0
 X65.4
 X65.1 Z6.1
 X64.9 Z6.2
 X64.6 Z6.3
 X64.4 Z6.4
 X64.1 Z6.6
 X63.9 Z6.7
 X63.6 Z6.9
 X63.4 Z7.0
 X61.4 Z8.3
 X61.1 Z8.4
 X60.9 Z8.6
 X60.6 Z8.7
 X60.4 Z8.8
 X60.1 Z9.0
 X59.9 Z9.1
 X58.1 Z10.2
 X57.9 Z10.3
 X57.6 Z10.5
 X57.4 Z10.6
 X56.6 Z10.9
 X56.5 Z11.0
 X56.4 Z11.1
 X55.9 Z11.4
 X55.6 Z11.6
 X55.4 Z11.8
 X55.1 Z12.0
 X54.4 Z12.5
 X54.1 Z12.7
 X53.9 Z12.9
 X53.6 Z13.1
 X52.9 Z13.7
 X52.6 Z13.8
 X52.5 Z13.9
 X52.4 Z14.0
 X52.3 Z14.1
 X52.1
 X51.9 Z14.2
 X51.6 Z14.3
 X51.4 Z14.4
 X51.1 Z14.5
 X50.9
 X50.6
 X50.4 Z14.6
 X50.1 Z14.7
 X49.9
 X49.4
 X49.1 Z14.8
 X48.9 Z14.9
 X48.6
 X48.1 Z15.0
 X47.9
 X47.6 Z15.1
 X47.4
 X47.1 Z15.2
 X46.9
 X46.4 Z15.3
 X46.3 Z15.4
 X46.2
 X46.1
 X45.4 Z15.6
 X45.2 Z15.7
 X44.7 Z15.8
 X44.4 Z15.9
 X43.9 Z16.0
 X43.7 Z16.1
 X43.2 Z16.3
 X42.9 Z16.4
 X42.7
 X42.4 Z16.5
 X42.2 Z16.6
 X41.7 Z16.8
 X41.4 Z16.9
 X41.2
 X40.9 Z17.0
 X40.2 Z17.3
 X39.9
 X39.7 Z17.4
 X39.4 Z17.5
 X39.2
 X38.9
 X38.7
 X38.4 Z17.6
 X38.2
 X37.9
 X37.7 Z17.7
 X36.9
 X36.7 Z17.8
 X36.4
 X36.2
 X35.9
 X35.7
 X35.2 Z17.7
 X34.9
 X33.2 Z17.2
 X32.9
 X32.7 Z17.1
 X32.4 Z17.0
 X31.2 Z16.5
 X30.9
 X30.7 Z16.4
 X30.4 Z16.3
 X30.2 Z16.2
 X29.9
 X29.7 Z16.1
 X29.4 Z16.0
 X29.2 Z15.9
 X28.9 Z15.8
 X28.7 Z15.7
 X28.4 Z15.6
 X27.4 Z15.3
 X27.2 Z15.2
 X26.9 Z15.1
 X26.7
 X26.4 Z15.0
 X26.2 Z14.9
 X24.9 Z14.6
 X24.7
 X24.2
 X23.9 Z14.5
 X23.7
 X23.5
 X23.2
 X22.5 Z14.4
 X22.2
 X22.0
 X21.2 Z14.5
 X21.0
 X20.7
 X20.5 Z14.6
 X20.2
 X20.0
 X19.7
 X19.5
 X19.2
 X19.0
 X18.7
 X18.5 Z14.7
 X18.2
 X18.0
 X17.7
 X17.2 Z14.8
 X17.0
 X15.7 Z14.9
 X15.5
 X14.7 Z15.0
 X14.5
 X14.2
 X14.0
 X13.0
 X12.7
 X12.5
 X12.2
 X12.0
 X11.7
 X11.0 Z14.9
 X10.7
 X10.5
 X10.2 Z14.8
 X10.0
 X9.7
 X9.5 Z14.7
 X8.7 Z14.6
 X8.5 Z14.5
 X8.2
 X8.0 Z14.4
 X6.7 Z14.1
 X6.5 Z14.0
 X6.0 Z13.9
 X5.7
 X5.5
 X5.2 Z13.8
 X4.2 Z13.7
 X4.1
 X4.0
 X3.7 Z13.5
 X3.5 Z13.4
 X3.4 Z13.3
 X3.3
 X3.2
 X3.1 Z13.2
 Z13.1
 X3.0
 X2.7 Z12.8
 X2.6 Z12.7
 X2.5 Z12.6
 X2.4 Z12.4
 X2.3 Z12.3
 X2.2 Z12.2
 X2.1 Z12.0
 X2.0 Z11.8
 Z11.7
 X1.9 Z11.6
 Z11.5
 Z11.4
 Z11.3
 Z0.0
 X1.0
 Y3.8
 X1.7
 X1.8 Z11.3
 Z11.5
 Z11.6
 X1.9
 Z11.7
 X2.0 Z11.9
 X2.2 Z12.3
 Z12.4
 X2.3 Z12.5
 Z12.6
 X2.4
 X2.5 Z12.8
 X2.7 Z13.0
 X2.9 Z13.2
 X3.0 Z13.3
 X3.1
 Z13.4
 X3.2
 Z13.5
 X3.5 Z13.6
 X3.8 Z13.8
 X3.9
 X4.0 Z13.9
 X4.2
 X5.2 Z14.0
 X5.5
 X5.7 Z14.1
 X6.0
 X6.2 Z14.2
 X6.5
 X6.7 Z14.3
 X8.2 Z14.7
 X8.5
 X8.7 Z14.8
 X9.2 Z14.9
 X9.5
 X9.7
 X10.0 Z15.0
 X10.7 Z15.1
 X11.0
 X11.2
 X11.7 Z15.2
 X12.0
 X12.2
 X12.5
 X12.7
 X13.0
 X14.0
 X14.2
 X14.5
 X15.5 Z15.1
 X15.7
 X16.2 Z15.0
 X16.5
 X16.7
 X17.0
 X17.2
 X17.5 Z14.9
 X17.7
 X18.0
 X18.2 Z14.8
 X18.5
 X19.1 Z14.7
 X19.2
 X19.5
 X19.7
 X20.0
 X20.2
 X20.5 Z14.6
 X20.7
 X21.0
 X21.2
 X21.5
 X22.1
 X22.2
 X22.5
 X22.7
 X23.0
 X23.2
 X23.7 Z14.7
 X23.9
 X24.2
 X24.4
 X24.7
 X24.9 Z14.8
 X25.4 Z14.9
 X25.7 Z15.0
 X25.9
 X26.2
 X26.4 Z15.1
 X26.7 Z15.2
 X27.2 Z15.3
 X27.4 Z15.4
 X27.9 Z15.6
 X28.2
 X28.4 Z15.7
 X28.7 Z15.8
 X28.9 Z15.9
 X29.2 Z16.0
 X29.4 Z16.1
 X29.7 Z16.2
 X29.9
 X30.9 Z16.5
 X31.2 Z16.6
 X31.7 Z16.8
 X31.9 Z16.9
 X32.2 Z17.0
 X32.4 Z17.1
 X32.7
 X32.9 Z17.2
 X33.2 Z17.3
 X33.4 Z17.4
 X33.7
 X33.9 Z17.5
 X34.9 Z17.7
 X35.0 Z17.8
 X35.2
 X35.4
 X35.7
 X36.2 Z17.9
 X36.4
 X36.7
 X36.9 Z17.8
 X37.2
 X37.7
 X37.9
 X38.4 Z17.7
 X38.7 Z17.6
 X39.5
 X39.6 Z17.5
 X39.7
 X39.9 Z17.4
 X41.7 Z16.9
 X41.9 Z16.8
 X42.2 Z16.7
 X42.4 Z16.6
 X42.9 Z16.4
 X43.2 Z16.3
 X43.4 Z16.2
 X43.7
 X44.7 Z15.8
 X44.9
 X45.2 Z15.7
 X45.4 Z15.6
 X45.7 Z15.5
 X45.9
 X46.1 Z15.4
 X46.4 Z15.3
 X46.6
 X46.9 Z15.2
 X47.1
 X47.4 Z15.1
 X47.6 Z15.0
 X47.9
 X48.4 Z14.9
 X48.6 Z14.8
 X49.1 Z14.7
 X49.4
 X49.6 Z14.6
 X49.9
 X50.1
 X50.4 Z14.5
 X50.6 Z14.4
 X50.9
 X51.1 Z14.3
 X51.4 Z14.2
 X51.6 Z14.1
 X51.8
 Z14.0
 X51.9
 X52.1 Z13.8
 X52.4 Z13.7
 X52.6 Z13.5
 X52.9 Z13.3
 X53.4 Z12.9
 X53.6 Z12.7
 X53.9 Z12.5
 X55.1 Z11.6
 X55.4 Z11.5
 X56.0 Z11.0
 X56.1 Z10.9
 X56.4 Z10.7
 X56.6 Z10.6
 X56.9 Z10.5
 X57.4 Z10.2
 X57.6 Z10.0
 X58.4 Z9.6
 X58.6 Z9.4
 X58.9 Z9.3
 X59.6 Z8.8
 X59.9 Z8.6
 X60.1 Z8.5
 X60.6 Z8.2
 X60.9 Z8.0
 X61.9 Z7.4
 X62.1 Z7.2
 X62.4 Z7.0
 X62.6 Z6.9
 X62.9 Z6.7
 X63.1 Z6.6
 X63.6 Z6.3
 X63.9 Z6.2
 X64.0
 X64.1 Z6.1
 X64.4 Z6.0
 X64.9 Z5.9
 X65.1
 X65.6 Z5.8
 X65.9 Z5.7
 X66.9 Z5.5
 X67.1
 X67.4
 X67.6
 X67.9 Z5.4
 X68.6
 X68.8 Z5.3
 X69.6
 X69.8
 X71.1
 X71.3
 X71.6
 X71.8 Z5.4
 X72.1
 X72.3
 X72.6 Z5.5
 X73.3 Z5.6
 X73.6
 X74.6 Z5.9
 X74.8 Z6.0
 X75.1 Z6.1
 X75.6 Z6.2
 X75.8 Z6.3
 X76.1 Z6.4
 X76.3 Z6.5
 X78.3 Z7.3
 X78.6 Z7.4
 X78.8 Z7.5
 X79.1 Z7.6
 X79.6 Z7.9
 X79.8 Z8.0
 X80.1 Z8.1
 X80.3 Z8.2
 X80.6 Z8.3
 X80.8 Z8.5
 X81.3 Z8.8
 X81.6 Z9.0
 X82.6 Z9.7
 X82.8 Z9.8
 X83.1 Z10.0
 X83.3 Z10.3
 X84.1 Z10.9
 X84.3 Z11.2
 X84.6 Z11.4
 X84.8 Z11.6
 X85.6 Z12.3
 X85.7
 X85.8 Z12.4
 X86.1 Z12.5
 X86.3 Z12.7
 X86.5 Z12.8
 X86.6
 X86.7 Z12.9
 X86.8
 X87.1 Z13.0
 X87.6 Z13.1
 X87.8 Z13.2
 X88.1
 X88.3 Z13.3
 X88.6
 X89.1 Z13.4
 X89.3
 X89.6
 X89.8 Z13.5
 X90.1
 X90.3
 X90.6
 X90.8 Z13.6
 X91.5
 X91.8 Z13.7
 X92.3
 X92.5
 X93.0
 X93.3 Z13.8
 X93.5
 X93.8
 X94.0
 X94.3
 X94.5
 X94.8
 X95.0
 X95.8
 X96.0
 X96.5
 X96.8
 X97.0
 X97.3
 X97.5
 X97.6
 X97.7
 X97.8
 X97.9
 X98.0
 Z13.7
 X98.1
 X98.2
 Z13.6
 X98.3
 Z13.5
 Z13.4
 X98.4 Z13.3
 Z13.2
 X98.5 Z12.7
 Z0.0
 X102.5
 Y4.0
 X98.7
 Z13.0
 X98.6 Z13.3
 Z13.4
 X98.5
 Z13.5
 Z13.6
 X98.4 Z13.7
 Z13.8
 X98.3
 Z13.9
 X98.2
 X98.1 Z14.0
 X98.0
 X97.9
 X97.8
 X97.5
 X97.3
 X96.0 Z13.9
 X95.8
 X95.5
 X95.3
 X95.0
 X94.8
 X94.5
 X93.8 Z13.8
 X93.5
 X93.3
 X92.3 Z13.7
 X92.0
 X91.8
 X91.5 Z13.6
 X91.3
 X91.1
 X90.8 Z13.5
 X90.3
 X90.1
 X89.8 Z13.4
 X89.6
 X88.8 Z13.3
 X88.6 Z13.2
 X88.3
 X88.1 Z13.1
 X87.8 Z13.0
 X87.6 Z12.9
 X87.3
 X87.2
 X87.1 Z12.8
 X86.8 Z12.7
 X86.3 Z12.4
 X86.2 Z12.3
 X86.1
 Z12.2
 X85.8 Z12.0
 X85.6 Z11.8
 X85.3 Z11.6
 X85.1 Z11.4
 X84.8 Z11.2
 X84.1 Z10.5
 X83.8 Z10.3
 X83.6 Z10.1
 X83.3 Z9.8
 X82.6 Z9.3
 X82.3 Z9.1
 X82.1 Z8.9
 X81.8 Z8.7
 X81.6 Z8.6
 X81.3 Z8.4
 X81.1 Z8.3
 X80.8 Z8.1
 X80.6 Z8.0
 X79.3 Z7.4
 X79.1 Z7.2
 X78.3 Z6.9
 X78.1 Z6.8
 X77.3 Z6.5
 X77.1 Z6.4
 X76.6 Z6.2
 X76.3 Z6.1
 X75.3 Z5.8
 X75.1
 X74.8 Z5.7
 X74.6 Z5.6
 X74.3
 X73.8 Z5.5
 X73.6 Z5.4
 X73.3
 X72.8 Z5.3
 X72.6
 X72.3
 X71.1 Z5.2
 X70.8
 X70.6
 X70.3
 X70.1
 X69.8
 X69.6
 X69.1
 X68.8 Z5.3
 X68.4
 X68.1
 X67.9 Z5.4
 X67.6
 X67.4
 X66.9 Z5.5
 X66.6
 X66.1 Z5.6
 X65.9
 X65.1 Z5.8
 X64.9
 X64.4 Z5.9
 X64.1 Z6.0
 X63.9
 X63.6 Z6.1
 X63.4
 X63.1 Z6.2
 X62.4 Z6.5
 X62.1 Z6.6
 X61.9 Z6.7
 X61.4 Z7.0
 X61.1 Z7.2
 X60.6 Z7.5
 X60.4 Z7.7
 X60.1 Z7.9
 X59.6 Z8.2
 X59.4 Z8.4
 X59.1 Z8.5
 X58.9 Z8.7
 X57.9 Z9.4
 X57.6 Z9.5
 X57.4 Z9.7
 X57.1 Z9.9
 X56.9 Z10.0
 X56.6 Z10.2
 X56.4 Z10.3
 X56.1 Z10.4
 X55.9 Z10.6
 X55.6 Z10.9
 X55.4 Z11.1
 X55.1 Z11.3
 X54.9 Z11.4
 X54.6 Z11.6
 X54.4 Z11.8
 X53.4 Z12.4
 X53.1 Z12.6
 X52.9 Z12.8
 X52.1 Z13.4
 X51.9 Z13.6
 X51.6 Z13.8
 Z13.9
 X51.5
 Z14.0
 X51.4
 X51.1 Z14.1
 X50.9 Z14.2
 X50.6 Z14.3
 X50.4 Z14.4
 X50.1 Z14.5
 X49.9
 X49.6 Z14.6
 X49.4
 X49.1 Z14.7
 X48.4 Z14.8
 X48.1 Z14.9
 X47.9
 X47.6 Z15.0
 X47.4 Z15.1
 X47.1
 X46.4 Z15.3
 X46.1 Z15.4
 X45.9 Z15.5
 X45.7
 X45.4 Z15.6
 X45.2 Z15.7
 X44.9 Z15.8
 X44.7 Z15.9
 X44.4 Z16.0
 X44.2
 X43.9 Z16.1
 X43.7 Z16.2
 X43.4 Z16.3
 X43.2 Z16.4
 X42.4 Z16.7
 X42.2 Z16.8
 X41.9 Z16.9
 X41.7 Z17.0
 X41.4 Z17.1
 X41.2
 X40.2 Z17.5
 X39.9
 X39.7 Z17.6
 X39.5
 X39.4 Z17.7
 X39.2
 X38.7
 X37.8 Z17.9
 X37.7
 X37.4
 X37.2
 X36.7
 X36.4
 X35.7
 X35.4
 X35.3
 X35.2
 X34.9 Z17.8
 X34.7
 X34.4 Z17.7
 X34.2 Z17.6
 X33.9
 X33.7 Z17.5
 X33.4 Z17.4
 X32.9 Z17.3
 X32.7 Z17.2
 X32.4 Z17.1
 X32.2 Z17.0
 X31.7 Z16.8
 X31.4
 X31.2 Z16.7
 X30.9 Z16.6
 X30.7 Z16.5
 X29.7 Z16.2
 X29.4 Z16.1
 X29.2
 X28.9 Z16.0
 X28.7 Z15.9
 X28.4 Z15.8
 X28.2 Z15.7
 X27.9
 X27.7 Z15.6
 X27.4 Z15.5
 X27.2 Z15.4
 X26.9 Z15.3
 X26.2 Z15.1
 X25.9
 X25.7 Z15.0
 X25.4
 X25.2
 X24.9 Z14.9
 X24.7
 X24.2 Z14.8
 X23.9
 X23.7
 X22.7 Z14.7
 X22.5
 X22.2
 X22.1
 X22.0
 X21.7
 X21.5
 X21.2
 X20.7
 X20.5
 X19.7
 X19.5 Z14.8
 X19.2
 X19.0
 X17.2 Z15.1
 X17.0
 X16.7
 X16.5 Z15.2
 X16.2
 X16.0
 X15.7 Z15.3
 X15.5
 X15.2
 X15.0
 X14.7
 X14.5
 X14.2 Z15.4
 X14.0
 X13.0
 X12.7
 X12.5
 X12.2
 X11.7
 X11.5 Z15.3
 X11.2
 X11.0
 X10.0 Z15.2
 X9.7 Z15.1
 X9.2 Z15.0
 X9.0
 X8.7
 X8.5 Z14.9
 X7.2 Z14.6
 X7.0 Z14.5
 X6.7
 X6.5 Z14.4
 X6.0 Z14.3
 X5.7 Z14.2
 X4.5 Z14.1
 X4.2
 X4.1
 X4.0
 X3.9 Z14.0
 X3.7
 X3.5 Z13.8
 X3.2 Z13.6
 X3.1
 Z13.5
 X3.0
 X2.7 Z13.2
 X2.6 Z13.1
 X2.5 Z13.0
 X2.4 Z12.8
 X2.3 Z12.7
 X2.2 Z12.6
 X2.1 Z12.4
 X1.9 Z11.9
 X1.8 Z11.8
 Z11.7
 Z11.6
 Z11.5
 Z0.0
 X1.0
 Y4.2
 X1.7
 Z11.6
 Z11.7
 Z11.8
 X2.0 Z12.3
 X2.1 Z12.6
 X2.2 Z12.7
 Z12.8
 X2.5 Z13.1
 X2.6 Z13.3
 X2.7
 Z13.4
 X2.8 Z13.5
 X2.9
 Z13.6
 X3.0
 X3.2 Z13.8
 X3.5 Z14.0
 X3.6 Z14.1
 X3.7
 X3.8 Z14.2
 X3.9
 X4.0
 X4.2 Z14.3
 X5.7 Z14.4
 X6.0 Z14.5
 X6.2
 X6.5 Z14.6
 X6.7
 X7.0 Z14.7
 X8.5 Z15.1
 X8.7 Z15.2
 X9.0
 X9.7 Z15.3
 X10.0
 X11.5 Z15.5
 X11.7 Z15.6
 X12.2
 X12.5
 X12.7
 X13.2
 X13.5
 X13.7 Z15.5
 X14.0
 X15.0
 X15.2 Z15.4
 X15.5
 X15.7
 X18.7 Z15.0
 X19.0 Z14.9
 X19.2
 X20.0 Z14.8
 X20.2
 X20.5
 X21.7
 X22.0
 X22.2 Z14.9
 X22.5
 X22.7
 X23.0
 X23.2
 X23.5
 X23.7
 X23.8
 X23.9
 X24.2
 X24.4
 X24.7 Z15.0
 X24.9
 X25.9 Z15.2
 X26.2
 X26.9 Z15.4
 X27.2 Z15.5
 X27.4 Z15.6
 X28.2 Z15.8
 X28.4 Z15.9
 X28.7
 X30.7 Z16.5
 X30.9 Z16.6
 X31.9 Z16.9
 X32.2 Z17.0
 X32.7 Z17.2
 X32.9 Z17.3
 X34.2 Z17.7
 X34.4 Z17.8
 X34.7
 X34.9 Z17.9
 X35.0
 X35.1 Z18.0
 X35.2
 X35.4
 X36.7
 X36.9
 X37.5
 X37.7
 X37.9
 X38.2 Z17.9
 X38.7 Z17.8
 X38.9
 X39.2
 X39.4 Z17.7
 X39.9 Z17.6
 X40.2
 X40.4 Z17.5
 X40.9 Z17.3
 X41.2 Z17.2
 X41.4 Z17.1
 X41.7 Z17.0
 X41.9 Z16.9
 X42.2 Z16.8
 X42.7 Z16.6
 X42.9 Z16.5
 X43.2 Z16.4
 X43.4 Z16.3
 X43.6 Z16.2
 X43.7
 X44.7 Z15.9
 X44.9 Z15.8
 X45.2 Z15.7
 X45.4 Z15.6
 X45.9 Z15.4
 X46.1
 X46.3 Z15.3
 X46.4
 X46.9 Z15.1
 X47.1
 X47.4 Z15.0
 X47.6 Z14.9
 X47.9
 X48.1 Z14.8
 X48.4
 X48.9 Z14.6
 X49.1
 X49.4 Z14.5
 X49.6
 X49.9 Z14.4
 X50.1 Z14.3
 X50.4 Z14.2
 X50.6 Z14.1
 X50.8 Z14.0
 X50.9
 X51.0
 Z13.9
 X51.1 Z13.8
 X51.4 Z13.6
 X51.6 Z13.4
 X52.1 Z13.0
 X52.4 Z12.8
 X52.6 Z12.6
 X52.9 Z12.4
 X53.3 Z12.0
 X53.4 Z11.9
 X54.1 Z11.5
 X54.4 Z11.3
 X54.8 Z11.0
 X54.9 Z10.9
 X55.1 Z10.7
 X55.4 Z10.5
 Z10.4
 X55.6 Z10.3
 Z10.2
 X55.9 Z10.1
 X56.1 Z9.9
 X56.4 Z9.7
 X56.6 Z9.6
 X56.9 Z9.4
 X57.1 Z9.3
 X57.6 Z8.9
 X57.9 Z8.8
 X58.4 Z8.4
 X58.6 Z8.3
 X58.9 Z8.1
 X59.1 Z7.9
 X59.9 Z7.3
 X60.1 Z7.2
 X60.4 Z7.0
 X60.6 Z6.9
 X60.7 Z6.8
 X60.8
 X60.9
 X61.1 Z6.7
 X61.4 Z6.6
 X61.6 Z6.5
 X61.9 Z6.4
 X62.1
 X62.6 Z6.3
 X62.9 Z6.2
 X63.4 Z6.1
 X63.6 Z6.0
 X64.6 Z5.8
 X64.9 Z5.7
 X65.1
 X66.1 Z5.5
 X66.4
 X66.6 Z5.4
 X67.1
 X67.4
 X67.6 Z5.3
 X67.9
 X68.1
 X68.4
 X68.8 Z5.2
 X69.1
 X69.3
 X69.6
 X70.3
 X70.6
 X71.1 Z5.1
 X71.3
 X72.3 Z5.2
 X72.6
 X72.8
 X73.1
 X73.3
 X73.6
 X73.8 Z5.3
 X74.3
 X74.6 Z5.4
 X75.1 Z5.5
 X75.3 Z5.6
 X75.8 Z5.7
 X76.1
 X76.6 Z5.9
 X76.8 Z6.0
 X77.8 Z6.3
 X78.1 Z6.4
 X78.3 Z6.5
 X78.6 Z6.6
 X79.6 Z7.1
 X79.8 Z7.2
 X80.9 Z7.7
 X81.1 Z7.8
 X82.3 Z8.7
 X82.6 Z8.9
 X82.8 Z9.1
 X83.1 Z9.2
 X83.6 Z9.6
 X83.8 Z9.9
 X85.1 Z11.0
 X85.3 Z11.2
 X86.2 Z12.0
 X86.3 Z12.1
 X86.6 Z12.2
 X86.8 Z12.4
 X87.2 Z12.6
 X87.3 Z12.7
 X87.4
 X87.6 Z12.8
 X87.8
 X88.3 Z13.0
 X88.6 Z13.1
 X88.8 Z13.2
 X89.1
 X89.3 Z13.3
 X89.6
 X89.8
 X90.1 Z13.4
 X90.3
 X90.6 Z13.5
 X90.8
 X91.8 Z13.6
 X92.0 Z13.7
 X92.3
 X92.5
 X92.8 Z13.8
 X93.0
 X93.3
 X93.8 Z13.9
 X94.0
 X94.3
 X94.5
 X94.8 Z14.0
 X95.3
 X95.5
 X95.8 Z14.1
 X96.0
 X97.8 Z14.2
 X97.9
 X98.0
 X98.1 Z14.1
 X98.2
 X98.3
 Z14.0
 X98.4
 X98.5 Z13.9
 X98.6 Z13.8
 Z13.7
 X98.7 Z13.6
 X98.8 Z13.1
 Z0.0
 X102.5
 Y4.4
 X98.9
 X98.8 Z13.4
 Z13.5
 Z13.6
 Z13.7
 X98.7 Z13.8
 Z13.9
 X98.6 Z14.0
 X98.5 Z14.1
 X98.4
 Z14.2
 X98.3
 X98.2 Z14.3
 X98.1
 X98.0
 X97.8
 X97.5
 X97.3
 X96.5 Z14.2
 X96.3
 X96.0
 X95.8 Z14.1
 X95.5
 X95.3
 X95.0 Z14.0
 X94.8
 X94.5
 X94.3
 X94.0 Z13.9
 X93.8
 X93.5
 X93.3 Z13.8
 X92.5 Z13.7
 X92.3
 X92.0
 X91.8 Z13.6
 X91.1 Z13.5
 X90.8
 X90.6 Z13.4
 X89.8 Z13.3
 X89.6 Z13.2
 X89.3
 X89.1 Z13.1
 X88.8 Z13.0
 X88.6 Z12.9
 X88.3
 X88.1 Z12.8
 X87.9 Z12.7
 X87.8
 X87.6 Z12.5
 X87.3 Z12.4
 X86.8 Z12.1
 X86.6 Z11.9
 X86.3 Z11.7
 X85.8 Z11.2
 X85.6 Z11.0
 X84.3 Z9.9
 X84.1 Z9.6
 X83.9 Z9.5
 X83.8 Z9.4
 X83.3 Z9.0
 X83.1 Z8.8
 X82.7 Z8.4
 X82.6
 X82.1 Z8.0
 X81.8 Z7.9
 X81.6 Z7.7
 X81.1 Z7.4
 X80.8 Z7.3
 X80.6 Z7.1
 X80.3 Z7.0
 X79.8 Z6.7
 X79.6 Z6.6
 X78.8 Z6.3
 X78.6 Z6.2
 X78.3 Z6.1
 X77.6 Z5.9
 X77.3 Z5.8
 X77.1 Z5.7
 X76.8
 X76.6 Z5.6
 X75.8 Z5.4
 X75.6
 X75.3 Z5.3
 X75.1
 X74.8
 X73.8 Z5.2
 X73.6
 X73.3
 X73.1
 X72.8 Z5.1
 X72.3
 X72.1
 X71.3
 X71.1
 X70.6
 X70.3
 X69.6
 X69.3 Z5.2
 X68.8
 X68.6
 X68.4 Z5.3
 X68.1
 X67.6
 X67.4
 X67.1
 X66.9 Z5.4
 X66.4
 X66.1 Z5.5
 X65.4 Z5.6
 X65.1 Z5.7
 X64.9
 X64.6 Z5.8
 X63.9 Z5.9
 X63.6 Z6.0
 X62.9 Z6.2
 X62.6
 X61.4 Z6.5
 X61.1 Z6.6
 X60.6 Z6.7
 X60.4 Z6.8
 X60.1 Z6.9
 X59.9
 X59.6 Z7.0
 X59.5
 X59.4 Z7.1
 X59.2 Z7.2
 X59.1
 X58.7 Z7.4
 X58.6 Z7.5
 X58.4 Z7.7
 X57.9 Z8.0
 X57.6 Z8.2
 X57.4 Z8.4
 X56.9 Z8.8
 X56.6 Z9.0
 X56.4 Z9.1
 X56.1 Z9.3
 X55.9 Z9.5
 X55.6 Z9.7
 X55.1 Z10.0
 X54.9 Z10.3
 X54.8 Z10.4
 X54.7 Z10.5
 X54.6 Z10.6
 X54.4 Z10.7
 X53.9 Z11.1
 X53.6 Z11.3
 X53.4 Z11.4
 X53.1 Z11.6
 X52.9 Z11.9
 X52.4 Z12.3
 X52.1 Z12.5
 X51.6 Z13.0
 X51.4 Z13.2
 X51.1 Z13.4
 X50.9 Z13.6
 X50.8 Z13.7
 X50.7 Z13.8
 X50.6
 Z13.9
 X50.5
 X50.4 Z14.0
 X50.1 Z14.1
 X49.9 Z14.2
 X49.6 Z14.3
 X49.4 Z14.4
 X49.1 Z14.5
 X48.9 Z14.6
 X48.6
 X48.4 Z14.7
 X48.1
 X47.9 Z14.8
 X47.6 Z14.9
 X47.1 Z15.0
 X46.9 Z15.1
 X46.4 Z15.2
 X46.1 Z15.3
 X45.9 Z15.4
 X45.7 Z15.5
 X45.2 Z15.6
 X44.9 Z15.8
 X44.7 Z15.9
 X44.4 Z16.0
 X44.2 Z16.1
 X43.9
 X43.7 Z16.2
 X42.9 Z16.6
 X42.7 Z16.7
 X42.4 Z16.8
 X41.9 Z17.0
 X41.7 Z17.1
 X41.2 Z17.3
 X40.9 Z17.4
 X40.7 Z17.5
 X40.4 Z17.6
 X40.2
 X39.3 Z17.9
 X39.2
 X38.9
 X38.7 Z18.0
 X38.4
 X38.2
 X37.7 Z18.1
 X37.4
 X37.2
 X36.9
 X36.7
 X36.2
 X35.9
 X35.7
 X35.4 Z18.0
 X35.3
 X35.2
 X34.9
 X34.7 Z17.9
 X32.9 Z17.3
 X32.7 Z17.2
 X31.9 Z17.0
 X31.7 Z16.9
 X31.4 Z16.8
 X31.2 Z16.7
 X30.9 Z16.6
 X30.7
 X30.4 Z16.5
 X30.2 Z16.4
 X29.9 Z16.3
 X29.7
 X29.4 Z16.2
 X29.2 Z16.1
 X28.9
 X28.7 Z16.0
 X27.9 Z15.8
 X27.7 Z15.7
 X27.4 Z15.6
 X27.2 Z15.5
 X26.9
 X26.7 Z15.4
 X26.4
 X26.2 Z15.3
 X25.9 Z15.2
 X25.7
 X25.4 Z15.1
 X25.2
 X24.7 Z15.0
 X24.4
 X24.2
 X23.9 Z14.9
 X22.2
 X22.0
 X21.7
 X21.5
 X21.2
 X21.0
 X20.7
 X20.5
 X20.4
 X20.3 Z14.8
 X20.2 Z14.9
 X20.0
 X19.7
 X19.5
 X19.2 Z15.0
 X19.0
 X18.7 Z15.1
 X18.5
 X18.2
 X18.0 Z15.2
 X17.7
 X16.0 Z15.5
 X15.7
 X15.5
 X15.2 Z15.6
 X15.0
 X14.7
 X14.5
 X13.7 Z15.7
 X13.5
 X13.2
 X13.0 Z15.8
 X12.7
 X12.5
 X12.2
 X12.0 Z15.7
 X11.7
 X11.5
 X11.2
 X10.2 Z15.6
 X10.0 Z15.5
 X9.7
 X9.5
 X9.2 Z15.4
 X9.0
 X8.7 Z15.3
 X8.5
 X8.2 Z15.2
 X7.0 Z14.9
 X6.7 Z14.8
 X6.5
 X6.2 Z14.7
 X5.8 Z14.6
 X5.7
 X4.5 Z14.5
 X4.2 Z14.4
 X4.0
 X3.9
 X3.8 Z14.3
 X3.7
 X3.5 Z14.1
 X3.2 Z14.0
 X3.1 Z13.9
 X3.0 Z13.8
 X2.9
 Z13.7
 X2.8
 X2.7 Z13.6
 X2.5 Z13.3
 X2.3 Z13.0
 X2.2 Z12.9
 X2.0 Z12.5
 X1.9 Z12.2
 X1.8 Z12.1
 X1.7 Z12.0
 Z11.8
 Z11.6
 X1.6 Z0.0
 X1.0
 Y4.6
 X1.6
 Z11.8
 Z11.9
 X1.7 Z12.0
 Z12.1
 Z12.2
 X2.0 Z12.6
 X2.2 Z13.0
 Z13.1
 X2.5 Z13.4
 X2.6 Z13.6
 X2.7 Z13.7
 Z13.8
 X2.8
 X2.9 Z13.9
 X3.0 Z14.0
 X3.2 Z14.1
 X3.6 Z14.4
 X3.7 Z14.5
 X4.0
 X4.5 Z14.6
 X4.7 Z14.7
 X5.0
 X5.5
 X5.7 Z14.8
 X6.0
 X6.2 Z14.9
 X7.0 Z15.0
 X7.2 Z15.1
 X8.2 Z15.4
 X8.5
 X8.7 Z15.5
 X9.0
 X9.5 Z15.6
 X9.7 Z15.7
 X10.0
 X10.2
 X11.0 Z15.8
 X11.2 Z15.9
 X11.5
 X12.2
 X12.3
 X12.4
 X12.5
 X12.7
 X13.2
 X13.5
 X14.0 Z15.8
 X14.2
 X14.5
 X14.7
 X15.0 Z15.7
 X15.2
 X15.7 Z15.6
 X16.0
 X16.5 Z15.5
 X16.7
 X17.0 Z15.4
 X17.2
 X17.5
 X17.7 Z15.3
 X18.5 Z15.2
 X18.7 Z15.1
 X19.0
 X19.1 Z15.0
 X19.2
 X19.5
 X19.7 Z14.9
 X20.0
 X20.1
 X20.2
 X20.5
 X21.7 Z15.0
 X22.0
 X22.2
 X22.5
 X22.7
 X23.0
 X23.2
 X23.5
 X24.1
 X24.2
 X24.4
 X25.7 Z15.3
 X25.9
 X26.2 Z15.4
 X26.4
 X26.7 Z15.5
 X26.9
 X27.2 Z15.6
 X27.4
 X27.7 Z15.7
 X27.9 Z15.8
 X28.2 Z15.9
 X29.4 Z16.2
 X29.7 Z16.3
 X29.9 Z16.4
 X30.2
 X30.4 Z16.5
 X30.6
 X30.7
 X30.9 Z16.6
 X31.2 Z16.7
 X31.7 Z16.9
 X31.9 Z17.0
 X32.2 Z17.1
 X32.4 Z17.2
 X32.7
 X32.9 Z17.3
 X33.2 Z17.4
 X33.4 Z17.5
 X34.9 Z18.0
 X35.2
 X35.4 Z18.1
 X35.7
 X36.2 Z18.2
 X36.4
 X36.7
 X36.9
 X37.2
 X37.4
 X37.7
 X38.9 Z18.0
 X39.2
 X39.4 Z17.9
 X39.7 Z17.8
 X39.9
 X40.3 Z17.7
 X40.4
 X40.7 Z17.6
 X41.7 Z17.1
 X41.9 Z17.0
 X42.2 Z16.9
 X42.4 Z16.8
 X42.7 Z16.7
 X43.7 Z16.3
 X43.9 Z16.2
 X44.2 Z16.1
 X44.4 Z15.9
 X44.7 Z15.8
 X44.9 Z15.7
 X45.2 Z15.6
 X45.4 Z15.5
 X45.7 Z15.4
 X46.3 Z15.2
 X46.4
 X46.6 Z15.1
 X46.9 Z15.0
 X47.1
 X47.4 Z14.9
 X47.6 Z14.8
 X47.9 Z14.7
 X48.1 Z14.6
 X48.4
 X48.6 Z14.5
 X48.9 Z14.4
 X49.0
 X49.1 Z14.3
 X49.4 Z14.2
 X49.6 Z14.1
 X49.9 Z14.0
 X50.0 Z13.9
 X50.1
 Z13.8
 X50.4 Z13.6
 X50.6 Z13.4
 X50.9 Z13.1
 X51.1 Z12.9
 X51.4 Z12.7
 X51.6 Z12.4
 X51.9 Z12.2
 X52.1 Z12.0
 X52.4 Z11.7
 X52.6 Z11.4
 X52.9 Z11.2
 X53.1 Z11.0
 X53.6 Z10.6
 X53.9 Z10.5
 X54.4 Z10.0
 X54.6 Z9.8
 X54.9 Z9.6
 X55.6 Z8.9
 X55.9 Z8.7
 X56.1 Z8.5
 X56.4 Z8.3
 X56.9 Z7.9
 X57.1 Z7.8
 X57.4 Z7.6
 X57.6 Z7.5
 X57.9 Z7.4
 X58.2 Z7.2
 X58.4
 X58.6 Z7.1
 X58.9
 X59.1 Z7.0
 X60.1 Z6.8
 X60.4 Z6.7
 X60.9 Z6.6
 X61.1
 X62.4 Z6.3
 X62.6 Z6.2
 X62.9 Z6.1
 X63.9 Z5.9
 X64.1 Z5.8
 X64.4
 X64.6 Z5.7
 X65.4 Z5.6
 X65.6 Z5.5
 X66.1 Z5.4
 X66.4
 X66.6
 X66.9 Z5.3
 X67.1
 X67.4
 X67.6
 X67.9 Z5.2
 X68.1
 X68.4
 X68.6
 X69.6 Z5.1
 X69.8
 X70.1
 X70.3
 X71.3
 X71.6
 X71.8
 X73.1
 X73.3
 X73.6
 X73.8
 X74.1 Z5.2
 X75.6 Z5.3
 X75.8
 X76.1
 X76.3 Z5.4
 X76.6
 X77.6 Z5.6
 X77.8
 X78.1 Z5.7
 X78.8 Z5.9
 X79.1 Z6.0
 X79.6 Z6.2
 X79.8 Z6.3
 X80.1 Z6.4
 X80.8 Z6.8
 X81.1 Z6.9
 X81.3 Z7.1
 X82.8 Z8.0
 X83.6 Z8.7
 X83.8 Z8.9
 X84.1 Z9.1
 X84.3 Z9.4
 X84.6 Z9.6
 X84.8 Z9.9
 X85.1 Z10.1
 X85.3 Z10.4
 X85.6 Z10.6
 X86.1 Z11.0
 X86.3 Z11.3
 X86.6 Z11.5
 X87.1 Z11.9
 X87.3 Z12.1
 X87.6 Z12.2
 X87.8 Z12.4
 X88.0 Z12.5
 X88.1 Z12.6
 X88.2
 X88.3 Z12.7
 X88.6 Z12.8
 X88.8 Z12.9
 X89.1 Z13.0
 X89.3
 X89.6 Z13.1
 X89.8 Z13.2
 X90.1 Z13.3
 X90.3
 X90.8 Z13.4
 X91.1 Z13.5
 X91.3
 X91.5
 X91.8 Z13.6
 X92.0
 X92.3 Z13.7
 X92.5
 X92.8 Z13.8
 X93.8 Z13.9
 X94.0
 X94.3 Z14.0
 X95.5 Z14.1
 X95.8 Z14.2
 X96.0
 X96.3 Z14.3
 X96.5
 X96.8 Z14.4
 X97.0
 X97.3
 X97.5
 X98.0
 X98.1
 X98.2
 X98.3
 X98.4 Z14.3
 X98.5
 X98.6 Z14.2
 X98.7
 Z14.1
 X98.8 Z14.0
 Z13.9
 Z13.8
 X98.9 Z13.7
 Z13.6
 Z13.4
 X99.0 Z13.3
 Z0.0
 X102.5
 Y4.8
 X99.0
 Z13.8
 Z13.9
 X98.9
 Z14.0
 Z14.1
 X98.8
 Z14.2
 X98.7 Z14.3
 Z14.4
 X98.6
 X98.5
 Z14.5
 X98.4
 X98.3
 X98.0
 X97.5
 X97.3
 X97.2
 X97.0
 X96.8
 X96.5 Z14.4
 X96.3
 X96.0 Z14.3
 X95.8 Z14.2
 X95.5
 X95.3 Z14.1
 X94.5 Z14.0
 X94.3
 X94.0 Z13.9
 X93.8
 X93.3 Z13.8
 X93.0
 X92.8 Z13.7
 X92.5
 X92.0 Z13.6
 X91.8 Z13.5
 X91.5
 X91.3
 X91.1 Z13.4
 X90.8 Z13.3
 X90.6
 X90.3 Z13.2
 X90.1
 X89.8 Z13.1
 X89.6 Z13.0
 X89.3 Z12.9
 X89.1 Z12.8
 X88.9
 X88.8 Z12.7
 X88.7
 X88.6 Z12.6
 X88.3 Z12.4
 X88.1 Z12.2
 X87.8 Z12.0
 X87.7
 X87.6 Z11.9
 X87.3 Z11.7
 X86.8 Z11.3
 X86.6 Z11.1
 X86.3 Z10.8
 X86.1 Z10.6
 X85.6 Z10.1
 X85.3 Z9.9
 X84.6 Z9.1
 X84.3 Z8.8
 X84.1 Z8.6
 X83.8 Z8.4
 X83.2 Z7.8
 X83.1 Z7.7
 X82.8 Z7.5
 X81.7 Z6.7
 X81.6
 X81.3 Z6.5
 X81.1 Z6.4
 X80.4 Z6.1
 X80.3 Z6.0
 X80.1
 X79.6 Z5.8
 X79.3 Z5.7
 X79.1 Z5.6
 X78.8
 X78.6 Z5.5
 X78.3
 X78.1 Z5.4
 X77.8
 X76.8 Z5.3
 X76.6
 X75.3 Z5.2
 X75.1
 X73.8 Z5.1
 X73.6
 X73.3
 X73.1
 X72.8
 X71.8 Z5.0
 X71.6
 X70.8
 X70.6 Z5.1
 X70.1
 X69.8
 X69.6
 X68.6 Z5.2
 X68.4
 X68.1
 X67.6 Z5.3
 X67.4
 X66.4 Z5.4
 X66.1
 X65.9 Z5.5
 X65.6
 X64.6 Z5.7
 X64.4 Z5.8
 X64.1
 X63.9 Z5.9
 X63.4 Z6.0
 X63.1
 X62.6 Z6.2
 X62.4
 X61.6 Z6.4
 X61.4 Z6.5
 X59.9 Z6.8
 X59.6 Z6.9
 X59.1 Z7.0
 X58.9
 X57.9 Z7.2
 X57.6
 X57.4 Z7.3
 X57.1 Z7.4
 X56.9 Z7.5
 X56.6
 X56.1 Z7.8
 X55.9 Z7.9
 X55.6 Z8.1
 X55.4 Z8.2
 X55.1 Z8.5
 X53.9 Z9.6
 X53.6 Z9.8
 X53.4 Z10.1
 X53.1 Z10.3
 X52.9 Z10.5
 X52.8 Z10.6
 X52.7 Z10.7
 X52.6
 X51.9 Z11.5
 X51.6 Z11.8
 X51.5 Z12.0
 X51.4
 Z12.1
 X51.1 Z12.3
 X50.9 Z12.6
 X50.6 Z12.8
 X50.4 Z13.1
 X50.1 Z13.3
 X49.9 Z13.6
 X49.8
 Z13.7
 X49.7 Z13.8
 X49.6
 X49.5 Z13.9
 X49.4 Z14.0
 X49.1 Z14.1
 X48.9 Z14.2
 X48.8 Z14.3
 X48.6 Z14.4
 X48.4 Z14.5
 X48.1
 X48.0 Z14.6
 X47.9
 X47.6 Z14.7
 X47.4 Z14.8
 X47.1 Z14.9
 X46.9 Z15.0
 X46.6
 X46.5 Z15.1
 X46.4
 X45.4 Z15.5
 X45.2 Z15.6
 X45.0
 X44.9 Z15.7
 X44.2 Z16.0
 X43.9 Z16.1
 X43.7 Z16.3
 X43.4 Z16.4
 X43.2 Z16.5
 X42.9 Z16.6
 X42.7 Z16.8
 X42.2 Z17.0
 X41.9 Z17.1
 X41.7 Z17.2
 X41.4 Z17.3
 X41.2 Z17.4
 X40.9 Z17.5
 X40.7 Z17.6
 X40.4 Z17.7
 X40.2 Z17.8
 X39.9 Z17.9
 X39.2 Z18.0
 X38.9 Z18.1
 X38.4 Z18.2
 X38.2
 X37.9
 X37.7 Z18.3
 X37.5
 X37.4
 X37.2
 X36.9
 X35.9 Z18.2
 X35.7
 X35.4 Z18.1
 X35.2
 X34.9 Z18.0
 X33.4 Z17.5
 X33.2 Z17.4
 X32.9 Z17.3
 X32.7 Z17.2
 X32.4
 X31.9 Z17.0
 X31.7 Z16.9
 X31.4 Z16.8
 X31.2 Z16.7
 X30.7 Z16.5
 X30.4 Z16.4
 X30.2
 X29.9 Z16.3
 X29.7
 X29.4 Z16.2
 X29.2 Z16.1
 X28.9
 X28.7 Z16.0
 X27.4 Z15.7
 X27.2 Z15.6
 X26.9 Z15.5
 X26.7
 X26.4 Z15.4
 X26.2
 X25.9 Z15.3
 X25.7
 X25.4
 X25.2 Z15.2
 X24.9
 X24.7 Z15.1
 X24.4
 X24.3
 X24.2
 X23.9
 X23.7
 X23.5 Z15.0
 X23.2
 X22.2
 X22.0
 X21.7
 X21.0 Z14.9
 X20.7
 X20.5
 X20.2
 X19.5 Z15.0
 X19.2
 X19.0 Z15.1
 X18.7 Z15.2
 X18.5
 X18.2 Z15.3
 X18.0
 X16.5 Z15.6
 X16.2
 X16.0 Z15.7
 X15.7
 X15.5 Z15.8
 X14.7 Z15.9
 X14.5
 X14.0 Z16.0
 X13.7
 X13.5
 X13.2
 X13.0
 X12.6 Z16.1
 X12.5
 X12.2
 X11.7 Z16.0
 X11.5
 X11.2
 X11.0
 X10.5 Z15.9
 X10.2
 X9.7 Z15.8
 X9.5
 X9.2 Z15.7
 X9.0
 X8.7 Z15.6
 X8.2 Z15.5
 X8.0
 X7.2 Z15.3
 X7.0 Z15.2
 X6.0 Z15.0
 X5.7 Z14.9
 X5.5
 X5.2
 X5.0
 X4.7 Z14.8
 X3.9 Z14.7
 X3.8
 X3.7 Z14.6
 X3.6
 X3.5 Z14.5
 X3.2 Z14.3
 X3.0 Z14.1
 X2.9
 X2.8 Z14.0
 X2.7 Z13.9
 X2.5 Z13.6
 X2.2 Z13.2
 X2.0 Z12.8
 X1.7 Z12.4
 Z12.2
 X1.6 Z12.1
 Z11.9
 X1.5 Z0.0
 X1.0
 Y5.0
 X1.5
 Z11.8
 Z11.9
 Z12.0
 Z12.1
 X1.6
 Z12.2
 Z12.3
 X1.7 Z12.5
 X2.0 Z13.0
 X2.2 Z13.4
 X2.5 Z13.7
 X2.6 Z13.9
 X2.7 Z14.0
 Z14.1
 X3.0 Z14.3
 X3.4 Z14.6
 X3.5 Z14.7
 X3.6
 X3.7 Z14.8
 X4.0
 X4.2 Z14.9
 X4.5
 X5.0 Z15.0
 X5.2 Z15.1
 X5.5
 X5.7
 X6.0 Z15.2
 X7.2 Z15.5
 X7.5
 X7.7 Z15.6
 X8.0 Z15.7
 X9.0 Z15.9
 X9.2
 X9.5
 X10.7 Z16.1
 X11.0 Z16.2
 X11.2
 X12.4
 X12.5
 X12.7
 X13.0
 X13.2
 X13.5 Z16.1
 X14.2 Z16.0
 X14.5
 X14.7
 X15.0 Z15.9
 X15.2
 X15.5
 X15.7 Z15.8
 X16.0
 X16.2 Z15.7
 X16.5
 X16.7 Z15.6
 X17.0
 X17.2 Z15.5
 X17.5
 X17.7 Z15.4
 X18.0
 X18.2 Z15.3
 X18.7 Z15.2
 X19.0 Z15.1
 X19.2
 X19.5 Z15.0
 X19.7 Z14.9
 X20.0
 X20.2
 X21.0 Z15.0
 X21.2
 X21.5
 X21.7
 X22.0
 X22.2
 X22.5
 X24.1 Z15.1
 X24.2
 X24.4
 X24.7 Z15.2
 X24.9
 X25.2
 X25.4 Z15.3
 X25.7
 X25.9
 X26.2 Z15.4
 X26.4
 X27.2 Z15.6
 X27.4 Z15.7
 X27.7
 X27.9 Z15.8
 X28.2 Z15.9
 X28.4
 X28.7 Z16.0
 X29.4 Z16.2
 X29.7
 X30.4 Z16.4
 X31.4 Z16.8
 X31.7 Z16.9
 X31.9 Z17.0
 X32.2
 X32.7 Z17.2
 X32.9 Z17.3
 X33.2 Z17.4
 X33.4 Z17.5
 X33.7 Z17.6
 X33.9 Z17.7
 X34.2 Z17.8
 X34.9 Z18.0
 X35.2 Z18.1
 X35.4
 X35.7 Z18.2
 X35.9
 X36.2 Z18.3
 X36.9
 X37.2
 X37.3 Z18.4
 X37.4
 X37.7 Z18.3
 X37.9
 X38.2
 X39.2 Z18.1
 X39.4 Z18.0
 X39.7
 X39.9 Z17.9
 X40.2 Z17.8
 X40.4 Z17.7
 X41.4 Z17.3
 X41.7 Z17.2
 X41.9 Z17.1
 X42.2 Z17.0
 X42.4 Z16.9
 X42.7 Z16.8
 X42.9 Z16.6
 X43.4 Z16.4
 X43.7 Z16.3
 X44.7 Z15.7
 X44.9 Z15.6
 X45.2 Z15.5
 X45.4 Z15.4
 X45.7
 X45.9 Z15.3
 X46.1 Z15.2
 X46.4 Z15.1
 X46.6 Z15.0
 X46.9 Z14.9
 X47.1 Z14.8
 X47.4 Z14.7
 X47.6 Z14.6
 X47.9 Z14.5
 X48.0 Z14.4
 X48.1
 X48.4 Z14.3
 X48.6 Z14.1
 X48.9 Z14.0
 X49.0 Z13.9
 X49.1
 Z13.8
 X49.4 Z13.6
 X49.6 Z13.3
 X49.9 Z13.0
 X50.1 Z12.7
 X50.4 Z12.4
 X50.6 Z12.1
 X50.9 Z11.8
 X51.1 Z11.6
 X51.4 Z11.3
 X51.6 Z11.0
 X51.9 Z10.7
 X52.0 Z10.5
 X52.1 Z10.4
 Z10.3
 X52.4 Z10.1
 X52.6 Z9.8
 X52.9 Z9.6
 X53.1 Z9.3
 X53.4 Z9.1
 X53.6 Z8.9
 X54.1 Z8.5
 X54.4 Z8.3
 X54.7 Z8.0
 X54.9 Z7.9
 X55.1 Z7.8
 X55.4 Z7.7
 X55.9 Z7.6
 X56.1 Z7.5
 X56.4
 X56.6 Z7.4
 X57.9 Z7.2
 X58.1 Z7.1
 X58.4
 X58.6 Z7.0
 X58.9
 X59.1 Z6.9
 X59.4
 X59.6 Z6.8
 X59.9
 X61.6 Z6.4
 X61.9 Z6.3
 X62.4 Z6.2
 X62.6 Z6.1
 X63.9 Z5.8
 X64.1
 X64.4 Z5.7
 X64.6
 X64.9 Z5.6
 X65.1
 X65.4 Z5.5
 X65.6
 X65.9
 X66.1 Z5.4
 X66.4
 X66.6
 X67.4 Z5.3
 X67.6
 X67.9 Z5.2
 X68.1
 X68.6
 X68.8 Z5.1
 X69.6
 X69.8 Z5.0
 X70.1
 X70.3
 X71.8
 X72.1
 X73.1
 X73.3 Z5.1
 X74.3
 X74.6
 X74.8
 X75.1
 X75.3 Z5.2
 X75.6
 X75.8
 X76.3
 X76.6
 X76.8 Z5.3
 X77.1
 X78.3 Z5.4
 X78.6
 X78.8
 X79.1 Z5.5
 X79.8 Z5.6
 X80.1
 X80.3 Z5.7
 X80.4
 X80.6
 X80.8 Z5.8
 X80.9
 X81.1 Z5.9
 X81.3 Z6.0
 X82.3 Z6.5
 X82.6 Z6.6
 X83.3 Z7.1
 X83.6 Z7.4
 X83.8 Z7.6
 X84.1 Z7.9
 X84.3 Z8.1
 X84.6 Z8.4
 X84.8 Z8.7
 X85.1 Z9.0
 X85.8 Z9.8
 X86.1 Z10.1
 X86.3 Z10.3
 X86.8 Z10.8
 X87.1 Z11.1
 X87.3 Z11.3
 X87.8 Z11.7
 X88.1 Z11.9
 X88.3 Z12.1
 X88.9 Z12.5
 X89.0 Z12.6
 X89.1
 X89.2 Z12.7
 X89.3
 X89.6 Z12.8
 X89.7 Z12.9
 X89.8
 X90.1 Z13.0
 X90.3 Z13.1
 X90.6 Z13.2
 X90.8 Z13.3
 X91.3 Z13.4
 X91.5
 X91.8 Z13.5
 X92.0 Z13.6
 X92.3
 X93.0 Z13.8
 X93.3
 X93.5
 X93.8 Z13.9
 X94.5 Z14.0
 X94.8 Z14.1
 X95.3
 X95.5 Z14.2
 X95.8 Z14.3
 X96.0
 X96.3 Z14.4
 X96.5 Z14.5
 X96.8
 X97.0 Z14.6
 X97.2
 X97.3
 X97.5
 X97.8
 X98.0
 X98.2
 X98.3
 X98.4
 X98.5
 X98.6
 Z14.5
 X98.7
 X98.8
 Z14.4
 X98.9 Z14.3
 X99.0 Z14.2
 Z14.0
 X99.1 Z13.7
 Z0.0
 X102.5
 Y5.2
 X99.2
 Z13.8
 Z13.9
 Z14.0
 X99.1 Z14.1
 Z14.2
 Z14.3
 X99.0
 Z14.4
 X98.9 Z14.5
 X98.8 Z14.6
 X98.7
 Z14.7
 X98.6
 X98.5
 X98.4
 Z14.8
 X98.3
 X98.0
 X97.5 Z14.7
 X97.4
 X97.3
 X97.0
 X96.5 Z14.5
 X96.3 Z14.4
 X96.0
 X95.3 Z14.2
 X95.0 Z14.1
 X94.8
 X94.5 Z14.0
 X94.0 Z13.9
 X93.8
 X93.5 Z13.8
 X93.3
 X93.0 Z13.7
 X92.8
 X92.5 Z13.6
 X92.0 Z13.5
 X91.8 Z13.4
 X91.3 Z13.3
 X91.1
 X90.8 Z13.2
 X90.7 Z13.1
 X90.6
 X90.3 Z13.0
 X90.2 Z12.9
 X90.1
 X89.9 Z12.8
 X89.8
 X89.7 Z12.7
 X89.6
 Z12.6
 X89.3 Z12.5
 X89.1 Z12.3
 X88.8 Z12.1
 X88.6 Z11.9
 X88.3 Z11.7
 X87.8 Z11.3
 X87.6 Z11.1
 X87.3 Z10.8
 X86.8 Z10.3
 X86.6 Z10.0
 X86.3 Z9.7
 X86.1 Z9.4
 X85.8 Z9.2
 X85.6 Z8.9
 X85.3 Z8.5
 X85.1 Z8.2
 X85.0 Z8.1
 X84.9
 Z8.0
 X84.8 Z7.9
 X84.6 Z7.6
 X84.3 Z7.3
 X84.1 Z7.1
 X83.8 Z6.8
 X83.6 Z6.6
 X83.2 Z6.4
 X83.1 Z6.3
 X82.3 Z6.0
 X82.1 Z5.9
 X81.8 Z5.8
 X81.6 Z5.7
 X81.3 Z5.6
 X81.1
 X80.3 Z5.5
 X80.1
 X79.8 Z5.4
 X79.6
 X79.3
 X79.1
 X78.8
 X78.6
 X78.3 Z5.3
 X78.1
 X77.8
 X77.6
 X77.3
 X76.1 Z5.2
 X75.8
 X75.1 Z5.1
 X74.8
 X72.8 Z5.0
 X72.6
 X72.3
 X72.1
 X71.8
 X71.6
 X69.8
 X69.6 Z5.1
 X69.3
 X69.1
 X68.1 Z5.2
 X67.9 Z5.3
 X67.6
 X67.4
 X66.9
 X66.6 Z5.4
 X66.4
 X66.1
 X65.4 Z5.5
 X65.1 Z5.6
 X64.9
 X64.6 Z5.7
 X64.4
 X64.1 Z5.8
 X63.9
 X63.4 Z5.9
 X63.1 Z6.0
 X62.6 Z6.1
 X62.4 Z6.2
 X62.1
 X61.6 Z6.4
 X61.4
 X59.6 Z6.8
 X59.4 Z6.9
 X58.6 Z7.1
 X58.4
 X58.1 Z7.2
 X57.1 Z7.3
 X56.9 Z7.4
 X56.4
 X56.1 Z7.5
 X55.4 Z7.7
 X55.1
 X54.9 Z7.8
 X54.1 Z8.0
 X53.9 Z8.1
 X53.8
 X53.6 Z8.2
 X53.4 Z8.4
 X53.1 Z8.6
 X52.9 Z8.8
 X52.1 Z9.4
 X51.9 Z9.6
 X51.6 Z9.9
 X51.5 Z10.0
 X51.4 Z10.2
 X51.1 Z10.5
 X50.9 Z10.9
 X50.6 Z11.2
 X50.4 Z11.5
 X50.1 Z11.9
 X49.9 Z12.2
 X49.6 Z12.6
 X49.4 Z12.9
 X49.1 Z13.2
 X48.9 Z13.5
 X48.8 Z13.7
 X48.7
 Z13.8
 X48.6
 X48.4 Z14.0
 X48.1 Z14.1
 X47.9 Z14.3
 X47.6 Z14.4
 X47.4 Z14.6
 X47.1 Z14.7
 X46.9 Z14.8
 X46.6 Z14.9
 X46.4 Z15.0
 X46.1 Z15.1
 X45.9 Z15.2
 X44.9 Z15.6
 X44.7 Z15.7
 X44.4 Z15.9
 X44.2 Z16.0
 X43.4 Z16.4
 X43.2 Z16.5
 X42.2 Z17.0
 X41.9 Z17.1
 X41.7 Z17.3
 X41.4 Z17.4
 X41.2 Z17.5
 X40.9 Z17.6
 X40.7 Z17.7
 X40.2 Z17.9
 X39.9 Z18.0
 X39.7 Z18.1
 X39.4
 X39.2 Z18.2
 X38.9
 X38.7
 X38.4 Z18.3
 X38.2
 X37.9
 X37.5 Z18.4
 X37.4
 X37.2
 X36.9
 X36.7
 X36.4 Z18.3
 X36.2
 X35.9
 X35.4 Z18.2
 X35.2 Z18.1
 X34.9 Z18.0
 X34.7 Z17.9
 X34.4 Z17.8
 X34.2
 X33.9 Z17.7
 X33.2 Z17.4
 X32.9 Z17.3
 X32.4 Z17.1
 X32.2 Z17.0
 X31.9 Z16.9
 X31.7 Z16.8
 X31.4
 X31.2 Z16.7
 X30.9 Z16.6
 X30.7 Z16.5
 X30.4 Z16.4
 X30.2 Z16.3
 X29.4 Z16.2
 X29.2 Z16.1
 X27.9 Z15.8
 X27.7 Z15.7
 X27.4
 X27.2 Z15.6
 X26.9 Z15.5
 X25.7 Z15.3
 X25.4
 X24.3 Z15.1
 X24.2
 X23.9
 X23.7
 X22.7
 X22.5
 X22.2
 X22.0 Z15.0
 X21.7
 X21.5
 X20.1 Z14.9
 X20.0
 X19.7 Z15.0
 X19.5
 X19.2 Z15.1
 X19.0 Z15.2
 X18.7
 X18.5 Z15.3
 X18.0 Z15.4
 X17.7 Z15.5
 X17.5
 X16.2 Z15.7
 X16.0 Z15.8
 X15.7 Z15.9
 X15.5
 X15.2 Z16.0
 X15.0
 X14.7 Z16.1
 X14.5
 X14.2
 X14.0 Z16.2
 X13.7
 X12.7 Z16.4
 X12.6
 X12.5
 X12.2
 X12.0 Z16.3
 X11.7
 X11.5
 X11.2
 X11.0
 X10.7
 X10.5 Z16.2
 X10.2
 X10.0
 X9.5 Z16.1
 X9.2
 X9.0 Z16.0
 X7.7 Z15.8
 X7.5 Z15.7
 X7.2 Z15.6
 X5.7 Z15.3
 X5.5
 X5.2 Z15.2
 X5.0
 X4.7 Z15.1
 X4.5
 X4.2 Z15.0
 X4.0
 X3.7 Z14.9
 X3.6
 Z14.8
 X3.5
 X3.4
 Z14.7
 X3.2
 X3.0 Z14.5
 X2.9 Z14.4
 X2.8 Z14.3
 X2.7 Z14.2
 X2.5 Z13.9
 X2.2 Z13.5
 X2.0 Z13.1
 X1.7 Z12.6
 X1.6 Z12.3
 Z12.2
 X1.5 Z12.0
 Z11.9
 Z11.8
 Z0.0
 X1.0
 Y5.4
 X1.5
 Z12.0
 X1.7 Z12.6
 X1.9 Z12.9
 Z13.1
 X2.0 Z13.2
 X2.2 Z13.6
 X2.4 Z13.8
 X2.5 Z14.0
 X2.6 Z14.1
 Z14.2
 X2.7 Z14.3
 X3.0 Z14.6
 X3.1 Z14.7
 X3.2
 Z14.8
 X3.3
 Z14.9
 X3.4
 X3.5
 X3.7 Z15.0
 X4.0 Z15.1
 X4.2
 X4.5 Z15.2
 X5.2 Z15.3
 X5.5 Z15.4
 X5.7 Z15.5
 X6.0
 X6.2 Z15.6
 X6.5
 X6.7 Z15.7
 X7.0 Z15.8
 X7.2
 X7.5 Z15.9
 X7.7
 X8.0 Z16.0
 X8.2
 X9.0 Z16.2
 X9.2
 X9.5 Z16.3
 X9.7
 X10.0
 X10.2
 X10.7 Z16.4
 X11.0
 X12.0
 X12.2 Z16.5
 X12.3
 X12.5
 X12.7 Z16.4
 X13.0
 X13.2
 X13.5
 X13.7 Z16.3
 X14.0
 X14.2 Z16.2
 X14.5
 X15.2 Z16.0
 X15.5
 X16.2 Z15.8
 X16.5 Z15.7
 X17.0 Z15.6
 X17.2
 X18.0 Z15.4
 X18.2
 X18.5 Z15.3
 X18.7
 X19.1 Z15.1
 X19.2
 X19.3
 X19.4 Z15.0
 X19.5
 X19.7
 X20.0 Z14.9
 X20.1
 X20.2
 X20.5
 X20.7
 X21.0
 X21.2 Z15.0
 X21.5
 X21.7
 X22.0 Z15.1
 X22.2
 X22.5
 X22.7
 X23.2
 X23.5
 X23.7
 X24.2
 X24.3
 X24.4
 X24.7
 X25.2 Z15.2
 X25.4
 X26.2 Z15.4
 X26.4 Z15.5
 X26.7
 X26.9
 X27.2 Z15.6
 X27.4 Z15.7
 X28.7 Z16.0
 X28.9
 X29.7 Z16.2
 X29.9 Z16.3
 X30.2
 X30.4 Z16.4
 X30.7 Z16.5
 X30.9
 X31.2 Z16.6
 X31.4 Z16.7
 X31.7 Z16.8
 X31.9 Z16.9
 X32.2 Z17.0
 X32.4
 X32.7 Z17.1
 X32.9 Z17.2
 X33.2 Z17.3
 X33.4 Z17.4
 X33.7 Z17.5
 X33.9 Z17.6
 X34.2 Z17.7
 X34.7 Z17.9
 X34.9 Z18.0
 X35.0 Z18.1
 X35.2
 X35.4 Z18.2
 X35.7
 X35.9 Z18.3
 X36.2
 X36.3 Z18.4
 X36.4
 X36.7
 X37.4
 X37.7
 X38.7 Z18.3
 X38.9 Z18.2
 X39.2
 X39.3
 X39.4
 X39.5
 X39.7 Z18.1
 X39.9 Z18.0
 X40.2 Z17.9
 X40.4 Z17.8
 X41.2 Z17.5
 X41.4 Z17.4
 X41.7 Z17.2
 X41.9 Z17.1
 X42.7 Z16.7
 X42.9 Z16.6
 X43.4 Z16.3
 X43.7 Z16.2
 X43.9 Z16.1
 X44.2 Z15.9
 X44.4 Z15.8
 X44.7 Z15.7
 X44.8 Z15.6
 Z15.5
 X44.9
 X45.4 Z15.3
 X45.7 Z15.2
 X45.9 Z15.1
 X46.1 Z15.0
 X46.3 Z14.9
 X46.4 Z14.8
 X46.6
 X46.9 Z14.6
 X47.1 Z14.5
 X47.3
 Z14.4
 X47.4
 X47.6 Z14.2
 X47.9 Z14.0
 X48.0
 Z13.9
 X48.1
 Z13.8
 X48.3 Z13.6
 Z13.5
 X48.4 Z13.4
 X48.6 Z13.2
 Z13.1
 X48.8 Z12.9
 X48.9 Z12.7
 X49.0 Z12.5
 X49.1 Z12.4
 X49.4 Z11.9
 X49.6 Z11.4
 X49.9 Z11.1
 X50.1 Z10.7
 X50.3 Z10.6
 Z10.5
 X50.4 Z10.4
 X50.6 Z10.2
 X50.8 Z10.0
 X50.9
 X51.0 Z9.9
 X51.1 Z9.8
 Z9.7
 X51.3 Z9.5
 Z9.4
 X51.4
 Z9.3
 X51.6 Z9.1
 X51.9 Z8.9
 X52.1 Z8.7
 X52.6 Z8.4
 X52.9 Z8.3
 X53.6 Z8.1
 X53.9 Z8.0
 X54.1
 X54.4 Z7.9
 X55.6 Z7.6
 X55.9
 X56.1 Z7.5
 X56.4
 X56.6 Z7.4
 X57.6 Z7.3
 X57.9 Z7.2
 X58.1
 X59.6 Z6.8
 X59.9
 X61.4 Z6.4
 X61.6
 X61.9 Z6.3
 X62.4 Z6.2
 X62.6 Z6.1
 X63.6 Z5.9
 X63.9 Z5.8
 X64.1
 X64.6 Z5.7
 X64.9 Z5.6
 X65.1
 X65.4 Z5.5
 X65.6
 X66.1
 X66.4 Z5.4
 X67.1 Z5.3
 X67.4
 X67.6
 X67.9
 X69.3 Z5.1
 X69.6
 X69.8 Z5.0
 X70.8
 X71.1
 X72.1
 X72.3
 X72.6
 X73.8 Z5.1
 X74.1
 X75.6
 X75.8
 X77.3 Z5.2
 X77.6
 X77.8 Z5.3
 X78.1
 X78.8
 X79.1
 X80.1 Z5.4
 X80.3
 X80.6 Z5.5
 X80.8
 X81.8 Z5.6
 X82.1
 X82.3 Z5.7
 X82.8
 Z5.8
 X83.7 Z6.1
 X83.8
 X83.9 Z6.2
 X84.1 Z6.3
 X84.3 Z6.4
 X84.5 Z6.5
 Z6.6
 X84.6
 X84.8 Z6.9
 X85.1 Z7.2
 X85.3 Z7.4
 X85.8 Z8.3
 X86.1 Z8.6
 X86.3 Z9.0
 X86.6 Z9.3
 X86.8 Z9.7
 X87.1 Z10.0
 X87.3 Z10.3
 X87.6 Z10.6
 X87.8 Z10.8
 X88.1 Z11.1
 X88.2 Z11.2
 X88.3 Z11.3
 X88.6 Z11.5
 X88.8 Z11.7
 X89.1 Z11.9
 X89.3 Z12.1
 X89.6 Z12.3
 X89.8 Z12.5
 X89.9 Z12.6
 X90.1 Z12.7
 X90.3 Z12.8
 X90.6 Z12.9
 X90.8 Z13.0
 X91.1 Z13.1
 X91.3 Z13.2
 X91.5 Z13.3
 X91.8 Z13.4
 X92.0
 X92.3 Z13.5
 X93.3 Z13.7
 X93.5 Z13.8
 X93.8 Z13.9
 X94.0
 X94.3 Z14.0
 X94.5 Z14.1
 X94.8
 X95.0 Z14.2
 X95.3
 X95.5 Z14.3
 X95.8 Z14.4
 X96.0
 X96.3 Z14.5
 X96.5 Z14.6
 X96.8 Z14.7
 X97.0
 X97.2 Z14.8
 X97.3
 X97.4
 X97.5
 X97.8
 X98.0
 X98.2
 X98.3
 X98.4
 X98.5
 X98.6
 X98.7
 Z14.7
 X98.8
 X98.9 Z14.6
 X99.0 Z14.5
 X99.1 Z14.4
 Z14.3
 X99.2
 Z14.1
 Z14.0
 Z0.0
 X102.5
 Y5.6
 X99.3
 X99.2 Z14.2
 Z14.3
 Z14.4
 X99.1
 Z14.5
 X99.0
 Z14.6
 X98.9
 Z14.7
 X98.8
 X98.7 Z14.8
 X98.6
 X98.5
 Z14.9
 X98.4
 X98.3
 X98.0
 X97.8
 X97.7
 X97.6
 X97.5
 X97.4
 X97.3
 X97.0 Z14.8
 X96.8 Z14.7
 X96.5 Z14.6
 X96.3 Z14.5
 X96.0 Z14.4
 X95.0 Z14.2
 X94.8 Z14.1
 X94.5 Z14.0
 X93.8 Z13.8
 X93.5
 X93.3 Z13.7
 X92.5 Z13.5
 X92.3 Z13.4
 X92.0
 X91.8 Z13.3
 X91.5 Z13.2
 X91.4
 X91.3 Z13.1
 X91.1 Z13.0
 X90.8 Z12.9
 X90.7 Z12.8
 X90.6
 Z12.7
 X90.5
 X90.4
 X90.3 Z12.6
 X90.1 Z12.4
 X89.3 Z11.7
 X89.1 Z11.5
 X88.9 Z11.4
 X88.8 Z11.3
 X88.6 Z11.1
 X88.3 Z10.8
 X88.1 Z10.5
 X87.8 Z10.2
 X87.2 Z9.4
 X87.1 Z9.2
 X86.8 Z8.7
 X86.6 Z8.2
 X86.0 Z7.4
 Z7.3
 Z7.2
 X85.9 Z7.1
 X85.5 Z6.6
 X85.4 Z6.5
 X85.2 Z6.3
 X85.0 Z6.2
 X84.9
 X84.3 Z5.9
 X84.1 Z5.8
 X83.9
 X83.8
 X83.6 Z5.7
 X83.3
 X82.6 Z5.6
 X82.3
 X82.1
 X81.8
 X81.6 Z5.5
 X80.8 Z5.4
 X80.6
 X80.3
 X80.1
 X79.8
 X78.6 Z5.3
 X78.3
 X77.3 Z5.2
 X77.1
 X76.3
 X76.1 Z5.1
 X72.8 Z5.0
 X72.6
 X72.3
 X72.1
 X71.3
 X71.1
 X70.1 Z5.1
 X69.8
 X69.6
 X69.3
 X67.9 Z5.3
 X67.6
 X67.4
 X66.4 Z5.4
 X66.1 Z5.5
 X65.9
 X65.4 Z5.6
 X65.1
 X64.9
 X64.6 Z5.7
 X64.4
 X64.1 Z5.8
 X63.9
 X63.4 Z5.9
 X63.1 Z6.0
 X62.6 Z6.1
 X62.4 Z6.2
 X60.9 Z6.5
 X60.6 Z6.6
 X60.4 Z6.7
 X60.1
 X59.9 Z6.8
 X57.6 Z7.3
 X57.4
 X57.1 Z7.4
 X56.9
 X55.9 Z7.6
 X55.6
 X55.1 Z7.7
 X54.9 Z7.8
 X54.4 Z7.9
 X54.1 Z8.0
 X53.4 Z8.1
 X53.1 Z8.2
 X52.7 Z8.3
 X52.6
 X52.1 Z8.5
 X51.9 Z8.6
 X51.8
 X51.6 Z8.7
 X51.4 Z9.1
 X51.3 Z9.2
 Z9.3
 X51.2 Z9.4
 Z9.5
 X51.1
 Z9.6
 X51.0
 Z9.7
 X50.9
 X50.6 Z9.9
 X50.4 Z10.0
 X50.3 Z10.1
 X50.2
 X50.1
 X50.0
 X49.9
 X49.8
 X49.7
 X49.6 Z10.2
 X49.4 Z10.6
 X49.0 Z11.2
 Z11.3
 X48.9 Z11.4
 X48.6 Z11.9
 X48.4 Z12.5
 X48.3 Z12.7
 X48.1 Z13.0
 X47.9 Z13.3
 X47.8 Z13.5
 X47.6 Z13.7
 X47.4 Z14.0
 X47.3 Z14.1
 X47.2 Z14.2
 X47.1 Z14.3
 X47.0 Z14.4
 X46.9 Z14.5
 X46.6 Z14.6
 X46.4 Z14.7
 X46.3 Z14.8
 X46.2
 X46.1
 X45.9 Z15.0
 X45.7 Z15.1
 X45.4 Z15.3
 X45.2 Z15.4
 X44.9 Z15.5
 X44.7 Z15.6
 X44.4 Z15.7
 X44.2 Z15.9
 X43.4 Z16.3
 X43.2 Z16.4
 X42.9 Z16.6
 X42.7 Z16.7
 X42.4 Z16.8
 X42.2 Z17.0
 X41.4 Z17.4
 X41.2 Z17.5
 X40.9 Z17.6
 X39.7 Z18.1
 X39.6 Z18.2
 X39.5
 X39.4
 X39.2
 X38.9 Z18.3
 X37.5 Z18.4
 X37.4
 X37.2
 X36.9
 X36.7
 X36.5
 X36.4
 X36.2 Z18.3
 X35.9
 X35.7 Z18.2
 X35.4 Z18.1
 X35.3
 X35.2
 X34.9 Z18.0
 X34.7 Z17.9
 X33.7 Z17.5
 X33.4 Z17.4
 X33.2 Z17.3
 X32.9 Z17.2
 X32.7 Z17.1
 X32.2 Z16.9
 X31.9 Z16.8
 X31.4 Z16.6
 X31.2 Z16.5
 X30.7 Z16.4
 X30.4 Z16.3
 X30.2
 X29.9 Z16.2
