;PYCAM-META-DATA: Filename: V:\Portable\Documents\Fraesen2023\sylvester\VenusCenteredscaled10Unrolledat7simplified.stl
;PYCAM-META-DATA: Timestamp: 2025-12-10 20:17:37.125000
;PYCAM-META-DATA: Version: 0.5.1.1
;Estimated machine time: 1 minutes
G40 (disable tool radius compensation)
G49 (disable tool length compensation)
G80 (cancel modal motion)
G54 (select coordinate system 1)
G90 (disable incremental moves)
G21 (metric)
G61 (exact path mode)
F3000.00000
S3000.00000
;PYCAM_TOOLPATH_SETTINGS: START
;[Bounds]
;maxz = 16.60153
;maxx = -0.99001507
;maxy = 20.05075
;minx = -42.96596
;miny = -20.0515
;minz = 0.9334836
;
;[Tool]
;torus_radius = 0.25
;speed = 3000.0
;shape = SphericalCutter
;tool_radius = 1.0
;feedrate = 3000.0
;
;[Process]
;generator = DropCutter
;pocketing_type = none
;engrave_offset = 0.0
;milling_style = ignore
;path_direction = x
;step_down = 3.0
;postprocessor = PathAccumulator
;overlap_percent = 60
;material_allowance = 0.0
;
;PYCAM_TOOLPATH_SETTINGS: END
T1 M6
G0 Z25.00
M3 (start spindle)
G04 P3 (wait for 3 seconds)
 X-42.97 Y-20.05
G1 Z9.81
 X-42.72 Z9.89
 X-42.47 Z9.97
 X-42.22 Z10.05
 X-41.97 Z10.15
 X-41.72 Z10.25
 X-41.47 Z10.37
 X-41.34 Z10.43
 X-41.28 Z10.46
 X-41.25 Z10.47
 X-41.23 Z10.48
 X-41.22 Z10.49
 X-40.97 Z10.57
 X-40.72 Z10.64
 X-40.59 Z10.67
 X-40.47 Z10.70
 X-40.22 Z10.74
 X-39.97 Z10.76
 X-39.72 Z10.77
 X-39.47 Z10.78
 X-39.22 Z10.77
 X-38.97 Z10.76
 X-38.72 Z10.72
 X-38.47 Z10.68
 X-38.22 Z10.63
 X-37.97 Z10.58
 X-37.72 Z10.52
 X-37.47 Z10.46
 X-37.22 Z10.40
 X-36.97 Z10.32
 X-36.72 Z10.24
 X-36.47 Z10.16
 X-36.22 Z10.08
 X-35.97 Z10.01
 X-35.72 Z9.93
 X-35.60 Z9.89
 X-35.53 Z9.88
 X-35.50 Z9.87
 X-35.44 Z9.86
 X-35.35
 X-35.22 Z9.88
 X-34.97 Z9.93
 X-34.85 Z9.96
 X-34.72 Z10.00
 X-34.60 Z10.04
 X-34.53 Z10.06
 X-34.47 Z10.09
 X-34.22 Z10.21
 X-33.97 Z10.37
 X-33.72 Z10.53
 X-33.47 Z10.70
 X-33.22 Z10.88
 X-32.97 Z11.06
 X-32.72 Z11.27
 X-32.47 Z11.47
 X-32.22 Z11.69
 X-31.97 Z11.93
 X-31.72 Z12.17
 X-31.47 Z12.39
 X-31.22 Z12.61
 X-30.97 Z12.83
 X-30.72 Z13.05
 X-30.47 Z13.26
 X-30.22 Z13.45
 X-29.97 Z13.62
 X-29.85 Z13.69
 X-29.72 Z13.76
 X-29.60 Z13.82
 X-29.54 Z13.85
 X-29.47 Z13.88
 X-29.35 Z13.92
 X-29.22 Z13.95
 X-29.10 Z13.98
 X-29.04 Z13.99
 X-28.97 Z14.00
 X-28.85 Z14.01
 X-28.79
 X-28.72
 X-28.47 Z14.00
 X-28.22 Z13.98
 X-27.97 Z13.95
 X-27.85 Z13.94
 X-27.72 Z13.91
 X-27.47 Z13.84
 X-27.22 Z13.76
 X-26.98 Z13.68
 X-26.73 Z13.59
 X-26.48 Z13.49
 X-26.23 Z13.40
 X-25.98 Z13.31
 X-25.73 Z13.22
 X-25.48 Z13.15
 X-25.23 Z13.09
 X-24.98 Z13.03
 X-24.73 Z12.98
 X-24.60 Z12.95
 X-24.48 Z12.93
 X-24.23 Z12.90
 X-24.10 Z12.88
 X-23.98
 X-23.73
 X-23.48 Z12.90
 X-23.23 Z12.94
 X-22.98 Z12.97
 X-22.73 Z13.02
 X-22.48 Z13.09
 X-22.23 Z13.14
 X-21.98 Z13.19
 X-21.73 Z13.23
 X-21.48 Z13.26
 X-21.23 Z13.29
 X-20.98 Z13.31
 X-20.73 Z13.32
 X-20.48 Z13.33
 X-20.23
 X-20.10 Z13.32
 X-20.04
 X-20.01 Z13.31
 X-19.98
 X-19.85 Z13.27
 X-19.76 Z13.25
 X-19.73 Z13.24
 X-19.67 Z13.22
 X-19.64 Z13.20
 X-19.60 Z13.19
 X-19.54 Z13.16
 X-19.51 Z13.14
 X-19.50 Z13.13
 X-19.48 Z13.12
 X-19.42 Z13.08
 X-19.39 Z13.05
 X-19.35 Z13.03
 X-19.32 Z13.00
 X-19.29 Z12.97
 X-19.26 Z12.93
 X-19.23 Z12.89
 X-19.10 Z12.68
 X-19.07 Z12.60
 Z12.58
 X-19.06 Z12.57
 Z12.56
 Z12.55
 X-19.04 Z12.54
 X-19.01 Z12.50
 X-18.98 Z12.47
 X-18.92 Z12.43
 X-18.89 Z12.41
 X-18.85 Z12.38
 X-18.79 Z12.33
 X-18.76 Z12.30
 X-18.73 Z12.27
 X-18.48 Z11.93
 X-18.23 Z11.58
 X-17.98 Z11.23
 X-17.73 Z10.90
 X-17.48 Z10.62
 X-17.23 Z10.36
 X-16.98 Z10.11
 X-16.73 Z9.86
 X-16.48 Z9.61
 X-15.98 Z9.15
 X-15.73 Z8.90
 X-15.61 Z8.78
 X-15.48 Z8.66
 X-15.23 Z8.46
 X-14.98 Z8.24
 X-14.73 Z7.99
 X-14.48 Z7.71
 X-14.23 Z7.45
 X-13.98 Z7.19
 X-13.73 Z6.96
 X-13.48 Z6.75
 X-13.36 Z6.65
 X-13.23 Z6.57
 X-13.07 Z6.46
 X-13.06
 X-12.91 Z6.38
 X-12.89
 X-12.78 Z6.35
 X-12.76
 X-12.70
 X-12.67
 X-12.55 Z6.37
 X-12.48 Z6.38
 X-12.36 Z6.42
 X-12.23 Z6.47
 X-11.98 Z6.59
 X-11.73 Z6.72
 X-11.48 Z6.88
 X-11.23 Z7.06
 X-10.98 Z7.24
 X-10.73 Z7.43
 X-10.48 Z7.65
 X-10.23 Z7.88
 X-9.98 Z8.14
 X-9.74 Z8.38
 X-9.49 Z8.64
 X-9.24 Z8.92
 X-8.99 Z9.25
 X-8.74 Z9.61
 X-8.49 Z10.02
 X-8.24 Z10.43
 X-7.99 Z10.85
 X-7.74 Z11.27
 X-7.61 Z11.45
 X-7.55 Z11.53
 X-7.49 Z11.61
 X-7.42 Z11.69
 X-7.39 Z11.73
 X-7.36 Z11.76
 X-7.24 Z11.87
 X-7.11 Z11.97
 X-7.05 Z12.02
 X-7.02 Z12.04
 X-7.00 Z12.05
 X-6.99 Z12.06
 X-6.92 Z12.10
 X-6.89 Z12.11
 X-6.86 Z12.13
 X-6.80 Z12.15
 X-6.74 Z12.17
 X-6.61 Z12.21
 X-6.55 Z12.22
 X-6.52 Z12.23
 X-6.49 Z12.24
 X-6.42 Z12.25
 X-6.36
 X-6.24
 X-6.11 Z12.24
 X-6.05
 X-5.99 Z12.23
 X-5.74 Z12.17
 X-5.49 Z12.09
 X-5.24 Z12.01
 X-4.99 Z11.94
 X-4.74 Z11.85
 X-4.49 Z11.76
 X-4.24 Z11.67
 X-4.11 Z11.63
 X-3.99 Z11.58
 X-3.74 Z11.45
 X-3.49 Z11.32
 X-3.24 Z11.18
 X-2.99 Z11.03
 X-2.74 Z10.85
 X-2.49 Z10.66
 X-2.24 Z10.47
 X-1.99 Z10.29
 X-1.74 Z10.12
 X-1.61 Z10.04
 X-1.49 Z9.98
 X-1.24 Z9.88
 X-0.99 Z9.80
G0 Z25.00
 Y-19.27
G1 Z10.39
 X-1.24 Z10.49
 X-1.49 Z10.63
 X-1.74 Z10.78
 X-1.99 Z10.93
 X-2.24 Z11.08
 X-2.49 Z11.22
 X-2.74 Z11.33
 X-2.99 Z11.45
 X-3.24 Z11.54
 X-3.36 Z11.58
 X-3.43 Z11.60
 X-3.49 Z11.61
 X-3.74 Z11.66
 X-3.99 Z11.70
 X-4.24 Z11.75
 X-4.49 Z11.79
 X-4.74 Z11.84
 X-4.99 Z11.90
 X-5.24 Z11.95
 X-5.49 Z11.99
 X-5.74 Z12.01
 X-5.86 Z12.02
 X-5.92
 X-5.96 Z12.03
 X-5.99
 X-6.05 Z12.02
 X-6.11
 X-6.24 Z11.99
 X-6.36 Z11.96
 X-6.46 Z11.94
 X-6.49 Z11.93
 X-6.55 Z11.91
 X-6.61 Z11.89
 X-6.67 Z11.87
 X-6.71 Z11.85
 X-6.72 Z11.84
 X-6.74
 X-6.80 Z11.80
 X-6.83 Z11.78
 X-6.85 Z11.77
 X-6.86 Z11.76
 X-6.89 Z11.73
 X-6.92 Z11.71
 X-6.99 Z11.65
 X-7.11 Z11.50
 X-7.17 Z11.43
 X-7.24 Z11.36
 X-7.49 Z10.98
 X-7.74 Z10.56
 X-7.99 Z10.14
 X-8.24 Z9.72
 X-8.49 Z9.31
 X-8.74 Z8.94
 X-8.99 Z8.61
 X-9.24 Z8.32
 X-9.49 Z8.06
 X-9.74 Z7.82
 X-9.98 Z7.57
 X-10.23 Z7.33
 X-10.48 Z7.13
 X-10.73 Z6.93
 X-10.98 Z6.75
 X-11.23 Z6.57
 X-11.48 Z6.41
 X-11.73 Z6.28
 X-11.86 Z6.20
 X-11.98 Z6.15
 X-12.11 Z6.10
 X-12.23 Z6.05
 X-12.42 Z6.00
 X-12.48 Z5.99
 X-12.66 Z5.96
 X-12.67
 X-12.70
 X-12.80 Z5.97
 X-12.86 Z5.98
 X-12.92 Z5.99
 X-12.95 Z6.00
 X-12.98 Z6.01
 X-13.11 Z6.06
 X-13.23 Z6.12
 X-13.48 Z6.28
 X-13.73 Z6.47
 X-13.98 Z6.68
 X-14.23 Z6.92
 X-14.48 Z7.18
 X-14.73 Z7.45
 X-14.98 Z7.73
 X-15.23 Z7.98
 X-15.48 Z8.20
 X-15.73 Z8.41
 X-15.98 Z8.66
 X-16.23 Z8.91
 X-16.48 Z9.15
 X-16.73 Z9.38
 X-16.98 Z9.64
 X-17.23 Z9.89
 X-17.48 Z10.14
 X-17.73 Z10.40
 X-17.98 Z10.70
 X-18.23 Z11.03
 X-18.48 Z11.39
 X-18.73 Z11.73
 X-18.98 Z12.08
 X-19.23 Z12.44
 X-19.35 Z12.61
 X-19.39 Z12.66
 X-19.42 Z12.70
 X-19.45 Z12.74
 X-19.46 Z12.76
 X-19.47 Z12.77
 X-19.48
 X-19.54 Z12.83
 X-19.57 Z12.86
 X-19.60 Z12.88
 X-19.67 Z12.92
 X-19.73 Z12.95
 X-19.85 Z13.01
 X-19.92 Z13.04
 X-19.95 Z13.05
 X-19.98 Z13.06
 X-20.04 Z13.08
 X-20.10 Z13.09
 X-20.23 Z13.12
 X-20.48 Z13.14
 X-20.73 Z13.16
 X-20.98 Z13.17
 X-21.23
 X-21.48 Z13.18
 X-21.73 Z13.19
 X-21.98 Z13.18
 X-22.23
 X-22.48 Z13.17
 X-22.73
 X-22.98 Z13.16
 X-23.23
 X-23.48 Z13.17
 X-23.73 Z13.18
 X-23.85 Z13.19
 X-23.98 Z13.20
 X-24.23 Z13.25
 X-24.48 Z13.31
 X-24.73 Z13.40
 X-24.98 Z13.48
 X-25.23 Z13.57
 X-25.48 Z13.67
 X-25.60 Z13.71
 X-25.66 Z13.74
 X-25.73 Z13.76
 X-25.98 Z13.88
 X-26.23 Z14.02
 X-26.48 Z14.14
 X-26.73 Z14.26
 X-26.85 Z14.31
 X-26.91 Z14.33
 X-26.98 Z14.36
 X-27.22 Z14.42
 X-27.47 Z14.50
 X-27.60 Z14.54
 X-27.72 Z14.57
 X-27.97 Z14.62
 X-28.22 Z14.66
 X-28.47 Z14.69
 X-28.60 Z14.70
 X-28.72 Z14.71
 X-28.85
 X-28.97 Z14.70
 X-29.10 Z14.69
 X-29.22 Z14.67
 X-29.35 Z14.65
 X-29.47 Z14.61
 X-29.72 Z14.52
 X-29.97 Z14.41
 X-30.22 Z14.27
 X-30.47 Z14.11
 X-30.72 Z13.92
 X-30.97 Z13.71
 X-31.22 Z13.50
 X-31.47 Z13.29
 X-31.72 Z13.06
 X-31.97 Z12.84
 X-32.22 Z12.62
 X-32.47 Z12.40
 X-32.72 Z12.19
 X-32.97 Z12.00
 X-33.22 Z11.82
 X-33.47 Z11.64
 X-33.72 Z11.48
 X-33.97 Z11.32
 X-34.22 Z11.17
 X-34.35 Z11.09
 X-34.41 Z11.06
 X-34.47 Z11.03
 X-34.60 Z10.98
 X-34.72 Z10.93
 X-34.97 Z10.86
 X-35.10 Z10.83
 X-35.28 Z10.78
 X-35.31
 X-35.33 Z10.77
 X-35.38
 X-35.41
 X-35.47 Z10.79
 X-35.72 Z10.85
 X-35.97 Z10.91
 X-36.22 Z10.98
 X-36.47 Z11.04
 X-36.72 Z11.11
 X-36.97 Z11.16
 X-37.22 Z11.21
 X-37.47 Z11.26
 X-37.72 Z11.31
 X-37.97 Z11.37
 X-38.22 Z11.42
 X-38.47 Z11.47
 X-38.72 Z11.51
 X-38.97 Z11.55
 X-39.22 Z11.56
 X-39.47 Z11.57
 X-39.72 Z11.56
 X-39.97 Z11.54
 X-40.22 Z11.51
 X-40.47 Z11.45
 X-40.72 Z11.39
 X-40.97 Z11.31
 X-41.22 Z11.22
 X-41.47 Z11.11
 X-41.72 Z11.00
 X-41.97 Z10.88
 X-42.22 Z10.78
 X-42.47 Z10.67
 X-42.72 Z10.57
 X-42.97 Z10.47
G0 Z25.00
 Y-18.48
G1 Z11.20
 X-42.72 Z11.31
 X-42.47 Z11.43
 X-42.22 Z11.55
 X-41.97 Z11.67
 X-41.72 Z11.78
 X-41.47 Z11.89
 X-41.22 Z11.99
 X-40.97 Z12.07
 X-40.72 Z12.15
 X-40.47 Z12.21
 X-40.22 Z12.26
 X-39.97 Z12.29
 X-39.72 Z12.31
 X-39.47
 X-39.22
 X-38.97 Z12.30
 X-38.72 Z12.27
 X-38.47 Z12.24
 X-38.22 Z12.20
 X-37.97 Z12.14
 X-37.72 Z12.08
 X-37.47 Z12.03
 X-37.22 Z11.99
 X-36.97 Z11.97
 X-36.72 Z11.94
 X-36.47 Z11.90
 X-36.22 Z11.86
 X-35.97 Z11.82
 X-35.72 Z11.78
 X-35.47 Z11.73
 X-35.41 Z11.71
 X-35.38 Z11.70
 X-35.36 Z11.69
 X-35.35
 X-35.32 Z11.68
 X-35.31
 X-35.30 Z11.69
 X-35.28
 X-35.22 Z11.70
 X-34.97 Z11.74
 X-34.85 Z11.77
 X-34.72 Z11.80
 X-34.60 Z11.84
 X-34.47 Z11.89
 X-34.22 Z12.00
 X-33.97 Z12.14
 X-33.72 Z12.28
 X-33.47 Z12.42
 X-33.22 Z12.59
 X-32.97 Z12.77
 X-32.72 Z12.98
 X-32.47 Z13.19
 X-32.22 Z13.40
 X-31.97 Z13.61
 X-31.72 Z13.83
 X-31.47 Z14.05
 X-31.22 Z14.26
 X-30.97 Z14.47
 X-30.72 Z14.65
 X-30.47 Z14.81
 X-30.22 Z14.95
 X-29.97 Z15.06
 X-29.72 Z15.15
 X-29.60 Z15.20
 X-29.54 Z15.22
 X-29.47 Z15.24
 X-29.22 Z15.29
 X-29.10 Z15.31
 X-28.97 Z15.32
 X-28.85
 X-28.72
 X-28.47 Z15.30
 X-28.22 Z15.26
 X-27.97 Z15.22
 X-27.85 Z15.19
 X-27.72 Z15.16
 X-27.47 Z15.08
 X-27.22 Z15.03
 X-27.16 Z15.01
 X-27.13
 X-27.10 Z15.00
 X-26.98 Z14.96
 X-26.73 Z14.85
 X-26.48 Z14.72
 X-26.23 Z14.57
 X-25.98 Z14.41
 X-25.73 Z14.26
 X-25.48 Z14.13
 X-25.23 Z14.00
 X-24.98 Z13.88
 X-24.73 Z13.76
 X-24.48 Z13.65
 X-24.23 Z13.56
 X-23.98 Z13.48
 X-23.85 Z13.44
 X-23.73 Z13.40
 X-23.48 Z13.35
 X-23.23 Z13.29
 X-23.10 Z13.24
 X-23.04 Z13.23
 X-22.99 Z13.21
 X-22.98
 X-22.73 Z13.18
 X-22.48 Z13.15
 X-22.23 Z13.12
 X-21.98 Z13.08
 X-21.73 Z13.03
 X-21.48 Z12.99
 X-21.23 Z12.95
 X-20.98 Z12.90
 X-20.85 Z12.87
 X-20.79 Z12.85
 X-20.76
 X-20.73 Z12.84
 X-20.67 Z12.83
 X-20.60 Z12.81
 X-20.54 Z12.79
 X-20.48 Z12.76
 X-20.42 Z12.73
 X-20.35 Z12.70
 X-20.29 Z12.66
 X-20.23 Z12.62
 X-20.10 Z12.52
 X-20.04 Z12.47
 X-20.01 Z12.44
 X-19.99 Z12.42
 X-19.98 Z12.41
 X-19.73 Z12.05
 X-19.48 Z11.65
 X-19.23 Z11.26
 X-18.98 Z10.92
 X-18.73 Z10.60
 X-18.48 Z10.24
 X-18.23 Z9.93
 X-17.98 Z9.64
 X-17.73 Z9.37
 X-17.48 Z9.10
 X-17.23 Z8.83
 X-16.98 Z8.55
 X-16.73 Z8.29
 X-16.48 Z8.00
 X-16.36 Z7.85
 X-16.29 Z7.77
 X-16.26 Z7.73
 X-16.25 Z7.71
 X-16.24 Z7.70
 X-16.23 Z7.69
 X-15.98 Z7.47
 X-15.86 Z7.37
 X-15.73 Z7.26
 X-15.48 Z6.99
 X-15.23 Z6.67
 X-14.98 Z6.36
 X-14.73 Z6.07
 X-14.48 Z5.81
 X-14.23 Z5.56
 X-13.98 Z5.34
 X-13.73 Z5.15
 X-13.67 Z5.10
 X-13.61 Z5.06
 X-13.48 Z4.98
 X-13.27 Z4.88
 X-13.26
 X-13.17 Z4.85
 X-13.11 Z4.83
 X-13.06 Z4.82
 X-13.05
 X-12.98
 X-12.86 Z4.81
 X-12.80
 X-12.73
 X-12.61 Z4.83
 X-12.48 Z4.85
 X-12.23 Z4.93
 X-11.98 Z5.03
 X-11.80 Z5.12
 X-11.73 Z5.15
 X-11.48 Z5.32
 X-11.23 Z5.50
 X-10.98 Z5.70
 X-10.73 Z5.89
 X-10.48 Z6.09
 X-10.23 Z6.30
 X-9.98 Z6.51
 X-9.74 Z6.73
 X-9.49 Z6.97
 X-9.24 Z7.22
 X-8.99 Z7.49
 X-8.74 Z7.79
 X-8.49 Z8.11
 X-8.24 Z8.48
 X-7.99 Z8.88
 X-7.74 Z9.31
 X-7.49 Z9.77
 X-7.24 Z10.21
 X-6.99 Z10.64
 X-6.86 Z10.84
 X-6.80 Z10.94
 X-6.77 Z10.99
 X-6.74 Z11.03
 X-6.61 Z11.18
 X-6.50 Z11.30
 X-6.49 Z11.32
 X-6.42 Z11.39
 X-6.39 Z11.41
 X-6.36 Z11.44
 X-6.30 Z11.48
 X-6.24 Z11.52
 X-6.11 Z11.58
 X-6.05 Z11.61
 X-6.02 Z11.62
 X-5.99 Z11.63
 X-5.74 Z11.70
 X-5.61 Z11.73
 X-5.55 Z11.74
 X-5.49 Z11.75
 X-5.42 Z11.76
 X-5.36 Z11.77
 X-5.24
 X-4.99 Z11.76
 X-4.74 Z11.75
 X-4.49 Z11.73
 X-4.24 Z11.72
 X-3.99 Z11.73
 X-3.74 Z11.74
 X-3.49
 X-3.24 Z11.73
 X-3.11 Z11.72
 X-3.05 Z11.71
 X-2.99
 X-2.74 Z11.66
 X-2.49 Z11.60
 X-2.36 Z11.58
 X-2.24 Z11.54
 X-1.99 Z11.45
 X-1.74 Z11.37
 X-1.49 Z11.26
 X-1.24 Z11.15
 X-0.99 Z11.05
G0 Z25.00
 Y-17.69
G1 Z11.71
 X-1.24 Z11.75
 X-1.49 Z11.78
 X-1.74 Z11.81
 X-1.99 Z11.83
 X-2.24 Z11.84
 X-2.49
 X-2.61
 X-2.74
 X-2.99 Z11.81
 X-3.24 Z11.78
 X-3.49 Z11.74
 X-3.74 Z11.70
 X-3.99 Z11.66
 X-4.24 Z11.62
 X-4.49 Z11.58
 X-4.74 Z11.53
 X-4.86 Z11.51
 X-4.93 Z11.50
 X-4.99 Z11.49
 X-5.11 Z11.45
 X-5.24 Z11.41
 X-5.36 Z11.36
 X-5.49 Z11.30
 X-5.55 Z11.27
 X-5.58 Z11.25
 X-5.61 Z11.23
 X-5.64 Z11.22
 X-5.67 Z11.19
 X-5.74 Z11.15
 X-5.86 Z11.04
 X-5.92 Z10.98
 X-5.96 Z10.95
 X-5.99 Z10.92
 X-6.24 Z10.59
 X-6.49 Z10.19
 X-6.74 Z9.74
 X-6.99 Z9.29
 X-7.24 Z8.80
 X-7.49 Z8.35
 X-7.74 Z7.93
 X-7.99 Z7.56
 X-8.24 Z7.21
 X-8.49 Z6.91
 X-8.74 Z6.63
 X-8.99 Z6.37
 X-9.24 Z6.14
 X-9.49 Z5.90
 X-9.74 Z5.67
 X-9.98 Z5.43
 X-10.23 Z5.20
 X-10.48 Z4.98
 X-10.73 Z4.77
 X-10.98 Z4.59
 X-11.23 Z4.42
 X-11.48 Z4.27
 X-11.61 Z4.21
 X-11.73 Z4.14
 X-11.98 Z4.05
 X-12.17 Z3.98
 X-12.23 Z3.96
 X-12.48 Z3.90
 X-12.73 Z3.87
 X-12.86 Z3.86
 X-12.98 Z3.85
 X-13.23 Z3.86
 X-13.48 Z3.88
 X-13.80 Z3.93
 X-13.83
 X-13.84 Z3.94
 X-13.85
 X-13.86
 X-13.87
 X-13.88
 X-13.89
 X-13.90 Z3.95
 X-13.92
 X-13.98 Z3.97
 X-14.11 Z4.02
 X-14.23 Z4.08
 X-14.48 Z4.22
 X-14.61 Z4.30
 X-14.73 Z4.38
 X-14.98 Z4.61
 X-15.23 Z4.88
 X-15.48 Z5.19
 X-15.73 Z5.53
 X-15.98 Z5.89
 X-16.23 Z6.21
 X-16.48 Z6.52
 X-16.73 Z6.78
 X-16.98 Z7.06
 X-17.23 Z7.38
 X-17.48 Z7.71
 X-17.73 Z8.02
 X-17.98 Z8.33
 X-18.23 Z8.64
 X-18.48 Z8.92
 X-18.60 Z9.05
 X-18.85 Z9.31
 X-18.98 Z9.50
 X-19.23 Z9.93
 X-19.48 Z10.30
 X-19.73 Z10.68
 X-19.98 Z11.06
 X-20.23 Z11.46
 X-20.48 Z11.86
 X-20.60 Z12.06
 X-20.64 Z12.11
 X-20.67 Z12.16
 X-20.70 Z12.20
 X-20.71 Z12.21
 X-20.72 Z12.22
 X-20.73 Z12.23
 X-20.79 Z12.29
 X-20.82 Z12.32
 X-20.85 Z12.34
 X-20.98 Z12.43
 X-21.10 Z12.50
 X-21.17 Z12.54
 X-21.23 Z12.58
 X-21.48 Z12.69
 X-21.73 Z12.78
 X-21.98 Z12.86
 X-22.23 Z12.94
 X-22.48 Z13.02
 X-22.73 Z13.09
 X-22.98 Z13.18
 X-23.23 Z13.28
 X-23.48 Z13.38
 X-23.73 Z13.50
 X-23.98 Z13.62
 X-24.23 Z13.76
 X-24.48 Z13.90
 X-24.73 Z14.05
 X-24.98 Z14.20
 X-25.23 Z14.37
 X-25.48 Z14.53
 X-25.73 Z14.70
 X-25.98 Z14.87
 X-26.23 Z15.04
 X-26.48 Z15.21
 X-26.60 Z15.28
 X-26.66 Z15.32
 X-26.73 Z15.35
 X-26.85 Z15.41
 X-26.98 Z15.46
 X-27.22 Z15.54
 X-27.35 Z15.56
 X-27.47 Z15.60
 X-27.60 Z15.65
 X-27.66 Z15.67
 X-27.72 Z15.69
 X-27.97 Z15.74
 X-28.22 Z15.79
 X-28.47 Z15.82
 X-28.60 Z15.83
 X-28.66
 X-28.72 Z15.84
 X-28.85
 X-28.97 Z15.83
 X-29.10 Z15.81
 X-29.16 Z15.80
 X-29.22 Z15.79
 X-29.35 Z15.77
 X-29.47 Z15.73
 X-29.60 Z15.69
 X-29.72 Z15.64
 X-29.97 Z15.52
 X-30.22 Z15.40
 X-30.47 Z15.26
 X-30.72 Z15.11
 X-30.97 Z14.93
 X-31.22 Z14.74
 X-31.47 Z14.55
 X-31.72 Z14.35
 X-31.97 Z14.17
 X-32.22 Z13.99
 X-32.47 Z13.79
 X-32.72 Z13.59
 X-32.97 Z13.40
 X-33.22 Z13.21
 X-33.47 Z13.04
 X-33.72 Z12.89
 X-33.85 Z12.83
 X-33.97 Z12.76
 X-34.10 Z12.71
 X-34.22 Z12.66
 X-34.35 Z12.63
 X-34.47 Z12.59
 X-34.72 Z12.55
 X-34.97 Z12.51
 X-35.10 Z12.49
 X-35.16
 X-35.19
 X-35.20
 X-35.21
 X-35.22
 X-35.47 Z12.51
 X-35.60 Z12.54
 X-35.72 Z12.55
 X-35.97 Z12.57
 X-36.22 Z12.59
 X-36.47 Z12.61
 X-36.72 Z12.65
 X-36.97 Z12.67
 X-37.22 Z12.71
 X-37.47 Z12.76
 X-37.72 Z12.81
 X-37.97 Z12.87
 X-38.22 Z12.93
 X-38.47 Z12.97
 X-38.72 Z13.00
 X-38.97 Z13.02
 X-39.22 Z13.03
 X-39.47 Z13.04
 X-39.72
 X-39.97 Z13.03
 X-40.22 Z13.00
 X-40.47 Z12.96
 X-40.72 Z12.90
 X-40.97 Z12.83
 X-41.22 Z12.74
 X-41.47 Z12.65
 X-41.72 Z12.55
 X-41.97 Z12.44
 X-42.22 Z12.32
 X-42.47 Z12.18
 X-42.72 Z12.05
 X-42.97 Z11.93
G0 Z25.00
 Y-16.91
G1 Z12.63
 X-42.72 Z12.75
 X-42.47 Z12.89
 X-42.22 Z13.04
 X-41.97 Z13.18
 X-41.72 Z13.29
 X-41.47 Z13.39
 X-41.22 Z13.48
 X-40.97 Z13.55
 X-40.72 Z13.62
 X-40.47 Z13.68
 X-40.22 Z13.73
 X-39.97 Z13.75
 X-39.72 Z13.76
 X-39.47 Z13.75
 X-39.22 Z13.73
 X-38.97 Z13.70
 X-38.72 Z13.67
 X-38.47 Z13.63
 X-38.22 Z13.58
 X-37.97 Z13.51
 X-37.72 Z13.43
 X-37.47 Z13.36
 X-37.22 Z13.29
 X-36.97 Z13.21
 X-36.72 Z13.13
 X-36.47 Z13.04
 X-36.41 Z13.02
 X-36.38
 X-36.34 Z13.01
 X-36.28 Z13.00
 X-36.22 Z12.99
 X-35.97 Z12.98
 X-35.72 Z12.99
 X-35.47 Z13.00
 X-35.22 Z13.01
 X-34.97 Z13.03
 X-34.72 Z13.04
 X-34.60 Z13.05
 X-34.53
 X-34.50 Z13.06
 X-34.47
 X-34.35 Z13.09
 X-34.22 Z13.13
 X-33.97 Z13.21
 X-33.72 Z13.33
 X-33.47 Z13.46
 X-33.22 Z13.61
 X-32.97 Z13.78
 X-32.72 Z13.95
 X-32.47 Z14.12
 X-32.22 Z14.28
 X-31.97 Z14.43
 X-31.72 Z14.58
 X-31.47 Z14.75
 X-31.22 Z14.94
 X-30.85 Z15.23
 X-30.72 Z15.32
 X-30.47 Z15.48
 X-30.22 Z15.65
 X-29.97 Z15.81
 X-29.85 Z15.89
 X-29.72 Z15.95
 X-29.60 Z16.01
 X-29.47 Z16.06
 X-29.35 Z16.11
 X-29.22 Z16.15
 X-29.16 Z16.16
 X-29.10 Z16.18
 X-28.97 Z16.20
 X-28.85 Z16.22
 X-28.72 Z16.23
 X-28.47
 X-28.22 Z16.22
 X-28.10 Z16.21
 X-28.04 Z16.20
 X-27.97 Z16.19
 X-27.85 Z16.16
 X-27.79 Z16.15
 X-27.72 Z16.13
 X-27.60 Z16.08
 X-27.54 Z16.06
 X-27.47 Z16.03
 X-27.22 Z15.97
 X-27.16 Z15.95
 X-27.13 Z15.94
 X-27.10 Z15.93
 X-26.98 Z15.88
 X-26.73 Z15.76
 X-26.48 Z15.61
 X-26.23 Z15.45
 X-25.98 Z15.26
 X-25.73 Z15.06
 X-25.48 Z14.84
 X-25.23 Z14.63
 X-24.98 Z14.42
 X-24.73 Z14.20
 X-24.48 Z14.01
 X-24.23 Z13.81
 X-23.98 Z13.61
 X-23.73 Z13.44
 X-23.48 Z13.29
 X-23.23 Z13.14
 X-22.98 Z13.00
 X-22.73 Z12.87
 X-22.48 Z12.75
 X-22.23 Z12.61
 X-22.10 Z12.53
 X-22.04 Z12.49
 X-21.98 Z12.45
 X-21.85 Z12.36
 X-21.79 Z12.31
 X-21.76 Z12.28
 X-21.73 Z12.25
 X-21.67 Z12.19
 X-21.63 Z12.16
 X-21.60 Z12.12
 X-21.54 Z12.05
 X-21.51 Z12.01
 X-21.48 Z11.97
 X-21.23 Z11.53
 X-20.98 Z11.06
 X-20.73 Z10.61
 X-20.48 Z10.18
 X-20.23 Z9.77
 X-19.98 Z9.37
 X-19.76 Z9.07
 X-19.73 Z9.02
 X-19.48 Z8.51
 X-19.23 Z8.08
 X-18.98 Z7.72
 X-18.73 Z7.39
 X-18.48 Z7.02
 X-18.23 Z6.62
 X-17.98 Z6.23
 X-17.73 Z5.84
 X-17.48 Z5.46
 X-17.36 Z5.28
 X-17.23 Z5.11
 X-17.17 Z5.05
 X-17.14 Z5.02
 X-17.12 Z5.00
 X-17.11 Z4.99
 X-16.98 Z4.90
 X-16.73 Z4.74
 X-16.48 Z4.59
 X-16.23 Z4.45
 X-15.98 Z4.31
 X-15.73 Z4.19
 X-15.48 Z4.06
 X-15.23 Z3.94
 X-14.98 Z3.83
 X-14.73 Z3.73
 X-14.48 Z3.63
 X-14.23 Z3.54
 X-14.11 Z3.50
 X-14.05 Z3.49
 X-14.01 Z3.48
 X-13.98 Z3.47
 X-13.73 Z3.42
 X-13.48 Z3.38
 X-13.23 Z3.34
 X-12.98 Z3.32
 X-12.73 Z3.31
 X-12.48 Z3.30
 X-12.23 Z3.31
 X-11.98 Z3.32
 X-11.73 Z3.36
 X-11.48 Z3.39
 X-11.36 Z3.41
 X-11.30 Z3.43
 X-11.23 Z3.44
 X-11.11 Z3.48
 X-10.98 Z3.53
 X-10.73 Z3.65
 X-10.48 Z3.78
 X-10.23 Z3.92
 X-9.98 Z4.09
 X-9.74 Z4.27
 X-9.49 Z4.46
 X-9.24 Z4.67
 X-8.99 Z4.91
 X-8.74 Z5.16
 X-8.49 Z5.42
 X-8.24 Z5.69
 X-7.99 Z6.01
 X-7.74 Z6.38
 X-7.49 Z6.75
 X-7.24 Z7.15
 X-6.99 Z7.62
 X-6.74 Z8.14
 X-6.49 Z8.64
 X-6.24 Z9.11
 X-5.99 Z9.57
 X-5.74 Z10.01
 X-5.49 Z10.38
 X-5.36 Z10.54
 X-5.33 Z10.59
 X-5.30 Z10.63
 X-5.27 Z10.67
 X-5.24 Z10.70
 X-4.99 Z10.93
 X-4.86 Z11.03
 X-4.74 Z11.12
 X-4.61 Z11.20
 X-4.55 Z11.24
 X-4.49 Z11.27
 X-4.24 Z11.37
 X-3.99 Z11.47
 X-3.74 Z11.57
 X-3.49 Z11.65
 X-3.24 Z11.72
 X-2.99 Z11.79
 X-2.74 Z11.86
 X-2.49 Z11.92
 X-2.24 Z11.98
 X-1.99 Z12.04
 X-1.74 Z12.08
 X-1.49 Z12.13
 X-1.24 Z12.18
 X-0.99 Z12.21
G0 Z25.00
 Y-16.12
G1 Z12.54
 X-1.24 Z12.43
 X-1.36 Z12.36
 X-1.43 Z12.32
 X-1.46 Z12.30
 X-1.49 Z12.29
 X-1.74 Z12.18
 X-1.99 Z12.08
 X-2.24 Z11.98
 X-2.49 Z11.87
 X-2.74 Z11.76
 X-2.99 Z11.65
 X-3.24 Z11.54
 X-3.49 Z11.42
 X-3.61 Z11.35
 X-3.74 Z11.27
 X-3.86 Z11.18
 X-3.93 Z11.14
 X-3.96 Z11.11
 X-3.99 Z11.09
 X-4.11 Z10.97
 X-4.24 Z10.85
 X-4.36 Z10.69
 X-4.43 Z10.62
 X-4.46 Z10.59
 X-4.49 Z10.55
 X-4.74 Z10.17
 X-4.99 Z9.75
 X-5.24 Z9.30
 X-5.49 Z8.82
 X-5.74 Z8.25
 X-5.99 Z7.63
 X-6.24 Z6.98
 X-6.49 Z6.35
 X-6.74 Z5.75
 X-6.86 Z5.49
 X-6.99 Z5.26
 X-7.24 Z4.88
 X-7.36 Z4.71
 X-7.42 Z4.63
 X-7.49 Z4.54
 X-7.74 Z4.27
 X-7.86 Z4.16
 X-7.92 Z4.10
 X-7.95 Z4.07
 X-8.03 Z3.99
 X-8.05 Z3.98
 X-8.11 Z3.93
 X-8.17 Z3.89
 X-8.24 Z3.86
 X-8.36 Z3.79
 X-8.42 Z3.77
 X-8.49 Z3.74
 X-8.74 Z3.67
 X-8.99 Z3.61
 X-9.24 Z3.56
 X-9.49 Z3.51
 X-9.74 Z3.47
 X-9.98 Z3.42
 X-10.23 Z3.38
 X-10.48 Z3.35
 X-10.61 Z3.32
 X-10.64 Z3.31
 X-10.66
 X-10.67 Z3.30
 X-10.73 Z3.29
 X-10.98 Z3.27
 X-11.23 Z3.25
 X-11.48 Z3.23
 X-11.73 Z3.21
 X-11.98 Z3.20
 X-12.23
 X-12.48
 X-12.73 Z3.21
 X-12.98 Z3.23
 X-13.23 Z3.26
 X-13.48 Z3.29
 X-13.73 Z3.33
 X-13.98 Z3.39
 X-14.11 Z3.41
 X-14.17 Z3.43
 X-14.20
 X-14.23 Z3.44
 X-14.48 Z3.53
 X-14.73 Z3.61
 X-14.98 Z3.71
 X-15.23 Z3.82
 X-15.48 Z3.95
 X-15.73 Z4.07
 X-15.98 Z4.20
 X-16.23 Z4.33
 X-16.48 Z4.45
 X-16.73 Z4.58
 X-16.98 Z4.70
 X-17.23 Z4.83
 X-17.48 Z4.95
 X-17.73 Z5.06
 X-17.98 Z5.17
 X-18.23 Z5.27
 X-18.48 Z5.36
 X-18.73 Z5.46
 X-18.98 Z5.57
 X-19.10 Z5.63
 X-19.17 Z5.66
 X-19.23 Z5.69
 X-19.48 Z5.86
 X-19.60 Z5.95
 X-19.67 Z6.00
 X-19.71 Z6.03
 X-19.73 Z6.05
 X-19.79 Z6.10
 X-19.82 Z6.13
 X-19.85 Z6.17
 X-19.92 Z6.25
 X-19.98 Z6.33
 X-20.23 Z6.74
 X-20.48 Z7.19
 X-20.73 Z7.72
 X-20.98 Z8.27
 X-21.23 Z8.94
 X-21.48 Z9.58
 X-21.73 Z10.26
 X-21.98 Z10.95
 X-22.10 Z11.29
 X-22.23 Z11.60
 X-22.29 Z11.75
 X-22.35 Z11.87
 X-22.42 Z11.99
 X-22.45 Z12.04
 X-22.48 Z12.09
 X-22.60 Z12.25
 X-22.67 Z12.32
 X-22.70 Z12.36
 X-22.73 Z12.40
 X-22.98 Z12.64
 X-23.23 Z12.85
 X-23.48 Z13.06
 X-23.73 Z13.27
 X-23.85 Z13.37
 X-23.91 Z13.42
 X-23.98 Z13.47
 X-24.23 Z13.70
 X-24.48 Z13.96
 X-24.73 Z14.22
 X-24.98 Z14.48
 X-25.23 Z14.74
 X-25.48 Z15.00
 X-25.73 Z15.28
 X-25.98 Z15.53
 X-26.10 Z15.64
 X-26.23 Z15.74
 X-26.48 Z15.92
 X-26.60 Z16.00
 X-26.73 Z16.07
 X-26.98 Z16.19
 X-27.22 Z16.28
 X-27.47 Z16.35
 X-27.60 Z16.40
 X-27.66 Z16.43
 X-27.69 Z16.44
 X-27.71 Z16.45
 X-27.72
 X-27.79 Z16.47
 X-27.82 Z16.48
 X-27.85
 X-27.97 Z16.50
 X-28.10 Z16.51
 X-28.16
 X-28.22 Z16.52
 X-28.29
 X-28.35
 X-28.47 Z16.51
 X-28.72 Z16.47
 X-28.85 Z16.45
 X-28.91 Z16.44
 X-28.97 Z16.43
 X-29.10 Z16.39
 X-29.22 Z16.34
 X-29.35 Z16.28
 X-29.47 Z16.22
 X-29.72 Z16.07
 X-29.97 Z15.90
 X-30.22 Z15.71
 X-30.47 Z15.51
 X-30.72 Z15.32
 X-30.97 Z15.12
 X-31.22 Z14.93
 X-31.47 Z14.74
 X-31.72 Z14.57
 X-31.97 Z14.43
 X-32.22 Z14.29
 X-32.47 Z14.16
 X-32.72 Z14.02
 X-32.97 Z13.88
 X-33.22 Z13.74
 X-33.35 Z13.67
 X-33.47 Z13.60
 X-33.72 Z13.50
 X-33.97 Z13.41
 X-34.10 Z13.37
 X-34.16 Z13.35
 X-34.22 Z13.33
 X-34.35 Z13.30
 X-34.47 Z13.28
 X-34.72 Z13.26
 X-34.97 Z13.25
 X-35.22 Z13.23
 X-35.47 Z13.20
 X-35.72 Z13.15
 X-35.91 Z13.11
 X-35.94
 X-36.03 Z13.09
 X-36.06
 X-36.09
 X-36.13
 X-36.14
 X-36.15
 Z13.08
 X-36.16
 X-36.22 Z13.12
 X-36.47 Z13.26
 X-36.72 Z13.40
 X-36.97 Z13.52
 X-37.22 Z13.62
 X-37.47 Z13.71
 X-37.72 Z13.81
 X-37.97 Z13.91
 X-38.22 Z14.01
 X-38.47 Z14.11
 X-38.72 Z14.19
 X-38.97 Z14.25
 X-39.22 Z14.31
 X-39.34 Z14.34
 X-39.41 Z14.36
 X-39.44
 X-39.47 Z14.37
 X-39.53 Z14.38
 X-39.56 Z14.39
 X-39.59
 X-39.66 Z14.40
 X-39.72
 X-39.97 Z14.39
 X-40.09 Z14.38
 X-40.16 Z14.37
 X-40.19
 X-40.22
 X-40.47 Z14.32
 X-40.72 Z14.27
 X-40.97 Z14.22
 X-41.22 Z14.15
 X-41.47 Z14.06
 X-41.72 Z13.97
 X-41.97 Z13.86
 X-42.22 Z13.74
 X-42.47 Z13.59
 X-42.59 Z13.52
 X-42.72 Z13.44
 X-42.97 Z13.33
G0 Z25.00
 Y-15.33
G1 Z13.94
 X-42.72 Z14.07
 X-42.47 Z14.21
 X-42.34 Z14.27
 X-42.28 Z14.31
 X-42.22 Z14.34
 X-41.97 Z14.44
 X-41.72 Z14.52
 X-41.47 Z14.59
 X-41.22 Z14.64
 X-40.97 Z14.69
 X-40.72 Z14.72
 X-40.47 Z14.75
 X-40.22 Z14.76
 X-39.97 Z14.77
 X-39.84 Z14.76
 X-39.78
 X-39.72
 X-39.47 Z14.71
 X-39.28 Z14.66
 X-39.22 Z14.64
 X-38.97 Z14.55
 X-38.72 Z14.45
 X-38.47 Z14.34
 X-38.22 Z14.22
 X-37.97 Z14.07
 X-37.72 Z13.93
 X-37.47 Z13.81
 X-37.22 Z13.70
 X-36.97 Z13.60
 X-36.72 Z13.49
 X-36.66 Z13.47
 X-36.59 Z13.44
 X-36.53 Z13.40
 X-36.50 Z13.38
 X-36.47 Z13.36
 X-36.34 Z13.28
 X-36.28 Z13.22
 X-36.25 Z13.20
 X-36.22 Z13.17
 X-36.16 Z13.11
 X-36.13 Z13.08
 X-36.05 Z13.01
 X-36.04 Z13.00
 X-36.03
 X-36.00
 X-35.99 Z13.01
 X-35.97 Z13.02
 X-35.85 Z13.08
 X-35.75 Z13.13
 X-35.72 Z13.15
 X-35.66 Z13.18
 X-35.60 Z13.20
 X-35.47 Z13.25
 X-35.35 Z13.29
 X-35.28 Z13.30
 X-35.25 Z13.31
 X-35.22
 X-35.16 Z13.32
 X-35.10 Z13.33
 X-34.97 Z13.32
 X-34.72 Z13.30
 X-34.47 Z13.29
 X-34.41
 X-34.38
 X-34.35
 X-34.31
 X-34.30
 X-34.29
 Z13.28
 X-34.28
 X-34.22 Z13.30
 X-34.10 Z13.33
 X-33.97 Z13.36
 X-33.72 Z13.45
 X-33.47 Z13.55
 X-33.22 Z13.66
 X-32.97 Z13.78
 X-32.72 Z13.90
 X-32.47 Z14.02
 X-32.22 Z14.13
 X-31.97 Z14.24
 X-31.72 Z14.36
 X-31.47 Z14.51
 X-31.22 Z14.69
 X-30.97 Z14.88
 X-30.72 Z15.09
 X-30.47 Z15.32
 X-30.22 Z15.54
 X-29.97 Z15.77
 X-29.72 Z15.99
 X-29.60 Z16.08
 X-29.47 Z16.17
 X-29.22 Z16.32
 X-29.10 Z16.38
 X-29.04 Z16.41
 X-29.01 Z16.43
 X-28.97 Z16.44
 X-28.72 Z16.52
 X-28.60 Z16.55
 X-28.54 Z16.56
 X-28.51 Z16.57
 X-28.47 Z16.58
 X-28.35 Z16.59
 X-28.22 Z16.60
 X-28.10 Z16.59
 X-28.01
 X-27.97
 X-27.72 Z16.55
 X-27.47 Z16.49
 X-27.22 Z16.42
 X-27.10 Z16.39
 X-27.04 Z16.37
 X-27.01 Z16.35
 X-26.98 Z16.34
 X-26.85 Z16.28
 X-26.73 Z16.21
 X-26.66 Z16.17
 X-26.60 Z16.14
 X-26.48 Z16.04
 X-26.35 Z15.94
 X-26.23 Z15.83
 X-26.10 Z15.71
 X-25.98 Z15.58
 X-25.73 Z15.28
 X-25.48 Z14.97
 X-25.23 Z14.67
 X-24.98 Z14.37
 X-24.73 Z14.07
 X-24.48 Z13.76
 X-24.23 Z13.44
 X-23.98 Z13.16
 X-23.85 Z13.00
 X-23.79 Z12.92
 X-23.73 Z12.83
 X-23.60 Z12.63
 X-23.57 Z12.59
 X-23.54 Z12.54
 X-23.51 Z12.48
 X-23.48 Z12.41
 X-23.41 Z12.26
 X-23.40 Z12.23
 X-23.38 Z12.19
 X-23.35 Z12.08
 X-23.23 Z11.50
 X-22.98 Z10.07
 X-22.91 Z9.65
 X-22.85 Z9.35
 X-22.73 Z8.91
 X-22.60 Z8.51
 X-22.54 Z8.35
 X-22.51 Z8.28
 X-22.48 Z8.21
 X-22.35 Z8.00
 X-22.23 Z7.82
 X-21.98 Z7.50
 X-21.73 Z7.21
 X-21.60 Z7.07
 X-21.48 Z6.95
 X-21.23 Z6.75
 X-20.98 Z6.58
 X-20.85 Z6.49
 X-20.73 Z6.42
 X-20.48 Z6.29
 X-20.23 Z6.18
 X-19.98 Z6.06
 X-19.73 Z5.94
 X-19.48 Z5.83
 X-19.23 Z5.73
 X-18.98 Z5.64
 X-18.73 Z5.54
 X-18.48 Z5.43
 X-18.23 Z5.31
 X-17.98 Z5.19
 X-17.73 Z5.08
 X-17.48 Z4.95
 X-17.23 Z4.82
 X-16.98 Z4.69
 X-16.73 Z4.56
 X-16.48 Z4.42
 X-16.36 Z4.35
 X-16.29 Z4.31
 X-16.23 Z4.27
 X-15.98 Z4.15
 X-15.73 Z4.03
 X-15.48 Z3.91
 X-15.23 Z3.81
 X-14.98 Z3.72
 X-14.73 Z3.63
 X-14.48 Z3.56
 X-14.23 Z3.49
 X-13.98 Z3.42
 X-13.73 Z3.37
 X-13.48 Z3.31
 X-13.42 Z3.28
 X-13.39 Z3.27
 X-13.37 Z3.26
 X-13.36
 X-13.23 Z3.27
 X-12.98
 X-12.73 Z3.25
 X-12.48 Z3.24
 X-12.23 Z3.23
 X-11.98
 X-11.73
 X-11.48 Z3.24
 X-11.23 Z3.26
 X-10.98 Z3.28
 X-10.73
 X-10.48 Z3.30
 X-10.23 Z3.31
 X-9.98 Z3.33
 X-9.74 Z3.36
 X-9.49 Z3.37
 X-9.24 Z3.40
 X-8.99 Z3.42
 X-8.74 Z3.45
 X-8.49 Z3.48
 X-8.24 Z3.53
 X-7.99 Z3.57
 X-7.74 Z3.61
 X-7.49 Z3.66
 X-7.24 Z3.71
 X-6.99 Z3.77
 X-6.74 Z3.83
 X-6.49 Z3.91
 X-6.36 Z3.95
 X-6.24 Z4.00
 X-6.05 Z4.08
 X-5.99 Z4.12
 X-5.86 Z4.22
 X-5.80 Z4.27
 X-5.77 Z4.29
 X-5.75 Z4.30
 X-5.74 Z4.31
 X-5.66 Z4.41
 X-5.64 Z4.44
 X-5.55 Z4.62
 X-5.53 Z4.65
 Z4.66
 X-5.52 Z4.67
 Z4.68
 X-5.49 Z4.78
 X-5.24 Z5.86
 X-5.11 Z6.62
 X-5.05 Z7.02
 X-4.99 Z7.33
 X-4.74 Z8.20
 X-4.49 Z8.91
 X-4.24 Z9.49
 X-3.99 Z10.02
 X-3.86 Z10.27
 X-3.80 Z10.40
 X-3.77 Z10.46
 X-3.74 Z10.52
 X-3.61 Z10.71
 X-3.55 Z10.80
 X-3.52 Z10.85
 X-3.50 Z10.87
 X-3.49 Z10.90
 X-3.36 Z11.04
 X-3.30 Z11.11
 X-3.24 Z11.17
 X-2.99 Z11.38
 X-2.74 Z11.56
 X-2.49 Z11.71
 X-2.24 Z11.87
 X-1.99 Z12.02
 X-1.74 Z12.16
 X-1.49 Z12.32
 X-1.24 Z12.46
 X-0.99 Z12.64
G0 Z25.00
 Y-14.55
G1 Z12.61
 X-1.24 Z12.43
 X-1.49 Z12.24
 X-1.74 Z12.05
 X-1.99 Z11.84
 X-2.24 Z11.63
 X-2.36 Z11.53
 X-2.43 Z11.47
 X-2.49 Z11.40
 X-2.61 Z11.24
 X-2.68 Z11.16
 X-2.71 Z11.11
 X-2.74 Z11.07
 X-2.80 Z10.99
 X-2.83 Z10.94
 X-2.86 Z10.88
 X-2.99 Z10.60
 X-3.24 Z9.97
 X-3.36 Z9.63
 X-3.49 Z9.21
 X-3.61 Z8.74
 X-3.74 Z8.10
 X-3.80 Z7.59
 X-3.83 Z7.15
 X-3.84 Z5.26
 X-3.93 Z5.00
 X-3.96 Z4.94
 X-4.10 Z4.72
 X-4.11 Z4.70
 X-4.18 Z4.63
 X-4.32 Z4.48
 X-4.33 Z4.47
 X-4.46 Z4.37
 X-4.49 Z4.36
 X-4.74 Z4.26
 X-4.99 Z4.18
 X-5.24 Z4.10
 X-5.49 Z4.02
 X-5.74 Z3.96
 X-5.99 Z3.91
 X-6.24 Z3.86
 X-6.49 Z3.83
 X-6.74 Z3.80
 X-6.99 Z3.76
 X-7.24 Z3.72
 X-7.49 Z3.68
 X-7.74 Z3.65
 X-7.99 Z3.62
 X-8.24 Z3.58
 X-8.49 Z3.56
 X-8.74 Z3.53
 X-8.99 Z3.50
 X-9.24 Z3.48
 X-9.49 Z3.45
 X-9.74 Z3.44
 X-10.23 Z3.40
 X-10.48 Z3.39
 X-10.73 Z3.38
 X-10.80
 X-10.86 Z3.37
 X-10.92 Z3.36
 X-10.95 Z3.35
 X-10.97
 X-10.98
 X-11.23
 X-11.48 Z3.37
 X-11.73
 X-11.98 Z3.38
 X-12.23 Z3.39
 X-12.48 Z3.40
 X-12.73 Z3.41
 X-12.98 Z3.44
 X-13.23 Z3.47
 X-13.48 Z3.51
 X-13.73 Z3.55
 X-13.98 Z3.60
 X-14.23 Z3.65
 X-14.48 Z3.72
 X-14.73 Z3.78
 X-14.79 Z3.79
 X-14.83 Z3.80
 X-14.84
 X-14.85
 X-14.86
 X-14.98 Z3.85
 X-15.23 Z3.95
 X-15.48 Z4.04
 X-15.61 Z4.08
 X-15.67 Z4.10
 X-15.68
 X-15.70 Z4.11
 X-15.71
 X-15.72
 X-15.73 Z4.12
 X-15.98 Z4.26
 X-16.23 Z4.39
 X-16.48 Z4.52
 X-16.73 Z4.66
 X-16.98 Z4.80
 X-17.23 Z4.93
 X-17.48 Z5.07
 X-17.73 Z5.20
 X-17.98 Z5.34
 X-18.23 Z5.48
 X-18.48 Z5.61
 X-18.73 Z5.72
 X-18.98 Z5.81
 X-19.23 Z5.90
 X-19.48 Z5.98
 X-19.73 Z6.08
 X-19.98 Z6.18
 X-20.23 Z6.29
 X-20.48 Z6.39
 X-20.73 Z6.49
 X-20.98 Z6.60
 X-21.23 Z6.73
 X-21.48 Z6.88
 X-21.73 Z7.05
 X-21.98 Z7.24
 X-22.23 Z7.46
 X-22.48 Z7.68
 X-22.73 Z7.91
 X-22.98 Z8.15
 X-23.10 Z8.29
 X-23.23 Z8.44
 X-23.48 Z8.81
 X-23.60 Z9.02
 X-23.73 Z9.24
 X-23.79 Z9.38
 X-23.85 Z9.52
 X-23.91 Z9.69
 X-23.95 Z9.79
 X-23.98 Z9.89
 X-24.04 Z10.14
 X-24.10 Z10.53
 X-24.16 Z11.20
 X-24.20 Z11.73
 X-24.21 Z11.96
 X-24.22 Z12.05
 X-24.23 Z12.14
 X-24.26 Z12.40
 X-24.29 Z12.57
 X-24.32 Z12.68
 X-24.35 Z12.80
 X-24.41 Z13.01
 X-24.48 Z13.17
 X-24.60 Z13.46
 X-24.66 Z13.59
 X-24.73 Z13.70
 X-24.98 Z14.07
 X-25.23 Z14.42
 X-25.48 Z14.74
 X-25.73 Z15.07
 X-25.98 Z15.42
 X-26.04 Z15.51
 X-26.10 Z15.59
 X-26.23 Z15.72
 X-26.29 Z15.79
 X-26.32 Z15.82
 X-26.35 Z15.85
 X-26.48 Z15.95
 X-26.60 Z16.04
 X-26.66 Z16.08
 X-26.69 Z16.10
 X-26.73 Z16.12
 X-26.98 Z16.24
 X-27.10 Z16.29
 X-27.16 Z16.31
 X-27.22 Z16.33
 X-27.35 Z16.36
 X-27.47 Z16.38
 X-27.72 Z16.41
 X-27.85 Z16.42
 X-27.91 Z16.43
 X-27.97 Z16.44
 X-28.04
 X-28.07
 X-28.10
 X-28.16
 X-28.19
 X-28.21
 X-28.22
 X-28.29 Z16.42
 X-28.35 Z16.41
 X-28.47 Z16.37
 X-28.60 Z16.32
 X-28.66 Z16.30
 X-28.72 Z16.28
 X-28.79 Z16.25
 X-28.82 Z16.24
 X-28.85 Z16.22
 X-28.97 Z16.15
 X-29.22 Z15.99
 X-29.47 Z15.80
 X-29.72 Z15.59
 X-29.97 Z15.36
 X-30.22 Z15.11
 X-30.47 Z14.87
 X-30.72 Z14.64
 X-30.97 Z14.45
 X-31.22 Z14.27
 X-31.35 Z14.19
 X-31.47 Z14.11
 X-31.54 Z14.07
 X-31.57 Z14.05
 X-31.58 Z14.04
 X-31.60 Z14.03
 X-31.72 Z13.98
 X-31.97 Z13.88
 X-32.22 Z13.78
 X-32.47 Z13.68
 X-32.72 Z13.58
 X-32.97 Z13.47
 X-33.22 Z13.36
 X-33.47 Z13.26
 X-33.72 Z13.16
 X-33.85 Z13.12
 X-33.91 Z13.10
 X-33.94 Z13.09
 X-33.96 Z13.08
 X-33.97
 Z13.07
 X-34.03 Z13.05
 X-34.10 Z13.02
 X-34.22 Z13.07
 X-34.35 Z13.12
 X-34.41 Z13.15
 X-34.44 Z13.16
 X-34.47 Z13.18
 X-34.53 Z13.20
 X-34.60 Z13.22
 X-34.72 Z13.24
 X-34.78 Z13.25
 X-34.85 Z13.26
 X-34.91 Z13.27
 X-34.94
 X-34.97
 X-35.03
 X-35.10
 X-35.16 Z13.26
 X-35.22 Z13.25
 X-35.35 Z13.22
 X-35.41 Z13.20
 X-35.44 Z13.19
 X-35.47 Z13.18
 X-35.53 Z13.15
 X-35.60 Z13.12
 X-35.72 Z13.05
 X-35.85 Z12.95
 X-35.93 Z12.88
 X-35.94
 X-35.95 Z12.87
 Z12.86
 X-35.96
 X-35.97 Z12.87
 X-36.03 Z12.96
 X-36.09 Z13.04
 X-36.16 Z13.12
 X-36.19 Z13.15
 X-36.22 Z13.18
 X-36.34 Z13.27
 X-36.41 Z13.31
 X-36.44 Z13.33
 X-36.45 Z13.34
 X-36.47 Z13.35
 X-36.53 Z13.39
 X-36.56 Z13.41
 X-36.59 Z13.42
 X-36.66 Z13.45
 X-36.69 Z13.46
 X-36.70
 X-36.72 Z13.47
 X-36.97 Z13.51
 X-37.09 Z13.54
 X-37.16 Z13.55
 X-37.22 Z13.57
 X-37.28 Z13.59
 X-37.31 Z13.60
 X-37.33 Z13.61
 X-37.34
 X-37.47 Z13.68
 X-37.72 Z13.84
 X-37.97 Z14.01
 X-38.22 Z14.18
 X-38.47 Z14.35
 X-38.72 Z14.49
 X-38.91 Z14.59
 X-38.97 Z14.63
 X-39.22 Z14.73
 X-39.34 Z14.78
 X-39.41 Z14.80
 X-39.44 Z14.81
 X-39.47 Z14.82
 X-39.72 Z14.87
 X-39.97 Z14.91
 X-40.22 Z14.94
 X-40.47
 X-40.72
 X-40.97 Z14.92
 X-41.22 Z14.89
 X-41.47 Z14.85
 X-41.72 Z14.81
 X-41.97 Z14.74
 X-42.22 Z14.64
 X-42.47 Z14.54
 X-42.59 Z14.49
 X-42.72 Z14.43
 X-42.97 Z14.29
G0 Z25.00
 Y-13.76
G1 Z14.40
 X-42.72 Z14.54
 X-42.59 Z14.61
 X-42.53 Z14.64
 X-42.47 Z14.66
 X-42.22 Z14.74
 X-41.97 Z14.82
 X-41.72 Z14.88
 X-41.59 Z14.91
 X-41.47 Z14.93
 X-41.22 Z14.95
 X-40.97 Z14.97
 X-40.72
 X-40.65
 X-40.59
 X-40.47 Z14.96
 X-40.22 Z14.92
 X-40.09 Z14.90
 X-40.03
 X-39.97 Z14.88
 X-39.91 Z14.87
 X-39.84 Z14.86
 X-39.72 Z14.82
 X-39.47 Z14.72
 X-39.22 Z14.60
 X-39.09 Z14.54
 X-38.97 Z14.46
 X-38.72 Z14.29
 X-38.47 Z14.10
 X-38.22 Z13.90
 X-37.97 Z13.69
 X-37.72 Z13.48
 X-37.59 Z13.39
 X-37.47 Z13.30
 X-37.34 Z13.33
 X-37.28 Z13.35
 X-37.25
 X-37.22 Z13.36
 X-37.16
 X-37.09 Z13.37
 X-37.03
 X-36.97 Z13.36
 X-36.91 Z13.35
 X-36.84
 X-36.78 Z13.34
 X-36.75 Z13.33
 X-36.74 Z13.32
 X-36.72
 X-36.66 Z13.30
 X-36.63 Z13.29
 X-36.59 Z13.27
 X-36.53 Z13.24
 X-36.50 Z13.23
 X-36.49 Z13.22
 X-36.47 Z13.21
 X-36.41 Z13.17
 X-36.38 Z13.15
 X-36.34 Z13.12
 X-36.28 Z13.07
 X-36.25 Z13.04
 X-36.22 Z13.01
 X-36.16 Z12.94
 X-36.13 Z12.91
 X-36.11 Z12.89
 X-36.09 Z12.87
 X-36.06 Z12.83
 X-36.03 Z12.79
 X-36.00 Z12.74
 X-35.99 Z12.71
 X-35.98 Z12.70
 X-35.97 Z12.69
 Z12.68
 X-35.95 Z12.65
 X-35.93 Z12.60
 Z12.61
 X-35.92
 X-35.91 Z12.63
 X-35.88 Z12.67
 X-35.86 Z12.69
 X-35.85 Z12.71
 X-35.78 Z12.77
 X-35.72 Z12.83
 X-35.60 Z12.92
 X-35.53 Z12.97
 X-35.50 Z12.99
 X-35.49 Z13.00
 X-35.47 Z13.01
 X-35.41 Z13.05
 X-35.38 Z13.07
 X-35.35 Z13.08
 X-35.28 Z13.11
 X-35.25 Z13.12
 X-35.24
 X-35.22 Z13.13
 X-35.16 Z13.15
 X-35.13
 X-35.10 Z13.16
 X-35.03 Z13.17
 X-35.00
 X-34.97
 X-34.91
 X-34.85
 X-34.78 Z13.16
 X-34.72 Z13.15
 X-34.66 Z13.14
 X-34.60 Z13.13
 X-34.53 Z13.11
 X-34.50 Z13.10
 X-34.47 Z13.09
 X-34.22 Z12.97
 X-33.97 Z12.83
 X-33.91 Z12.78
 X-33.88 Z12.76
 X-33.86 Z12.75
 X-33.85 Z12.74
 Z12.73
 X-33.81 Z12.70
 X-33.80 Z12.69
 Z12.68
 X-33.79
 X-33.72 Z12.71
 X-33.47 Z12.82
 X-33.22 Z12.92
 X-32.97 Z13.05
 X-32.85 Z13.10
 X-32.78 Z13.13
 X-32.72 Z13.15
 X-32.47 Z13.21
 X-32.22 Z13.28
 X-31.97 Z13.37
 X-31.85 Z13.41
 X-31.72 Z13.46
 X-31.66 Z13.48
 X-31.60 Z13.51
 X-31.54 Z13.54
 X-31.47 Z13.58
 X-31.22 Z13.76
 X-30.97 Z13.93
 X-30.72 Z14.12
 X-30.47 Z14.32
 X-30.22 Z14.53
 X-29.97 Z14.75
 X-29.72 Z14.98
 X-29.47 Z15.20
 X-29.22 Z15.39
 X-28.97 Z15.56
 X-28.85 Z15.65
 X-28.79 Z15.69
 X-28.72 Z15.72
 X-28.66 Z15.76
 X-28.60 Z15.79
 X-28.47 Z15.84
 X-28.35 Z15.89
 X-28.29 Z15.91
 X-28.22 Z15.93
 X-28.10 Z15.96
 X-28.04 Z15.98
 X-28.01
 X-27.97 Z15.99
 X-27.91 Z16.00
 X-27.85
 X-27.72
 X-27.60 Z15.99
 X-27.47 Z15.97
 X-27.35 Z15.95
 X-27.22 Z15.92
 X-27.10 Z15.89
 X-27.04 Z15.87
 X-26.98 Z15.84
 X-26.85 Z15.79
 X-26.79 Z15.75
 X-26.73 Z15.72
 X-26.60 Z15.63
 X-26.54 Z15.58
 X-26.51 Z15.56
 X-26.48 Z15.53
 X-26.41 Z15.47
 X-26.35 Z15.41
 X-26.23 Z15.26
 X-25.98 Z14.91
 X-25.85 Z14.72
 X-25.73 Z14.53
 X-25.60 Z14.31
 X-25.54 Z14.19
 X-25.48 Z14.05
 X-25.35 Z13.73
 X-25.29 Z13.55
 X-25.23 Z13.33
 X-24.98 Z11.72
 X-24.85 Z10.87
 X-24.79 Z10.57
 X-24.73 Z10.31
 X-24.60 Z9.92
 X-24.54 Z9.75
 X-24.48 Z9.61
 X-24.35 Z9.36
 X-24.29 Z9.26
 X-24.23 Z9.15
 X-24.10 Z8.97
 X-23.98 Z8.83
 X-23.73 Z8.57
 X-23.48 Z8.34
 X-23.23 Z8.12
 X-22.98 Z7.92
 X-22.73 Z7.72
 X-22.48 Z7.53
 X-22.23 Z7.35
 X-21.98 Z7.19
 X-21.73 Z7.05
 X-21.48 Z6.92
 X-21.23 Z6.81
 X-20.98 Z6.71
 X-20.73 Z6.61
 X-20.48 Z6.51
 X-20.23 Z6.42
 X-19.98 Z6.33
 X-19.73 Z6.24
 X-19.48 Z6.15
 X-19.23 Z6.08
 X-18.98 Z6.00
 X-18.73 Z5.91
 X-18.48 Z5.82
 X-18.23 Z5.70
 X-17.98 Z5.56
 X-17.73 Z5.42
 X-17.48 Z5.27
 X-17.23 Z5.13
 X-16.98 Z4.99
 X-16.73 Z4.85
 X-16.48 Z4.72
 X-16.23 Z4.59
 X-15.98 Z4.48
 X-15.73 Z4.38
 X-15.48 Z4.28
 X-15.23 Z4.18
 X-15.17 Z4.14
 X-15.14 Z4.12
 X-15.12 Z4.11
 X-15.11
 Z4.10
 X-14.98 Z4.08
 X-14.73 Z4.03
 X-14.48 Z3.96
 X-14.23 Z3.91
 X-13.98 Z3.85
 X-13.73 Z3.80
 X-13.48 Z3.76
 X-13.23 Z3.72
 X-12.98 Z3.68
 X-12.73 Z3.65
 X-12.48 Z3.63
 X-12.23 Z3.61
 X-11.98 Z3.59
 X-11.73 Z3.58
 X-11.23 Z3.56
 X-10.98
 X-10.73
 X-10.48 Z3.57
 X-10.23
 X-9.98 Z3.59
 X-9.74 Z3.60
 X-9.49 Z3.62
 X-9.24 Z3.63
 X-8.99 Z3.65
 X-8.74 Z3.68
 X-8.49 Z3.70
 X-8.24 Z3.73
 X-7.99 Z3.76
 X-7.74 Z3.80
 X-7.49 Z3.83
 X-7.24 Z3.87
 X-6.99 Z3.90
 X-6.74 Z3.93
 X-6.49 Z3.96
 X-6.24 Z4.00
 X-5.99 Z4.02
 X-5.74 Z4.05
 X-5.49 Z4.08
 X-5.24 Z4.10
 X-4.99 Z4.13
 X-4.74 Z4.16
 X-4.49 Z4.21
 X-4.24 Z4.27
 X-3.99 Z4.35
 X-3.74 Z4.45
 X-3.61 Z4.52
 X-3.58 Z4.53
 X-3.57 Z4.54
 X-3.56
 X-3.55
 X-3.52 Z4.56
 X-3.49 Z4.58
 X-3.36 Z4.68
 X-3.30 Z4.73
 X-3.24 Z4.79
 X-3.11 Z4.91
 X-3.05 Z4.99
 X-2.99 Z5.06
 X-2.93 Z5.16
 X-2.86 Z5.26
 X-2.80 Z5.37
 X-2.77 Z5.44
 X-2.76 Z5.45
 X-2.75 Z5.47
 X-2.74 Z5.51
 X-2.68 Z8.43
 X-2.61 Z8.91
 X-2.49 Z9.64
 X-2.36 Z10.16
 X-2.30 Z10.40
 X-2.27 Z10.51
 X-2.25 Z10.56
 X-2.24 Z10.62
 X-2.18 Z10.82
 X-2.11 Z10.97
 X-1.99 Z11.23
 X-1.93 Z11.34
 X-1.86 Z11.46
 X-1.80 Z11.56
 X-1.74 Z11.64
 X-1.49 Z11.94
 X-1.36 Z12.08
 X-1.24 Z12.23
 X-0.99 Z12.47
G0 Z25.00
 Y-12.97
G1 Z11.99
 X-1.05 Z11.87
 X-1.11 Z11.74
 X-1.15 Z11.67
 X-1.16 Z11.64
 X-1.18 Z11.60
 X-1.21 Z11.52
 X-1.24 Z11.41
 X-1.49 Z9.71
 X-1.61 Z7.91
 X-1.68 Z7.17
 X-1.71 Z6.88
 X-1.72 Z6.72
 X-1.73 Z6.64
 X-1.74 Z6.57
 X-1.80 Z6.26
 X-1.86 Z6.04
 X-1.93 Z5.85
 X-1.99 Z5.69
 X-2.05 Z5.54
 X-2.11 Z5.41
 X-2.18 Z5.29
 X-2.21 Z5.24
 X-2.24 Z5.19
 X-2.30 Z5.11
 X-2.36 Z5.04
 Z5.03
 X-2.49 Z4.91
 X-2.61 Z4.80
 X-2.74 Z4.70
 X-2.86 Z4.63
 X-2.97 Z4.57
 X-2.99 Z4.56
 X-3.24 Z4.48
 X-3.49 Z4.43
 X-3.74 Z4.37
 X-3.99 Z4.32
 X-4.24 Z4.27
 X-4.49 Z4.24
 X-4.74 Z4.20
 X-4.99 Z4.18
 X-5.24 Z4.15
 X-5.49 Z4.13
 X-5.99 Z4.09
 X-6.24 Z4.06
 X-6.49 Z4.04
 X-6.74 Z4.02
 X-6.99 Z4.00
 X-7.24 Z3.97
 X-7.49 Z3.95
 X-7.74 Z3.92
 X-7.99 Z3.89
 X-8.24 Z3.88
 X-8.49 Z3.85
 X-8.61 Z3.84
 X-8.64 Z3.83
 X-8.66
 X-8.67
 X-8.74 Z3.82
 X-8.86 Z3.83
 X-8.99 Z3.82
 X-9.24 Z3.80
 X-9.49
 X-9.74
 X-9.98 Z3.79
 X-10.23
 X-10.36
 X-10.42 Z3.78
 X-10.45
 X-10.48
 X-10.61 Z3.75
 X-10.64
 X-10.66 Z3.74
 X-10.67
 X-10.69 Z3.73
 X-10.70
 Z3.72
 X-10.71
 X-10.72
 X-10.73 Z3.73
 X-10.80 Z3.75
 X-10.83 Z3.76
 X-10.86
 X-10.92 Z3.78
 X-10.98 Z3.79
 X-11.23 Z3.80
 X-11.48 Z3.81
 X-11.73 Z3.82
 X-11.98 Z3.84
 X-12.23 Z3.86
 X-12.48 Z3.87
 X-12.73 Z3.88
 X-12.80
 X-12.83
 X-12.84
 X-12.86
 X-12.98 Z3.90
 X-13.23 Z3.96
 X-13.48 Z4.00
 X-13.73 Z4.03
 X-13.98 Z4.08
 X-14.23 Z4.14
 X-14.48 Z4.20
 X-14.73 Z4.27
 X-14.98 Z4.34
 X-15.23 Z4.42
 X-15.48 Z4.51
 X-15.73 Z4.61
 X-15.98 Z4.72
 X-16.23 Z4.84
 X-16.48 Z4.96
 X-16.73 Z5.09
 X-16.98 Z5.22
 X-17.23 Z5.36
 X-17.48 Z5.50
 X-17.73 Z5.64
 X-17.98 Z5.78
 X-18.23 Z5.90
 X-18.48 Z6.00
 X-18.98 Z6.19
 X-19.23 Z6.28
 X-19.48 Z6.37
 X-19.73 Z6.47
 X-19.98 Z6.56
 X-20.23 Z6.64
 X-20.48 Z6.70
 X-20.73 Z6.78
 X-20.98 Z6.87
 X-21.23 Z6.96
 X-21.48 Z7.04
 X-21.73 Z7.14
 X-21.98 Z7.24
 X-22.23 Z7.36
 X-22.48 Z7.49
 X-22.73 Z7.63
 X-22.98 Z7.81
 X-23.23 Z7.99
 X-23.48 Z8.15
 X-23.73 Z8.29
 X-23.85 Z8.36
 X-23.98 Z8.43
 X-24.04 Z8.46
 X-24.10 Z8.50
 X-24.23 Z8.60
 X-24.35 Z8.70
 X-24.48 Z8.81
 X-24.60 Z8.95
 X-24.73 Z9.10
 X-24.85 Z9.29
 X-24.91 Z9.38
 X-24.98 Z9.49
 X-25.10 Z9.73
 X-25.16 Z9.88
 X-25.23 Z10.04
 X-25.48 Z10.89
 X-25.73 Z12.00
 X-25.98 Z13.00
 X-26.10 Z13.44
 X-26.23 Z13.79
 X-26.35 Z14.08
 X-26.41 Z14.20
 X-26.48 Z14.33
 X-26.60 Z14.53
 X-26.66 Z14.62
 X-26.69 Z14.67
 X-26.71 Z14.70
 X-26.73 Z14.72
 X-26.79 Z14.79
 X-26.82 Z14.82
 X-26.83 Z14.84
 X-26.85 Z14.85
 X-26.91 Z14.91
 X-27.04 Z15.01
 X-27.07 Z15.03
 X-27.08 Z15.04
 X-27.10 Z15.05
 X-27.13 Z15.07
 X-27.16 Z15.09
 X-27.19 Z15.11
 X-27.22 Z15.13
 X-27.35 Z15.17
 X-27.44 Z15.20
 X-27.47
 X-27.54 Z15.22
 X-27.57 Z15.23
 X-27.60
 X-27.66 Z15.24
 X-27.72 Z15.25
 X-27.79
 X-27.82
 X-27.85
 X-27.91
 X-27.94
 X-27.97 Z15.24
 X-28.10 Z15.22
 X-28.16 Z15.20
 X-28.22 Z15.17
 X-28.47 Z15.07
 X-28.72 Z14.93
 X-28.97 Z14.78
 X-29.22 Z14.61
 X-29.47 Z14.43
 X-29.72 Z14.25
 X-29.97 Z14.05
 X-30.22 Z13.85
 X-30.47 Z13.67
 X-30.72 Z13.50
 X-30.97 Z13.33
 X-31.22 Z13.17
 X-31.47 Z13.03
 X-31.72 Z12.90
 X-31.85 Z12.84
 X-31.97 Z12.78
 X-32.10 Z12.74
 X-32.16 Z12.72
 X-32.19 Z12.71
 X-32.22 Z12.70
 X-32.35 Z12.72
 X-32.41 Z12.73
 X-32.44 Z12.74
 X-32.47
 X-32.60
 X-32.66
 X-32.72 Z12.73
 X-32.78
 X-32.85 Z12.72
 X-32.91 Z12.71
 X-32.94 Z12.70
 X-32.97 Z12.69
 X-33.03 Z12.67
 X-33.10 Z12.65
 X-33.16 Z12.62
 X-33.22 Z12.58
 X-33.35 Z12.51
 X-33.41 Z12.47
 X-33.44 Z12.45
 X-33.46 Z12.44
 Z12.43
 X-33.47
 Z12.42
 X-33.60 Z12.56
 X-33.66 Z12.63
 X-33.69 Z12.66
 X-33.71 Z12.67
 X-33.72 Z12.69
 X-33.78 Z12.74
 X-33.81 Z12.76
 X-33.85 Z12.78
 X-33.91 Z12.82
 X-33.94 Z12.84
 X-33.97 Z12.85
 X-34.22 Z12.94
 X-34.35 Z12.98
 X-34.41 Z13.00
 X-34.44 Z13.01
 X-34.47 Z13.02
 X-34.53 Z13.03
 X-34.60 Z13.04
 X-34.66
 X-34.72
 X-34.85 Z13.03
 X-34.91
 X-34.94 Z13.02
 X-34.97
 X-35.03 Z13.01
 X-35.06 Z13.00
 X-35.10
 X-35.16 Z12.98
 X-35.19 Z12.97
 X-35.20 Z12.96
 X-35.22
 X-35.28 Z12.93
 X-35.35 Z12.90
 X-35.41 Z12.86
 X-35.44 Z12.84
 X-35.47 Z12.82
 X-35.53 Z12.78
 X-35.56 Z12.76
 X-35.60 Z12.73
 X-35.72 Z12.61
 X-35.78 Z12.54
 X-35.81 Z12.49
 X-35.83 Z12.47
 X-35.84 Z12.46
 Z12.45
 X-35.91 Z12.35
 X-35.92 Z12.32
 X-35.93 Z12.31
 Z12.30
 X-35.94
 Z12.29
 X-35.97 Z12.35
 X-36.03 Z12.47
 X-36.09 Z12.58
 X-36.16 Z12.67
 X-36.19 Z12.71
 X-36.20 Z12.74
 X-36.21 Z12.75
 X-36.22 Z12.76
 X-36.28 Z12.83
 X-36.31 Z12.86
 X-36.34 Z12.88
 X-36.41 Z12.93
 X-36.47 Z12.98
 X-36.59 Z13.05
 X-36.66 Z13.08
 X-36.69 Z13.10
 X-36.72 Z13.11
 X-36.78 Z13.14
 X-36.84 Z13.16
 X-36.91 Z13.17
 X-36.94 Z13.18
 X-36.97
 X-37.03 Z13.19
 X-37.09 Z13.20
 X-37.16
 X-37.19
 X-37.22 Z13.19
 X-37.28
 X-37.34 Z13.18
 X-37.47 Z13.15
 X-37.53 Z13.13
 X-37.59 Z13.11
 X-37.66 Z13.09
 X-37.69 Z13.08
 X-37.70 Z13.07
 X-37.71
 X-37.72
 X-37.73 Z13.06
 X-37.74 Z13.05
 X-37.75
 X-37.78 Z13.07
 X-37.81 Z13.10
 X-37.84 Z13.13
 X-37.97 Z13.22
 X-38.22 Z13.43
 X-38.47 Z13.63
 X-38.72 Z13.82
 X-38.97 Z13.99
 X-39.22 Z14.17
 X-39.34 Z14.26
 X-39.47 Z14.35
 X-39.72 Z14.50
 X-39.84 Z14.57
 X-39.91 Z14.60
 X-39.97 Z14.63
 X-40.22 Z14.71
 X-40.47 Z14.78
 X-40.59 Z14.82
 X-40.65 Z14.83
 X-40.69 Z14.84
 X-40.72
 X-40.97 Z14.85
 X-41.09
 X-41.15
 X-41.22
 X-41.47 Z14.81
 X-41.72 Z14.77
 X-41.97 Z14.72
 X-42.19 Z14.68
 X-42.22 Z14.67
 X-42.28 Z14.66
 X-42.34 Z14.64
 X-42.47 Z14.59
 X-42.59 Z14.53
 X-42.72 Z14.47
 X-42.97 Z14.32
G0 Z25.00
 Y-12.19
G1 Z13.99
 X-42.84 Z14.07
 X-42.78 Z14.11
 X-42.75 Z14.13
 X-42.72 Z14.15
 X-42.65 Z14.19
 X-42.62 Z14.20
 X-42.59 Z14.22
 X-42.47 Z14.26
 X-42.22 Z14.33
 X-41.97 Z14.38
 X-41.84 Z14.40
 X-41.78 Z14.41
 X-41.72 Z14.42
 X-41.47 Z14.43
 X-41.34
 X-41.22
 X-41.15 Z14.42
 X-41.12
 X-41.09
 X-41.03 Z14.41
 X-40.97 Z14.40
 X-40.72 Z14.32
 X-40.59 Z14.28
 X-40.53 Z14.25
 X-40.47 Z14.23
 X-40.22 Z14.10
 X-39.97 Z13.97
 X-39.72 Z13.82
 X-39.47 Z13.68
 X-39.22 Z13.52
 X-38.97 Z13.37
 X-38.72 Z13.22
 X-38.47 Z13.06
 X-38.34 Z12.98
 X-38.28 Z12.94
 X-38.25 Z12.91
 X-38.23 Z12.90
 X-38.09 Z12.79
 X-38.03 Z12.82
 X-38.00 Z12.84
 X-37.97 Z12.85
 X-37.84 Z12.91
 X-37.72 Z12.95
 X-37.59 Z12.98
 X-37.53 Z12.99
 X-37.50 Z13.00
 X-37.47
 X-37.41 Z13.01
 X-37.34
 X-37.28
 X-37.22 Z13.00
 X-37.16
 X-37.09 Z12.99
 X-37.03 Z12.98
 X-37.00
 X-36.97 Z12.97
 X-36.91 Z12.95
 X-36.84 Z12.93
 X-36.78 Z12.90
 X-36.75 Z12.89
 X-36.72 Z12.87
 X-36.66 Z12.84
 X-36.59 Z12.80
 X-36.53 Z12.76
 X-36.50 Z12.73
 X-36.49 Z12.72
 X-36.48
 X-36.47 Z12.71
 X-36.22 Z12.59
 X-36.16 Z12.58
 X-36.13 Z12.57
 X-36.11 Z12.56
 X-36.09
 X-35.97 Z12.50
 X-35.91 Z12.45
 X-35.88 Z12.42
 X-35.86 Z12.41
 X-35.85 Z12.40
 Z12.39
 X-35.81 Z12.36
 X-35.80 Z12.34
 X-35.79 Z12.33
 Z12.32
 X-35.78
 X-35.77 Z12.30
 Z12.29
 X-35.76
 Z12.30
 X-35.75 Z12.31
 X-35.74 Z12.33
 X-35.72 Z12.35
 X-35.66 Z12.41
 X-35.63 Z12.44
 X-35.60 Z12.47
 X-35.53 Z12.52
 X-35.47 Z12.56
 X-35.41 Z12.61
 X-35.38 Z12.63
 X-35.35 Z12.65
 X-35.22 Z12.72
 X-34.97 Z12.83
 X-34.85 Z12.89
 X-34.78 Z12.92
 X-34.75 Z12.93
 X-34.72 Z12.94
 X-34.66 Z12.96
 X-34.60 Z12.97
 X-34.53 Z12.99
 X-34.50
 X-34.47
 X-34.41 Z13.00
 X-34.35
 X-34.28 Z12.99
 X-34.25
 X-34.24
 X-34.22 Z12.98
 X-34.16 Z12.97
 X-34.13 Z12.96
 X-34.10
 X-34.03 Z12.94
 X-34.00 Z12.92
 X-33.97 Z12.91
 X-33.85 Z12.84
 X-33.78 Z12.81
 X-33.75 Z12.79
 X-33.74 Z12.78
 X-33.72 Z12.77
 X-33.66 Z12.72
 X-33.63 Z12.69
 X-33.60 Z12.66
 X-33.53 Z12.59
 X-33.50 Z12.55
 X-33.49 Z12.53
 X-33.48 Z12.52
 Z12.51
 X-33.47
 Z12.50
 X-33.41 Z12.41
 X-33.38 Z12.36
 X-33.35 Z12.37
 X-33.28 Z12.40
 X-33.25 Z12.41
 X-33.22 Z12.42
 X-33.10 Z12.46
 X-33.03 Z12.47
 X-33.00 Z12.48
 X-32.97
 X-32.91 Z12.49
 X-32.85
 X-32.78
 X-32.75
 X-32.72
 X-32.66
 X-32.60 Z12.48
 X-32.47 Z12.45
 X-32.41 Z12.43
 X-32.35 Z12.41
 X-32.28 Z12.39
 X-32.25 Z12.38
 X-32.22 Z12.37
 X-32.16 Z12.34
 X-32.13 Z12.32
 X-32.10 Z12.30
 X-32.03 Z12.26
 X-32.00 Z12.24
 X-31.99 Z12.23
 X-31.98
 Z12.22
 X-31.96 Z12.21
 X-31.95
 X-31.94 Z12.20
 X-31.93
 Z12.19
 X-31.92
 X-31.88 Z12.21
 X-31.85 Z12.22
 X-31.72 Z12.27
 X-31.47 Z12.38
 X-31.22 Z12.51
 X-30.97 Z12.65
 X-30.72 Z12.81
 X-30.47 Z12.97
 X-30.22 Z13.14
 X-29.97 Z13.31
 X-29.72 Z13.47
 X-29.47 Z13.62
 X-29.22 Z13.74
 X-28.97 Z13.85
 X-28.72 Z13.95
 X-28.63 Z13.99
 X-28.60 Z14.00
 X-28.47 Z14.04
 X-28.35 Z14.07
 X-28.29 Z14.09
 X-28.26 Z14.10
 X-28.24
 X-28.22
 X-28.16 Z14.11
 X-28.13
 X-28.10 Z14.12
 X-28.04
 X-27.91 Z14.11
 X-27.88
 X-27.87
 X-27.85
 X-27.82 Z14.10
 X-27.79 Z14.09
 X-27.76 Z14.08
 X-27.72 Z14.07
 X-27.66 Z14.05
 X-27.63 Z14.03
 X-27.60 Z14.01
 X-27.51 Z13.96
 X-27.49 Z13.95
 X-27.47 Z13.94
 X-27.44 Z13.91
 X-27.41 Z13.89
 X-27.38 Z13.86
 X-27.35 Z13.83
 X-27.29 Z13.76
 X-27.26 Z13.73
 X-27.24 Z13.71
 X-27.22 Z13.69
 X-27.10 Z13.52
 X-27.04 Z13.43
 X-26.98 Z13.32
 X-26.73 Z12.80
 X-26.48 Z12.14
 X-26.23 Z11.32
 X-26.10 Z10.88
 X-25.98 Z10.49
 X-25.85 Z10.16
 X-25.73 Z9.87
 X-25.60 Z9.62
 X-25.48 Z9.40
 X-25.35 Z9.20
 X-25.32 Z9.15
 X-25.29 Z9.11
 X-25.23 Z9.03
 X-25.10 Z8.89
 X-25.04 Z8.83
 X-25.01 Z8.79
 X-24.98 Z8.76
 X-24.91 Z8.71
 X-24.88 Z8.68
 X-24.85 Z8.66
 X-24.73 Z8.58
 X-24.48 Z8.43
 X-24.35 Z8.37
 X-24.29 Z8.34
 X-24.23 Z8.31
 X-23.98 Z8.23
 X-23.73 Z8.14
 X-23.60 Z8.09
 X-23.48 Z8.04
 X-23.23 Z7.90
 X-22.98 Z7.76
 X-22.73 Z7.65
 X-22.48 Z7.55
 X-22.23 Z7.46
 X-21.98 Z7.37
 X-21.73 Z7.28
 X-21.48 Z7.20
 X-21.23 Z7.11
 X-20.98 Z7.04
 X-20.73 Z6.97
 X-20.48 Z6.91
 X-20.29 Z6.88
 X-20.23 Z6.86
 X-19.98 Z6.78
 X-19.73 Z6.69
 X-19.48 Z6.57
 X-19.23 Z6.47
 X-18.98 Z6.38
 X-18.73 Z6.28
 X-18.48 Z6.18
 X-18.23 Z6.08
 X-17.98 Z5.98
 X-17.73 Z5.86
 X-17.48 Z5.73
 X-17.23 Z5.60
 X-16.98 Z5.47
 X-16.73 Z5.33
 X-16.48 Z5.21
 X-16.23 Z5.08
 X-15.98 Z4.98
 X-15.73 Z4.87
 X-15.48 Z4.78
 X-15.23 Z4.68
 X-14.98 Z4.61
 X-14.73 Z4.54
 X-14.48 Z4.47
 X-14.23 Z4.41
 X-13.98 Z4.36
 X-13.73 Z4.31
 X-13.48 Z4.27
 X-13.23 Z4.23
 X-12.98 Z4.19
 X-12.73 Z4.16
 X-12.48 Z4.13
 X-12.23 Z4.10
 X-11.98 Z4.08
 X-11.73 Z4.06
 X-11.48 Z4.04
 X-11.23 Z4.03
 X-10.98 Z4.02
 X-10.73 Z4.01
 X-10.48 Z4.00
 X-10.23 Z3.99
 X-9.98
 X-9.74 Z3.98
 X-9.49
 X-9.24
 X-8.99
 X-8.74 Z3.99
 X-8.49 Z4.01
 X-8.24 Z4.03
 X-7.99 Z4.04
 X-7.74 Z4.06
 X-7.49 Z4.07
 X-7.24 Z4.09
 X-6.99 Z4.10
 X-6.74 Z4.12
 X-6.49 Z4.13
 X-6.24 Z4.14
 X-5.74 Z4.17
 X-5.49 Z4.19
 X-5.24 Z4.21
 X-4.99 Z4.24
 X-4.74 Z4.26
 X-4.49 Z4.29
 X-4.24 Z4.31
 X-3.99 Z4.35
 X-3.74 Z4.39
 X-3.49 Z4.43
 X-3.24 Z4.48
 X-2.99 Z4.53
 X-2.74 Z4.58
 X-2.49 Z4.64
 X-2.36 Z4.67
 X-2.30 Z4.69
 X-2.24 Z4.71
 X-2.18 Z4.74
 X-2.13 Z4.76
 X-2.11 Z4.77
 X-2.07 Z4.79
 X-2.05 Z4.81
 X-2.01 Z4.84
 X-1.99 Z4.85
 X-1.86 Z4.99
 X-1.80 Z5.05
 X-1.74 Z5.13
 X-1.68 Z5.22
 X-1.61 Z5.31
 X-1.55 Z5.42
 X-1.52 Z5.47
 X-1.51 Z5.50
 X-1.49 Z5.53
 X-1.43 Z5.65
 X-1.40 Z5.72
 X-1.36 Z5.80
 X-1.30 Z5.99
 X-1.24 Z6.23
 X-0.99 Z8.36
G0 Z25.00
 Y-11.40
G1 Z5.48
 X-1.05 Z5.36
 X-1.07 Z5.33
 X-1.08 Z5.30
 X-1.11 Z5.25
 X-1.18 Z5.16
 X-1.19 Z5.14
 X-1.20 Z5.13
 X-1.21 Z5.12
 X-1.22 Z5.10
 X-1.24 Z5.08
 X-1.30 Z5.04
 X-1.40 Z4.97
 X-1.41 Z4.96
 X-1.43
 X-1.49 Z4.93
 X-1.74 Z4.84
 X-1.99 Z4.77
 X-2.24 Z4.71
 X-2.49 Z4.66
 X-2.74 Z4.61
 X-2.99 Z4.57
 X-3.24 Z4.54
 X-3.49 Z4.50
 X-3.74 Z4.47
 X-3.99 Z4.44
 X-4.24 Z4.41
 X-4.49 Z4.39
 X-4.74 Z4.36
 X-5.24 Z4.32
 X-5.49 Z4.30
 X-5.74 Z4.28
 X-5.99 Z4.26
 X-6.24 Z4.25
 X-6.49 Z4.24
 X-6.74 Z4.22
 X-6.99 Z4.21
 X-7.99 Z4.16
 X-8.24 Z4.15
 X-8.49
 X-8.74 Z4.14
 X-8.99
 X-9.24
 X-9.49
 X-9.74 Z4.15
 X-9.98 Z4.17
 X-10.23 Z4.18
 X-10.48 Z4.21
 X-10.73 Z4.24
 X-10.98 Z4.26
 X-11.23 Z4.28
 X-11.48 Z4.31
 X-11.73 Z4.33
 X-11.98 Z4.36
 X-12.23 Z4.40
 X-12.48 Z4.44
 X-12.73 Z4.48
 X-12.98 Z4.52
 X-13.23 Z4.58
 X-13.48 Z4.63
 X-13.73 Z4.68
 X-13.98 Z4.75
 X-14.23 Z4.81
 X-14.48 Z4.88
 X-14.73 Z4.94
 X-14.98 Z5.02
 X-15.23 Z5.10
 X-15.48 Z5.18
 X-15.73 Z5.26
 X-15.98 Z5.35
 X-16.23 Z5.44
 X-16.48 Z5.54
 X-16.73 Z5.64
 X-16.98 Z5.74
 X-17.23 Z5.85
 X-17.48 Z5.96
 X-17.73 Z6.07
 X-17.98 Z6.17
 X-18.23 Z6.27
 X-18.48 Z6.37
 X-18.73 Z6.46
 X-18.98 Z6.56
 X-19.23 Z6.65
 X-19.48 Z6.75
 X-19.73 Z6.84
 X-19.98 Z6.92
 X-20.23 Z7.00
 X-20.48 Z7.07
 X-20.73 Z7.13
 X-20.98 Z7.19
 X-21.23 Z7.26
 X-21.48 Z7.34
 X-21.73 Z7.41
 X-21.98 Z7.48
 X-22.23 Z7.56
 X-22.48 Z7.64
 X-22.98 Z7.80
 X-23.23 Z7.88
 X-23.48 Z7.98
 X-23.73 Z8.07
 X-23.98 Z8.15
 X-24.23 Z8.21
 X-24.48 Z8.27
 X-24.73 Z8.36
 X-24.98 Z8.46
 X-25.10 Z8.52
 X-25.16 Z8.55
 X-25.23 Z8.58
 X-25.35 Z8.67
 X-25.41 Z8.71
 X-25.48 Z8.76
 X-25.54 Z8.81
 X-25.60 Z8.86
 X-25.66 Z8.92
 X-25.73 Z8.98
 X-25.85 Z9.13
 X-25.98 Z9.29
 X-26.10 Z9.47
 X-26.23 Z9.69
 X-26.48 Z10.23
 X-26.73 Z10.84
 X-26.98 Z11.44
 X-27.10 Z11.70
 X-27.22 Z11.94
 X-27.35 Z12.14
 X-27.41 Z12.24
 X-27.44 Z12.29
 X-27.46 Z12.31
 X-27.47 Z12.33
 Z12.34
 X-27.54 Z12.42
 X-27.57 Z12.45
 X-27.60 Z12.48
 X-27.66 Z12.54
 X-27.72 Z12.59
 X-27.79 Z12.64
 X-27.82 Z12.67
 X-27.83 Z12.68
 X-27.84
 X-27.85 Z12.69
 X-27.88 Z12.71
 X-27.90
 X-27.91 Z12.72
 X-27.97 Z12.75
 X-28.10 Z12.79
 X-28.16 Z12.80
 X-28.19 Z12.81
 X-28.22 Z12.82
 X-28.47 Z12.84
 X-28.72
 X-28.85
 X-28.94 Z12.83
 X-28.97
 X-29.10 Z12.81
 X-29.22 Z12.79
 X-29.47 Z12.72
 X-29.60 Z12.68
 X-29.72 Z12.64
 X-29.97 Z12.52
 X-30.22 Z12.38
 X-30.47 Z12.23
 X-30.72 Z12.08
 X-30.85 Z12.00
 X-30.91 Z11.97
 X-31.07 Z11.87
 X-31.08 Z11.86
 X-31.10 Z11.87
 X-31.16 Z11.92
 X-31.19 Z11.95
 X-31.21 Z11.96
 X-31.22 Z11.97
 X-31.29 Z12.02
 X-31.35 Z12.05
 X-31.41 Z12.09
 X-31.44 Z12.10
 X-31.47 Z12.11
 X-31.72 Z12.19
 X-31.97 Z12.25
 X-32.10 Z12.28
 X-32.16 Z12.30
 X-32.19
 X-32.22 Z12.31
 X-32.47 Z12.33
 X-32.60 Z12.34
 X-32.66
 X-32.69
 X-32.72
 X-32.78
 X-32.85
 X-32.91 Z12.33
 X-32.94 Z12.32
 X-32.96
 X-32.97
 X-33.03 Z12.30
 X-33.07 Z12.29
 X-33.10 Z12.28
 X-33.16 Z12.25
 X-33.19 Z12.24
 X-33.21 Z12.23
 X-33.22 Z12.22
 X-33.28 Z12.19
 X-33.30 Z12.18
 X-33.31 Z12.17
 X-33.33 Z12.16
 X-33.35 Z12.19
 X-33.41 Z12.32
 X-33.44 Z12.38
 X-33.46 Z12.41
 X-33.47 Z12.44
 X-33.53 Z12.53
 X-33.60 Z12.61
 X-33.66 Z12.69
 X-33.69 Z12.72
 X-33.71 Z12.74
 X-33.72 Z12.76
 X-33.78 Z12.81
 X-33.81 Z12.84
 X-33.85 Z12.86
 X-33.91 Z12.90
 X-33.94 Z12.92
 X-33.97 Z12.93
 X-34.10 Z12.99
 X-34.16 Z13.01
 X-34.19 Z13.02
 X-34.22 Z13.03
 X-34.28 Z13.05
 X-34.35 Z13.06
 X-34.41 Z13.07
 X-34.44
 X-34.47
 X-34.60
 X-34.72 Z13.06
 X-34.85 Z13.04
 X-34.91 Z13.03
 X-34.94 Z13.02
 X-34.95
 X-34.96
 X-34.97 Z13.01
 X-35.10 Z13.00
 X-35.16
 X-35.19
 X-35.22
 X-35.28 Z12.99
 X-35.35
 X-35.47 Z12.96
 X-35.60 Z12.93
 X-35.66 Z12.91
 X-35.67 Z12.90
 X-35.68
 X-35.69 Z12.89
 X-35.70
 X-35.71
 Z12.88
 X-35.72
 Z12.89
 X-35.78 Z12.93
 X-35.81 Z12.94
 X-35.85 Z12.96
 X-35.91 Z12.99
 X-35.94 Z13.00
 X-35.95
 X-35.97 Z13.01
 X-36.03 Z13.03
 X-36.06 Z13.04
 X-36.09
 X-36.16 Z13.05
 X-36.19 Z13.06
 X-36.20
 X-36.22
 X-36.28
 X-36.31
 X-36.34
 X-36.41 Z13.05
 X-36.44
 X-36.45 Z13.04
 X-36.47
 X-36.53 Z13.03
 X-36.56 Z13.02
 X-36.59 Z13.01
 X-36.66 Z12.99
 X-36.69 Z12.97
 X-36.70 Z12.96
 X-36.72
 X-36.78 Z12.92
 X-36.81 Z12.90
 X-36.84 Z12.88
 X-36.91 Z12.84
 X-36.94 Z12.81
 X-36.95 Z12.80
 X-36.96 Z12.79
 X-36.97
 Z12.78
 X-37.09 Z12.80
 X-37.16 Z12.81
 X-37.19
 X-37.22 Z12.82
 X-37.28
 X-37.34
 X-37.41
 X-37.44
 X-37.47 Z12.81
 X-37.53 Z12.80
 X-37.59 Z12.79
 X-37.72 Z12.75
 X-37.84 Z12.70
 X-37.91 Z12.68
 X-37.94 Z12.66
 X-37.95 Z12.65
 X-37.97
 X-38.03 Z12.61
 X-38.06 Z12.59
 X-38.09 Z12.57
 X-38.16 Z12.52
 X-38.19 Z12.49
 X-38.20 Z12.47
 X-38.21
 Z12.46
 X-38.22
 X-38.28 Z12.40
 X-38.30 Z12.38
 Z12.37
 X-38.31
 Z12.36
 X-38.32 Z12.35
 X-38.34 Z12.36
 X-38.47 Z12.44
 X-38.59 Z12.51
 X-38.72 Z12.58
 X-38.97 Z12.69
 X-39.22 Z12.80
 X-39.47 Z12.91
 X-39.72 Z13.01
 X-39.97 Z13.12
 X-40.22 Z13.22
 X-40.47 Z13.32
 X-40.72 Z13.42
 X-40.84 Z13.46
 X-40.97 Z13.50
 X-41.09 Z13.53
 X-41.15 Z13.54
 X-41.22 Z13.56
 X-41.47 Z13.58
 X-41.70
 X-41.72
 X-41.97 Z13.54
 X-42.15 Z13.50
 X-42.19 Z13.49
 X-42.20 Z13.48
 X-42.22
 X-42.28 Z13.45
 X-42.34 Z13.42
 X-42.40 Z13.39
 X-42.44 Z13.37
 X-42.47 Z13.36
 X-42.53 Z13.32
 X-42.56 Z13.29
 X-42.59 Z13.27
 X-42.72 Z13.15
 X-42.97 Z12.88
G0 Z25.00
 Y-10.62
G1 Z11.09
 X-42.84 Z11.32
 X-42.72 Z11.52
 X-42.53 Z11.76
 X-42.50 Z11.80
 X-42.48 Z11.82
 X-42.47 Z11.84
 X-42.40 Z11.91
 X-42.37 Z11.93
 X-42.34 Z11.96
 X-42.22 Z12.06
 X-42.11 Z12.14
 X-42.09 Z12.15
 X-41.97 Z12.23
 X-41.84 Z12.29
 X-41.73 Z12.34
 X-41.72 Z12.35
 X-41.65 Z12.38
 X-41.62
 X-41.59 Z12.39
 X-41.47 Z12.41
 X-41.31 Z12.44
 X-41.28
 X-41.22 Z12.45
 X-41.09 Z12.44
 X-40.97
 X-40.72 Z12.40
 X-40.47 Z12.35
 X-40.22 Z12.28
 X-39.97 Z12.21
 X-39.72 Z12.14
 X-39.47 Z12.07
 X-39.22 Z12.01
 X-38.97 Z11.95
 X-38.72 Z11.87
 X-38.59 Z11.82
 X-38.53 Z11.80
 X-38.47 Z11.78
 X-38.41 Z11.76
 X-38.40 Z11.75
 X-38.39
 X-38.38
 Z11.74
 X-38.37 Z11.75
 X-38.34 Z11.82
 X-38.28 Z11.93
 X-38.25 Z11.99
 X-38.22 Z12.04
 X-38.09 Z12.21
 X-38.03 Z12.29
 X-38.00 Z12.32
 X-37.98 Z12.34
 X-37.97 Z12.36
 X-37.91 Z12.41
 X-37.88 Z12.44
 X-37.84 Z12.46
 X-37.78 Z12.50
 X-37.72 Z12.53
 X-37.59 Z12.59
 X-37.53 Z12.62
 X-37.47 Z12.64
 X-37.22 Z12.71
 X-36.97 Z12.76
 X-36.84 Z12.77
 X-36.79
 X-36.78
 X-36.72 Z12.78
 X-36.66 Z12.80
 X-36.59 Z12.82
 X-36.53 Z12.84
 X-36.50
 X-36.49 Z12.85
 X-36.47
 X-36.41 Z12.86
 X-36.38
 X-36.34
 X-36.28
 X-36.25
 X-36.24
 X-36.23
 X-36.22 Z12.85
 X-36.16
 X-36.13 Z12.84
 X-36.11
 X-36.10
 Z12.83
 X-36.09
 X-35.97 Z12.89
 X-35.72 Z13.00
 X-35.47 Z13.10
 X-35.41 Z13.13
 X-35.38 Z13.14
 X-35.35 Z13.15
 X-35.28 Z13.17
 X-35.25
 X-35.24 Z13.18
 X-35.22
 X-35.16 Z13.19
 X-35.13
 X-35.10 Z13.20
 X-35.03
 X-35.00
 X-34.99
 X-34.97 Z13.19
 X-34.91
 X-34.88 Z13.18
 X-34.85
 X-34.78 Z13.16
 X-34.75 Z13.15
 X-34.74
 X-34.72 Z13.14
 X-34.66 Z13.12
 X-34.63 Z13.11
 X-34.60 Z13.09
 X-34.53 Z13.06
 X-34.50 Z13.04
 X-34.49 Z13.03
 X-34.48 Z13.02
 X-34.47
 X-34.41 Z13.01
 X-34.38 Z13.00
 X-34.35 Z12.99
 X-34.28 Z12.97
 X-34.25 Z12.96
 X-34.24
 X-34.22 Z12.95
 X-34.16 Z12.92
 X-34.13 Z12.91
 X-34.10 Z12.89
 X-34.03 Z12.85
 X-34.00 Z12.83
 X-33.99 Z12.81
 X-33.97 Z12.80
 X-33.91 Z12.75
 X-33.85 Z12.68
 X-33.78 Z12.61
 X-33.75 Z12.57
 X-33.74 Z12.55
 X-33.73 Z12.54
 X-33.72 Z12.53
 X-33.66 Z12.44
 X-33.63 Z12.39
 X-33.60 Z12.33
 X-33.53 Z12.19
 X-33.50 Z12.11
 X-33.49 Z12.07
 X-33.48 Z12.05
 Z12.04
 X-33.47 Z12.03
 X-33.41 Z11.82
 X-33.39 Z11.73
 X-33.38 Z11.74
 X-33.35 Z11.79
 X-33.32 Z11.82
 X-33.28 Z11.86
 X-33.25 Z11.89
 X-33.24 Z11.91
 X-33.22 Z11.92
 X-33.16 Z11.97
 X-33.13 Z12.00
 X-33.10 Z12.02
 X-32.97 Z12.09
 X-32.85 Z12.15
 X-32.78 Z12.19
 X-32.75 Z12.20
 X-32.74 Z12.21
 X-32.72 Z12.22
 X-32.66 Z12.24
 X-32.63 Z12.25
 X-32.60 Z12.26
 X-32.53 Z12.27
 X-32.50 Z12.28
 X-32.47
 X-32.41 Z12.29
 X-32.35
 X-32.28
 X-32.22
 X-32.10 Z12.28
 X-32.03 Z12.27
 X-32.00 Z12.26
 X-31.99
 X-31.97 Z12.25
 X-31.91 Z12.24
 X-31.88 Z12.23
 X-31.85 Z12.21
 X-31.78 Z12.19
 X-31.75 Z12.17
 X-31.72 Z12.16
 X-31.47 Z12.00
 X-31.35 Z11.91
 X-31.29 Z11.88
 X-31.25 Z11.86
 X-31.24 Z11.85
 X-31.22 Z11.84
 X-30.97 Z11.61
 X-30.91 Z11.51
 X-30.88 Z11.46
 X-30.85 Z11.41
 X-30.82 Z11.37
 X-30.80 Z11.34
 X-30.79 Z11.33
 Z11.32
 Z11.31
 X-30.72 Z11.35
 X-30.60 Z11.42
 X-30.47 Z11.49
 X-30.41 Z11.52
 X-30.35 Z11.55
 X-30.22 Z11.60
 X-30.16 Z11.63
 X-30.10 Z11.65
 X-29.97 Z11.68
 X-29.72 Z11.74
 X-29.60 Z11.76
 X-29.54 Z11.77
 X-29.50
 X-29.49 Z11.78
 X-29.47
 X-29.35
 X-29.22
 X-29.16
 X-29.13 Z11.77
 X-29.10
 X-28.97 Z11.74
 X-28.72 Z11.68
 X-28.47 Z11.60
 X-28.35 Z11.54
 X-28.29 Z11.52
 X-28.26 Z11.51
 X-28.24
 X-28.22 Z11.50
 X-28.16 Z11.47
 X-28.13 Z11.45
 X-28.12 Z11.44
 X-28.10 Z11.43
 X-27.97 Z11.33
 X-27.85 Z11.22
 X-27.79 Z11.17
 X-27.76 Z11.14
 X-27.72 Z11.10
 X-27.60 Z10.94
 X-27.54 Z10.86
 X-27.47 Z10.77
 X-27.22 Z10.33
 X-27.10 Z10.11
 X-27.04 Z10.00
 X-27.01 Z9.94
 X-26.98 Z9.88
 X-26.73 Z9.51
 X-26.48 Z9.19
 X-26.35 Z9.05
 X-26.29 Z8.98
 X-26.23 Z8.92
 X-26.10 Z8.82
 X-25.98 Z8.73
 X-25.85 Z8.65
 X-25.73 Z8.58
 X-25.60 Z8.52
 X-25.48 Z8.48
 X-25.35 Z8.43
 X-25.23 Z8.39
 X-24.98 Z8.34
 X-24.73 Z8.28
 X-24.48 Z8.22
 X-24.23 Z8.18
 X-23.98 Z8.14
 X-23.73 Z8.08
 X-23.48 Z8.00
 X-23.23 Z7.93
 X-22.98 Z7.85
 X-22.73 Z7.79
 X-22.48 Z7.72
 X-22.23 Z7.66
 X-21.98 Z7.59
 X-21.73 Z7.53
 X-21.48 Z7.46
 X-21.23 Z7.39
 X-20.98 Z7.33
 X-20.73 Z7.26
 X-20.48 Z7.21
 X-20.23 Z7.15
 X-19.98 Z7.08
 X-19.73 Z7.00
 X-19.48 Z6.92
 X-19.23 Z6.83
 X-18.98 Z6.74
 X-18.73 Z6.65
 X-18.48 Z6.56
 X-18.23 Z6.48
 X-17.98 Z6.39
 X-17.73 Z6.30
 X-17.48 Z6.21
 X-17.23 Z6.13
 X-16.98 Z6.05
 X-16.73 Z5.98
 X-16.48 Z5.90
 X-16.23 Z5.82
 X-15.98 Z5.75
 X-15.73 Z5.68
 X-15.48 Z5.60
 X-15.23 Z5.53
 X-14.98 Z5.45
 X-14.73 Z5.38
 X-14.48 Z5.31
 X-14.23 Z5.24
 X-13.98 Z5.18
 X-13.73 Z5.12
 X-13.48 Z5.07
 X-13.23 Z5.01
 X-12.98 Z4.96
 X-12.73 Z4.90
 X-12.48 Z4.86
 X-12.23 Z4.81
 X-11.98 Z4.76
 X-11.73 Z4.71
 X-11.48 Z4.67
 X-11.23 Z4.62
 X-10.98 Z4.59
 X-10.73 Z4.55
 X-10.48 Z4.51
 X-10.23 Z4.47
 X-9.98 Z4.43
 X-9.74 Z4.40
 X-9.49 Z4.36
 X-9.24 Z4.33
 X-8.99 Z4.31
 X-8.74 Z4.28
 X-8.49 Z4.27
 X-8.24
 X-7.99 Z4.28
 X-7.74
 X-7.49
 X-7.24 Z4.29
 X-6.99
 X-6.74 Z4.30
 X-6.49 Z4.31
 X-6.24 Z4.33
 X-5.99 Z4.34
 X-5.74 Z4.36
 X-5.49 Z4.38
 X-5.24 Z4.40
 X-4.74 Z4.45
 X-4.49 Z4.48
 X-4.24 Z4.51
 X-3.99 Z4.54
 X-3.74 Z4.57
 X-3.49 Z4.60
 X-3.24 Z4.64
 X-2.99 Z4.68
 X-2.74 Z4.73
 X-2.49 Z4.78
 X-2.24 Z4.84
 X-1.99 Z4.90
 X-1.74 Z4.96
 X-1.49 Z5.03
 X-1.24 Z5.10
 X-0.99 Z5.18
G0 Z25.00
 Y-9.83
G1 Z5.22
 X-1.24 Z5.16
 X-1.49 Z5.10
 X-1.74 Z5.04
 X-1.99 Z4.98
 X-2.24 Z4.91
 X-2.49 Z4.85
 X-2.74 Z4.80
 X-2.99 Z4.74
 X-3.24 Z4.69
 X-3.49 Z4.65
 X-3.74 Z4.62
 X-3.99 Z4.58
 X-4.24 Z4.55
 X-4.49 Z4.52
 X-4.74 Z4.50
 X-4.99 Z4.47
 X-5.24 Z4.45
 X-5.49 Z4.43
 X-5.74 Z4.41
 X-5.99 Z4.40
 X-6.24 Z4.39
 X-6.49
 X-6.74
 X-6.99
 X-7.24
 X-7.49 Z4.40
 X-7.74 Z4.42
 X-7.99 Z4.44
 X-8.24 Z4.46
 X-8.49 Z4.48
 X-8.74 Z4.51
 X-8.99 Z4.54
 X-9.24 Z4.57
 X-9.49 Z4.62
 X-9.74 Z4.67
 X-9.98 Z4.72
 X-10.23 Z4.78
 X-10.48 Z4.83
 X-10.73 Z4.87
 X-10.98 Z4.91
 X-11.23 Z4.96
 X-11.48 Z5.00
 X-11.73 Z5.04
 X-11.98 Z5.10
 X-12.23 Z5.16
 X-12.48 Z5.22
 X-12.73 Z5.27
 X-12.98 Z5.33
 X-13.23 Z5.39
 X-13.48 Z5.44
 X-13.73 Z5.50
 X-13.98 Z5.56
 X-14.23 Z5.62
 X-14.48 Z5.69
 X-14.73 Z5.76
 X-14.98 Z5.82
 X-15.23 Z5.89
 X-15.48 Z5.95
 X-15.98 Z6.08
 X-16.23 Z6.15
 X-16.48 Z6.21
 X-16.73 Z6.27
 X-16.98 Z6.33
 X-17.23 Z6.39
 X-17.48 Z6.45
 X-17.73 Z6.52
 X-17.98 Z6.60
 X-18.23 Z6.68
 X-18.48 Z6.76
 X-18.73 Z6.83
 X-18.98 Z6.91
 X-19.23 Z6.99
 X-19.48 Z7.07
 X-19.73 Z7.15
 X-19.98 Z7.22
 X-20.23 Z7.28
 X-20.48 Z7.34
 X-20.98 Z7.45
 X-21.23 Z7.51
 X-21.48 Z7.58
 X-21.73 Z7.64
 X-21.98 Z7.69
 X-22.23 Z7.75
 X-22.48 Z7.81
 X-22.73 Z7.86
 X-22.98 Z7.92
 X-23.23 Z7.98
 X-23.48 Z8.04
 X-23.73 Z8.11
 X-23.98 Z8.16
 X-24.23 Z8.20
 X-24.48 Z8.22
 X-24.73 Z8.24
 X-24.98 Z8.27
 X-25.23 Z8.30
 X-25.48 Z8.34
 X-25.73 Z8.40
 X-25.98 Z8.47
 X-26.23 Z8.56
 X-26.29 Z8.58
 X-26.32 Z8.60
 X-26.35 Z8.61
 X-26.48 Z8.67
 X-26.54 Z8.71
 X-26.57 Z8.72
 X-26.60 Z8.74
 X-26.73 Z8.82
 X-26.98 Z9.00
 X-27.10 Z9.10
 X-27.21 Z9.20
 X-27.22 Z9.21
 X-27.47 Z9.51
 X-27.72 Z9.83
 X-27.85 Z9.98
 X-27.91 Z10.04
 X-27.97 Z10.10
 X-28.04 Z10.16
 X-28.10 Z10.22
 X-28.22 Z10.31
 X-28.47 Z10.46
 X-28.60 Z10.53
 X-28.71 Z10.60
 X-28.72 Z10.61
 X-28.79 Z10.64
 X-28.85 Z10.66
 X-28.97 Z10.70
 X-29.22 Z10.76
 X-29.35 Z10.79
 X-29.47 Z10.81
 X-29.54 Z10.83
 X-29.57
 X-29.60 Z10.84
 X-29.72
 X-29.85
 X-29.91
 X-29.97 Z10.83
 X-30.10 Z10.81
 X-30.16
 X-30.22 Z10.79
 X-30.35 Z10.76
 X-30.41 Z10.74
 X-30.44 Z10.73
 X-30.47 Z10.72
 X-30.60 Z10.67
 X-30.72 Z10.61
 X-30.97 Z11.13
 X-31.04 Z11.28
 X-31.07 Z11.35
 X-31.08 Z11.38
 X-31.10 Z11.41
 X-31.13 Z11.46
 X-31.16 Z11.50
 X-31.19 Z11.54
 X-31.21 Z11.56
 X-31.22 Z11.58
 X-31.29 Z11.64
 X-31.35 Z11.69
 X-31.41 Z11.74
 X-31.44 Z11.76
 X-31.47 Z11.78
 X-31.54 Z11.82
 X-31.60 Z11.86
 X-31.66 Z11.89
 X-31.69 Z11.90
 X-31.71 Z11.91
 X-31.72
 X-31.78 Z11.93
 X-31.82 Z11.94
 X-31.85 Z11.95
 X-31.97 Z11.97
 X-32.10
 X-32.16 Z11.98
 X-32.19
 X-32.21
 X-32.22
 X-32.28
 X-32.32
 X-32.35 Z11.97
 X-32.41 Z11.96
 X-32.44 Z11.95
 X-32.46
 X-32.47
 X-32.53 Z11.93
 X-32.57 Z11.91
 X-32.60 Z11.90
 X-32.66 Z11.87
 X-32.72 Z11.83
 X-32.85 Z11.75
 X-32.91 Z11.70
 X-32.97 Z11.64
 X-33.10 Z11.51
 X-33.16 Z11.44
 X-33.19 Z11.41
 X-33.20 Z11.40
 X-33.21
 Z11.39
 X-33.22
 Z11.38
 X-33.47 Z11.70
 X-33.72 Z12.04
 X-33.85 Z12.26
 X-33.91 Z12.36
 X-33.94 Z12.40
 X-33.96 Z12.42
 X-33.97 Z12.44
 X-34.03 Z12.52
 X-34.06 Z12.55
 X-34.10 Z12.58
 X-34.16 Z12.63
 X-34.19 Z12.65
 X-34.22 Z12.67
 X-34.35 Z12.74
 X-34.44 Z12.78
 X-34.47 Z12.80
 X-34.53 Z12.82
 X-34.56 Z12.84
 X-34.60 Z12.85
 X-34.66 Z12.86
 X-34.69 Z12.87
 X-34.71
 X-34.72
 X-34.78 Z12.88
 X-34.85
 X-34.97
 X-35.10 Z12.87
 X-35.16 Z12.86
 X-35.19 Z12.85
 X-35.20
 X-35.22
 X-35.28 Z12.83
 X-35.35 Z12.81
 X-35.47 Z12.76
 X-35.60 Z12.71
 X-35.66 Z12.68
 X-35.69 Z12.66
 X-35.70 Z12.65
 X-35.71
 X-35.72 Z12.64
 X-35.78 Z12.60
 X-35.80 Z12.59
 X-35.81 Z12.58
 X-35.82 Z12.57
 X-35.83
 Z12.56
 X-35.84
 X-35.85 Z12.57
 X-35.91 Z12.59
 X-35.97 Z12.62
 X-36.09 Z12.65
 X-36.16 Z12.66
 X-36.22 Z12.68
 X-36.28 Z12.69
 X-36.34 Z12.70
 X-36.41
 X-36.47 Z12.71
 X-36.59 Z12.70
 X-36.66
 X-36.69 Z12.69
 X-36.72
 X-36.84 Z12.66
 X-36.91 Z12.65
 X-36.94 Z12.64
 X-36.95 Z12.63
 X-36.97
 X-37.03 Z12.61
 X-37.06 Z12.59
 X-37.09 Z12.58
 X-37.16 Z12.55
 X-37.22 Z12.51
 X-37.34 Z12.43
 X-37.41 Z12.38
 X-37.44 Z12.35
 X-37.47 Z12.32
 X-37.59 Z12.18
 X-37.63 Z12.15
 X-37.66 Z12.11
 X-37.72 Z12.03
 X-37.78 Z11.94
 X-37.81 Z11.90
 X-37.84 Z11.85
 X-37.91 Z11.74
 X-37.97 Z11.63
 X-38.09 Z11.33
 X-38.14 Z11.19
 X-38.15 Z11.16
 Z11.15
 Z11.14
 X-38.16
 X-38.17 Z11.08
 X-38.19 Z11.02
 X-38.20
 X-38.22 Z11.03
 X-38.34 Z11.06
 X-38.41 Z11.08
 X-38.44 Z11.09
 X-38.47 Z11.10
 X-38.72 Z11.15
 X-38.97 Z11.19
 X-39.22 Z11.21
 X-39.47 Z11.23
 X-39.72 Z11.25
 X-39.97 Z11.28
 X-40.22 Z11.30
 X-40.47
 X-40.72 Z11.29
 X-40.78
 X-40.84
 X-40.90 Z11.28
 X-40.94
 X-40.97 Z11.27
 X-41.09 Z11.24
 X-41.22 Z11.20
 X-41.34 Z11.14
 X-41.44 Z11.10
 X-41.45
 X-41.47 Z11.09
 X-41.72 Z10.92
 X-41.84 Z10.83
 X-41.90 Z10.78
 X-41.94 Z10.76
 X-41.97 Z10.73
 X-42.09 Z10.62
 X-42.15 Z10.55
 X-42.19 Z10.51
 X-42.22 Z10.47
 X-42.34 Z10.30
 X-42.40 Z10.21
 X-42.47 Z10.10
 X-42.72 Z9.56
 X-42.97 Z8.92
G0 Z25.00
 Y-9.04
G1 Z6.47
 X-42.72 Z7.13
 X-42.47 Z7.76
 X-42.34 Z8.12
 X-42.28 Z8.30
 X-42.22 Z8.48
 X-42.09 Z8.75
 X-41.97 Z8.99
 X-41.84 Z9.17
 X-41.78 Z9.27
 X-41.75 Z9.32
 X-41.73 Z9.34
 X-41.72 Z9.36
 X-41.65 Z9.44
 X-41.62 Z9.48
 X-41.59 Z9.51
 X-41.47 Z9.62
 X-41.22 Z9.82
 X-41.15 Z9.87
 X-41.12 Z9.89
 X-41.09 Z9.91
 X-40.97 Z9.98
 X-40.72 Z10.08
 X-40.59 Z10.15
 X-40.53 Z10.18
 X-40.50 Z10.19
 X-40.47 Z10.20
 X-40.22 Z10.27
 X-40.09 Z10.30
 X-40.03 Z10.32
 X-40.00
 X-39.97 Z10.33
 X-39.72 Z10.35
 X-39.47 Z10.37
 X-39.22 Z10.38
 X-38.97 Z10.39
 X-38.72 Z10.38
 X-38.59
 X-38.47 Z10.37
 X-38.34 Z10.36
 X-38.28 Z10.35
 X-38.22 Z10.34
 X-38.19
 X-38.17
 X-38.16
 X-38.14
 X-38.13 Z10.82
 X-38.12 Z10.91
 X-38.11 Z11.01
 X-38.10 Z11.05
 X-38.09 Z11.09
 X-38.06 Z11.22
 X-38.05 Z11.28
 X-38.04 Z11.30
 X-38.03 Z11.33
 X-38.00 Z11.41
 X-37.98 Z11.44
 X-37.97 Z11.47
 X-37.84 Z11.66
 X-37.72 Z11.82
 X-37.59 Z11.98
 X-37.53 Z12.04
 X-37.50 Z12.08
 X-37.47 Z12.11
 X-37.41 Z12.17
 X-37.38 Z12.20
 X-37.34 Z12.23
 X-37.28 Z12.27
 X-37.25 Z12.29
 X-37.23 Z12.30
 X-37.22 Z12.31
 X-37.16 Z12.35
 X-37.09 Z12.38
 X-37.03 Z12.40
 X-37.00 Z12.41
 X-36.99 Z12.42
 X-36.97
 X-36.91 Z12.45
 X-36.88
 X-36.84 Z12.46
 X-36.78 Z12.47
 X-36.75 Z12.48
 X-36.72
 X-36.47 Z12.47
 X-36.34 Z12.45
 X-36.28
 X-36.25 Z12.44
 X-36.24
 X-36.22 Z12.43
 X-36.16 Z12.42
 X-36.13 Z12.41
 X-36.09 Z12.40
 X-36.03 Z12.37
 X-36.00 Z12.36
 X-35.99 Z12.35
 X-35.98
 X-35.97
 Z12.34
 X-35.91 Z12.31
 X-35.88 Z12.29
 X-35.86 Z12.27
 X-35.85
 Z12.26
 X-35.83 Z12.25
 X-35.82
 Z12.24
 X-35.81
 Z12.23
 X-35.80 Z12.24
 X-35.78 Z12.25
 X-35.75 Z12.27
 X-35.72 Z12.29
 X-35.60 Z12.36
 X-35.53 Z12.39
 X-35.50 Z12.40
 X-35.47 Z12.42
 X-35.41 Z12.44
 X-35.38 Z12.46
 X-35.35 Z12.47
 X-35.28 Z12.48
 X-35.25 Z12.49
 X-35.22 Z12.50
 X-35.16
 X-35.10 Z12.51
 X-35.03
 X-34.97
 X-34.91
 X-34.85 Z12.50
 X-34.72 Z12.48
 X-34.66 Z12.47
 X-34.63 Z12.46
 X-34.61 Z12.45
 X-34.60
 X-34.56 Z12.44
 X-34.55 Z12.43
 X-34.54
 Z12.42
 X-34.53
 X-34.52
 X-34.51
 Z12.41
 X-34.50
 X-34.49 Z12.42
 X-34.47 Z12.43
 X-34.41 Z12.46
 X-34.38 Z12.48
 X-34.35 Z12.49
 X-34.28 Z12.51
 X-34.25 Z12.52
 X-34.24 Z12.53
 X-34.22
 X-34.16 Z12.54
 X-34.13 Z12.55
 X-34.10
 X-34.03 Z12.56
 X-34.00
 X-33.99
 X-33.97
 X-33.91 Z12.55
 X-33.88
 X-33.85
 X-33.78 Z12.53
 X-33.75
 X-33.74 Z12.52
 X-33.72
 X-33.66 Z12.50
 X-33.63 Z12.49
 X-33.60 Z12.47
 X-33.53 Z12.44
 X-33.50 Z12.42
 X-33.49 Z12.41
 X-33.47 Z12.40
 X-33.41 Z12.36
 X-33.38 Z12.34
 X-33.35 Z12.31
 X-33.32 Z12.28
 X-33.28 Z12.25
 X-33.22 Z12.18
 X-33.10 Z11.98
 X-33.03 Z11.90
 X-33.00 Z11.85
 X-32.99 Z11.83
 X-32.98 Z11.81
 X-32.97 Z11.80
 X-32.91 Z11.70
 X-32.85 Z11.60
 X-32.83 Z11.57
 X-32.82 Z11.56
 Z11.55
 X-32.81
 Z11.54
 Z11.55
 X-32.80
 X-32.78
 X-32.72 Z11.57
 X-32.60 Z11.59
 X-32.53
 X-32.47 Z11.60
 X-32.35
 X-32.28
 X-32.25
 X-32.22
 X-32.16 Z11.59
 X-32.10 Z11.58
 X-32.03 Z11.56
 X-32.00
 X-31.99 Z11.55
 X-31.97
 X-31.91 Z11.52
 X-31.88 Z11.51
 X-31.85 Z11.49
 X-31.78 Z11.46
 X-31.72 Z11.42
 X-31.47 Z11.21
 X-31.22 Z11.00
 X-31.16 Z10.95
 X-31.13 Z10.93
 X-31.10 Z10.90
 X-31.04 Z10.85
 X-31.00 Z10.82
 X-30.99 Z10.80
 X-30.97 Z10.78
 X-30.72 Z10.39
 X-30.66 Z10.26
 X-30.63 Z10.20
 X-30.61 Z10.16
 Z10.14
 X-30.60 Z10.13
 Z10.12
 X-30.57 Z10.01
 X-30.56 Z9.97
 Z9.96
 X-30.55
 X-30.54 Z9.97
 X-30.50 Z9.98
 X-30.47 Z9.99
 X-30.35 Z10.01
 X-30.22 Z10.03
 X-30.16
 X-30.10 Z10.04
 X-29.97
 X-29.85 Z10.02
 X-29.79
 X-29.75 Z10.01
 X-29.72
 X-29.47 Z9.95
 X-29.41 Z9.94
 X-29.35 Z9.92
 X-29.22 Z9.88
 X-29.10 Z9.82
 X-28.97 Z9.76
 X-28.72 Z9.62
 X-28.47 Z9.44
 X-28.35 Z9.36
 X-28.22 Z9.27
 X-27.97 Z9.05
 X-27.85 Z8.96
 X-27.72 Z8.87
 X-27.66 Z8.83
 X-27.63 Z8.81
 X-27.60 Z8.79
 X-27.47 Z8.73
 X-27.35 Z8.67
 X-27.29 Z8.64
 X-27.22 Z8.62
 X-26.98 Z8.54
 X-26.73 Z8.49
 X-26.48 Z8.44
 X-26.23 Z8.39
 X-25.98 Z8.35
 X-25.73 Z8.31
 X-25.48 Z8.29
 X-25.23 Z8.26
 X-24.98 Z8.25
 X-24.73
 X-24.48 Z8.24
 X-24.23 Z8.22
 X-23.98 Z8.18
 X-23.73 Z8.13
 X-23.48 Z8.09
 X-23.23 Z8.03
 X-22.98 Z7.98
 X-22.73 Z7.93
 X-22.48 Z7.89
 X-22.23 Z7.84
 X-21.98 Z7.79
 X-21.73 Z7.75
 X-21.48 Z7.69
 X-21.23 Z7.63
 X-20.98 Z7.58
 X-20.73 Z7.52
 X-20.48 Z7.46
 X-20.23 Z7.40
 X-19.98 Z7.34
 X-19.73 Z7.27
 X-19.48 Z7.20
 X-19.23 Z7.14
 X-18.98 Z7.07
 X-18.48 Z6.94
 X-18.23 Z6.87
 X-17.98 Z6.80
 X-17.73 Z6.75
 X-17.48 Z6.70
 X-17.23 Z6.66
 X-16.98 Z6.61
 X-16.73 Z6.56
 X-16.48 Z6.51
 X-16.23 Z6.45
 X-15.98 Z6.40
 X-15.73 Z6.34
 X-15.48 Z6.28
 X-15.23 Z6.23
 X-14.98 Z6.16
 X-14.73 Z6.09
 X-14.48 Z6.02
 X-14.23 Z5.95
 X-13.98 Z5.89
 X-13.73 Z5.82
 X-13.48 Z5.76
 X-12.98 Z5.63
 X-12.73 Z5.57
 X-12.48 Z5.50
 X-12.23 Z5.43
 X-11.98 Z5.37
 X-11.73 Z5.30
 X-11.48 Z5.24
 X-11.23 Z5.18
 X-10.98 Z5.13
 X-10.73 Z5.08
 X-10.48 Z5.03
 X-10.23 Z4.98
 X-9.98 Z4.92
 X-9.74 Z4.87
 X-9.49 Z4.82
 X-9.24 Z4.77
 X-8.99 Z4.72
 X-8.74 Z4.70
 X-8.49 Z4.67
 X-8.24 Z4.64
 X-7.99 Z4.62
 X-7.74 Z4.60
 X-7.24 Z4.56
 X-6.99 Z4.54
 X-6.74 Z4.52
 X-6.49 Z4.51
 X-6.24 Z4.49
 X-5.99 Z4.48
 X-5.74
 X-5.49 Z4.47
 X-5.24 Z4.48
 X-4.99 Z4.49
 X-4.74 Z4.51
 X-4.49 Z4.53
 X-4.24 Z4.55
 X-3.99 Z4.58
 X-3.74 Z4.61
 X-3.49 Z4.65
 X-3.24 Z4.69
 X-2.99 Z4.75
 X-2.74 Z4.80
 X-2.49 Z4.86
 X-2.24 Z4.93
 X-1.99 Z5.00
 X-1.74 Z5.07
 X-1.49 Z5.13
 X-1.24 Z5.19
 X-0.99 Z5.24
G0 Z25.00
 Y-8.26
G1 Z5.25
 X-1.24 Z5.19
 X-1.49 Z5.13
 X-1.74 Z5.06
 X-1.99 Z4.99
 X-2.24 Z4.93
 X-2.49 Z4.87
 X-2.74 Z4.81
 X-2.99 Z4.76
 X-3.24 Z4.71
 X-3.49 Z4.67
 X-3.74 Z4.64
 X-3.99 Z4.61
 X-4.24 Z4.59
 X-4.49 Z4.57
 X-4.61 Z4.56
 X-4.68 Z4.55
 X-4.71
 X-4.72 Z4.54
 X-4.74
 X-4.99
 X-5.24
 X-5.49
 X-5.74 Z4.56
 X-5.99 Z4.58
 X-6.24 Z4.59
 X-6.49 Z4.62
 X-6.74 Z4.65
 X-6.99 Z4.67
 X-7.74 Z4.74
 X-7.99 Z4.77
 X-8.24 Z4.78
 X-8.49 Z4.81
 X-8.74 Z4.84
 X-8.99 Z4.86
 X-9.24 Z4.90
 X-9.49 Z4.96
 X-9.74 Z5.01
 X-9.98 Z5.06
 X-10.23 Z5.11
 X-10.48 Z5.17
 X-10.98 Z5.28
 X-11.23 Z5.35
 X-11.48 Z5.42
 X-11.73 Z5.49
 X-11.98 Z5.58
 X-12.23 Z5.67
 X-12.36 Z5.74
 X-12.42 Z5.77
 X-12.45 Z5.78
 X-12.47 Z5.79
 X-12.48
 X-12.73 Z5.99
 X-12.86 Z6.10
 X-12.89 Z6.12
 X-12.91 Z6.14
 X-12.92 Z6.15
 X-12.98 Z6.19
 X-13.11 Z6.25
 X-13.20 Z6.30
 X-13.23 Z6.31
 X-13.26 Z6.33
 X-13.30 Z6.35
 X-13.33 Z6.36
 X-13.34 Z6.37
 X-13.36
 X-13.48 Z6.40
 X-13.73 Z6.44
 X-13.83 Z6.47
 X-13.84 Z6.48
 X-13.85
 X-13.86
 X-13.92 Z6.49
 X-13.98
 X-14.23
 X-14.48 Z6.48
 X-14.59 Z6.46
 X-14.61
 X-14.73 Z6.48
 X-14.98 Z6.54
 X-15.23 Z6.59
 X-15.48 Z6.65
 X-15.73 Z6.69
 X-15.98 Z6.74
 X-16.23 Z6.79
 X-16.48 Z6.83
 X-16.73 Z6.87
 X-16.98 Z6.91
 X-17.23 Z6.94
 X-17.48 Z6.97
 X-17.73 Z7.00
 X-17.98 Z7.03
 X-18.23 Z7.08
 X-18.48 Z7.13
 X-18.73 Z7.17
 X-18.98 Z7.23
 X-19.23 Z7.29
 X-19.48 Z7.34
 X-19.73 Z7.40
 X-19.98 Z7.46
 X-20.23 Z7.52
 X-20.48 Z7.58
 X-20.73 Z7.63
 X-20.98 Z7.69
 X-21.23 Z7.74
 X-21.48 Z7.79
 X-21.73 Z7.85
 X-21.98 Z7.89
 X-22.23 Z7.92
 X-22.48 Z7.96
 X-22.73 Z8.00
 X-22.98 Z8.04
 X-23.23 Z8.09
 X-23.48 Z8.13
 X-23.73 Z8.16
 X-23.98 Z8.19
 X-24.23 Z8.22
 X-24.48 Z8.24
 X-24.73 Z8.25
 X-24.98 Z8.24
 X-25.23
 X-25.48
 X-25.73
 X-25.98 Z8.25
 X-26.23 Z8.26
 X-26.48 Z8.27
 X-26.73 Z8.29
 X-26.98 Z8.31
 X-27.22 Z8.35
 X-27.47 Z8.39
 X-27.72 Z8.44
 X-27.97 Z8.51
 X-28.22 Z8.60
 X-28.47 Z8.70
 X-28.72 Z8.82
 X-28.97 Z8.94
 X-29.22 Z9.06
 X-29.35 Z9.12
 X-29.41 Z9.15
 X-29.47 Z9.18
 X-29.60 Z9.22
 X-29.72 Z9.25
 X-29.79 Z9.27
 X-29.85 Z9.28
 X-29.97 Z9.30
 X-30.07 Z9.31
 X-30.10
 X-30.16 Z9.32
 X-30.19
 X-30.22
 X-30.35 Z9.30
 X-30.41
 X-30.44 Z9.29
 X-30.46
 X-30.47
 Z9.28
 X-30.54 Z9.27
 X-30.57 Z9.26
 X-30.60 Z9.42
 X-30.63 Z9.70
 X-30.64 Z9.87
 X-30.65 Z9.97
 X-30.66 Z10.03
 X-30.69 Z10.17
 X-30.72 Z10.29
 X-30.75 Z10.42
 X-30.79 Z10.52
 X-30.82 Z10.60
 X-30.85 Z10.66
 X-30.91 Z10.79
 X-30.94 Z10.84
 X-30.96 Z10.87
 X-30.97 Z10.89
 X-31.04 Z10.97
 X-31.10 Z11.05
 X-31.16 Z11.11
 X-31.19 Z11.15
 X-31.21 Z11.16
 X-31.22 Z11.17
 X-31.29 Z11.23
 X-31.32 Z11.25
 X-31.35 Z11.27
 X-31.41 Z11.31
 X-31.44 Z11.33
 X-31.46
 X-31.47 Z11.34
 X-31.54 Z11.37
 X-31.57 Z11.38
 X-31.60 Z11.39
 X-31.72 Z11.42
 X-31.85 Z11.46
 X-31.91 Z11.47
 X-31.94 Z11.48
 X-31.96
 X-31.97
 X-32.03
 X-32.07 Z11.49
 X-32.10
 X-32.16 Z11.48
 X-32.22
 X-32.35 Z11.46
 X-32.41 Z11.44
 X-32.44
 X-32.46 Z11.43
 X-32.47
 X-32.60 Z11.74
 X-32.63 Z11.82
 X-32.66 Z11.89
 X-32.69 Z11.94
 X-32.71 Z11.97
 Z11.98
 X-32.72 Z11.99
 X-32.78 Z12.08
 X-32.82 Z12.12
 X-32.85 Z12.15
 X-32.91 Z12.21
 X-32.94 Z12.24
 X-32.97 Z12.26
 X-33.10 Z12.34
 X-33.16 Z12.38
 X-33.19 Z12.40
 X-33.21 Z12.41
 X-33.22 Z12.42
 X-33.28 Z12.45
 X-33.32 Z12.46
 X-33.35 Z12.48
 X-33.41 Z12.50
 X-33.44 Z12.51
 X-33.46
 X-33.47 Z12.52
 X-33.53 Z12.53
 X-33.57
 X-33.60 Z12.54
 X-33.66
 X-33.72
 X-33.85 Z12.53
 X-33.91
 X-33.94
 X-33.97 Z12.52
 X-34.03 Z12.51
 X-34.10 Z12.50
 X-34.16 Z12.48
 X-34.22 Z12.46
 X-34.35 Z12.41
 X-34.41 Z12.38
 X-34.44 Z12.36
 X-34.47 Z12.35
 X-34.72 Z12.16
 X-34.78 Z12.10
 X-34.81 Z12.06
 X-34.88 Z11.99
 X-34.89
 X-34.91
 X-34.97
 X-35.03
 X-35.06
 X-35.10
 X-35.16
 X-35.19 Z11.98
 X-35.22
 X-35.47 Z11.92
 X-35.53 Z11.89
 X-35.56 Z11.87
 X-35.58 Z11.86
 X-35.59
 X-35.60
 X-35.72 Z11.85
 X-35.78
 X-35.81
 X-35.85 Z11.86
 X-35.91 Z11.85
 X-35.94
 X-35.95
 X-35.96
 X-35.97
 X-36.09 Z11.90
 X-36.16 Z11.93
 X-36.19 Z11.94
 X-36.22 Z11.96
 X-36.34 Z12.00
 X-36.41 Z12.01
 X-36.44 Z12.02
 X-36.45 Z12.03
 X-36.47
 X-36.53 Z12.04
 X-36.56 Z12.05
 X-36.59
 X-36.66 Z12.06
 X-36.69
 X-36.70
 X-36.72
 X-36.78
 X-36.81 Z12.05
 X-36.84
 X-36.91 Z12.03
 X-36.97 Z12.01
 X-37.03 Z12.00
 X-37.06 Z11.99
 X-37.09 Z11.98
 X-37.16 Z11.95
 X-37.19 Z11.93
 X-37.20
 X-37.22 Z11.92
 X-37.28 Z11.88
 X-37.31 Z11.86
 X-37.34 Z11.84
 X-37.47 Z11.72
 X-37.59 Z11.58
 X-37.66 Z11.51
 X-37.69 Z11.48
 X-37.70 Z11.46
 X-37.72 Z11.45
 X-37.78 Z11.37
 X-37.81 Z11.33
 X-37.83 Z11.30
 X-37.84 Z11.28
 X-37.91 Z11.16
 X-37.94 Z11.09
 X-37.95 Z11.05
 X-37.97 Z11.02
 X-38.09 Z10.48
 X-38.12 Z10.16
 X-38.13 Z9.99
 X-38.14 Z9.88
 Z9.82
 Z9.78
 Z9.63
 X-38.16
 X-38.22 Z9.62
 X-38.47 Z9.61
 X-38.72 Z9.58
 X-38.97 Z9.55
 X-39.22 Z9.50
 X-39.34 Z9.48
 X-39.41 Z9.47
 X-39.47 Z9.46
 X-39.72 Z9.38
 X-39.84 Z9.33
 X-39.91 Z9.31
 X-39.97 Z9.28
 X-40.22 Z9.15
 X-40.34 Z9.07
 X-40.47 Z8.99
 X-40.59 Z8.90
 X-40.78 Z8.76
 X-40.81 Z8.74
 X-40.84 Z8.71
 X-40.90 Z8.65
 X-40.97 Z8.58
 X-41.03 Z8.50
 X-41.09 Z8.42
 X-41.22 Z8.23
 X-41.28 Z8.14
 X-41.34 Z8.03
 X-41.47 Z7.78
 X-41.72 Z7.16
 X-41.84 Z6.78
 X-41.90 Z6.62
 X-41.92 Z6.58
 X-41.94 Z6.54
 X-41.97 Z6.49
 X-41.98 Z6.46
 X-41.99 Z6.45
 Z6.44
 X-42.00 Z6.43
 X-42.03 Z6.41
 X-42.06 Z6.39
 X-42.09 Z6.37
 X-42.22 Z6.30
 X-42.47 Z6.17
 X-42.72 Z6.05
 X-42.97 Z5.94
G0 Z25.00
 Y-7.47
G1 Z5.87
 X-42.72 Z5.97
 X-42.47 Z6.08
 X-42.22 Z6.18
 X-41.97 Z6.30
 X-41.72 Z6.42
 X-41.47 Z6.53
 X-41.34 Z6.60
 X-41.28 Z6.63
 X-41.25 Z6.64
 X-41.22 Z6.66
 X-41.09 Z6.75
 X-41.06 Z6.78
 X-41.05 Z6.79
 X-41.00 Z6.82
 X-40.97 Z6.85
 X-40.72 Z7.19
 X-40.47 Z7.51
 X-40.34 Z7.67
 X-40.22 Z7.80
 X-40.09 Z7.93
 X-39.97 Z8.04
 X-39.84 Z8.14
 X-39.72 Z8.24
 X-39.47 Z8.40
 X-39.22 Z8.53
 X-39.09 Z8.59
 X-38.97 Z8.65
 X-38.72 Z8.73
 X-38.47 Z8.80
 X-38.34 Z8.83
 X-38.28 Z8.84
 X-38.25 Z8.85
 X-38.23
 X-38.22 Z8.86
 X-37.97 Z9.74
 X-37.91 Z10.23
 X-37.88 Z10.39
 X-37.84 Z10.50
 X-37.81 Z10.61
 X-37.78 Z10.71
 X-37.75 Z10.79
 X-37.73 Z10.82
 X-37.72 Z10.86
 X-37.69 Z10.94
 X-37.66 Z11.00
 X-37.63 Z11.06
 X-37.59 Z11.10
 X-37.53 Z11.19
 X-37.50 Z11.23
 X-37.48 Z11.25
 X-37.47 Z11.27
 X-37.34 Z11.39
 X-37.28 Z11.44
 X-37.25 Z11.46
 X-37.22 Z11.49
 X-37.09 Z11.56
 X-37.03 Z11.60
 X-37.00 Z11.61
 X-36.97 Z11.63
 X-36.72 Z11.71
 X-36.47 Z11.78
 X-36.34 Z11.81
 X-36.22 Z11.84
 X-36.09 Z11.86
 X-35.97 Z11.88
 X-35.91 Z11.89
 X-35.85
 X-35.78 Z11.90
 X-35.72 Z11.89
 X-35.60 Z11.88
 X-35.53
 X-35.50 Z11.87
 X-35.47
 X-35.41 Z11.85
 X-35.35 Z11.83
 X-35.22 Z11.78
 X-35.10 Z11.72
 X-35.06 Z11.70
 X-35.05 Z11.69
 X-35.04
 Z11.68
 X-35.03
 X-35.02 Z11.67
 X-35.01 Z11.66
 X-34.99 Z11.65
 X-34.97 Z11.66
 X-34.91 Z11.80
 X-34.88 Z11.86
 X-34.85 Z11.92
 X-34.81 Z11.98
 X-34.78 Z12.03
 X-34.72 Z12.12
 X-34.66 Z12.21
 X-34.63 Z12.25
 X-34.61 Z12.27
 X-34.60 Z12.29
 X-34.56 Z12.33
 X-34.53 Z12.36
 X-34.47 Z12.42
 X-34.35 Z12.52
 X-34.28 Z12.57
 X-34.25 Z12.59
 X-34.22 Z12.61
 X-34.16 Z12.65
 X-34.10 Z12.68
 X-34.03 Z12.71
 X-34.00 Z12.72
 X-33.97 Z12.73
 X-33.85 Z12.76
 X-33.78 Z12.77
 X-33.75 Z12.78
 X-33.74
 X-33.72
 X-33.66 Z12.79
 X-33.63
 X-33.60
 X-33.53
 X-33.50 Z12.78
 X-33.49
 X-33.47
 X-33.41 Z12.77
 X-33.38 Z12.76
 X-33.35 Z12.75
 X-33.28 Z12.73
 X-33.25 Z12.72
 X-33.24
 X-33.22 Z12.71
 X-33.16 Z12.68
 X-33.10 Z12.64
 X-33.03 Z12.60
 X-33.00 Z12.58
 X-32.97 Z12.56
 X-32.91 Z12.50
 X-32.88 Z12.47
 X-32.85 Z12.44
 X-32.82 Z12.41
 X-32.78 Z12.38
 X-32.75 Z12.34
 X-32.74 Z12.32
 X-32.72 Z12.30
 X-32.66 Z12.20
 X-32.63 Z12.14
 X-32.60 Z12.08
 X-32.53 Z11.95
 X-32.50 Z11.88
 X-32.49 Z11.84
 X-32.47 Z11.80
 X-32.22
 X-32.16
 X-32.13
 X-32.10
 X-32.03
 X-32.00
 X-31.97 Z11.79
 X-31.91 Z11.78
 X-31.85 Z11.76
 X-31.78 Z11.74
 X-31.75 Z11.73
 X-31.72 Z11.72
 X-31.66 Z11.69
 X-31.63 Z11.68
 X-31.60 Z11.67
 X-31.54 Z11.63
 X-31.50 Z11.61
 X-31.47 Z11.59
 X-31.41 Z11.55
 X-31.35 Z11.50
 X-31.29 Z11.44
 X-31.25 Z11.41
 X-31.24 Z11.39
 X-31.22 Z11.38
 X-31.16 Z11.30
 X-31.13 Z11.26
 X-31.10 Z11.21
 X-30.97 Z10.98
 X-30.85 Z10.71
 X-30.72 Z10.41
 X-30.47 Z9.62
 X-30.44 Z9.50
 X-30.43 Z9.44
 X-30.42 Z9.42
 X-30.41 Z9.39
 X-30.38 Z9.21
 X-30.36 Z9.10
 Z9.05
 X-30.35 Z9.03
 Z9.01
 Z9.00
 X-30.33 Z8.77
 Z8.74
 Z8.72
 Z8.64
 X-30.32
 X-30.22 Z8.65
 X-30.10
 X-29.97 Z8.64
 X-29.72 Z8.61
 X-29.47 Z8.55
 X-29.22 Z8.49
 X-28.97 Z8.42
 X-28.72 Z8.36
 X-28.47 Z8.31
 X-28.22 Z8.26
 X-27.97 Z8.22
 X-27.72 Z8.20
 X-27.47 Z8.17
 X-27.22 Z8.15
 X-26.98
 X-26.73 Z8.14
 X-26.48
 X-26.23 Z8.15
 X-25.98 Z8.16
 X-25.73 Z8.18
 X-25.48 Z8.19
 X-25.23 Z8.20
 X-24.98 Z8.21
 X-24.73 Z8.22
 X-24.48
 X-24.23
 X-23.98 Z8.21
 X-23.73 Z8.20
 X-23.48 Z8.18
 X-23.23 Z8.14
 X-22.98 Z8.11
 X-22.73 Z8.09
 X-22.48 Z8.05
 X-22.23 Z8.01
 X-21.98 Z7.97
 X-21.73 Z7.93
 X-21.48 Z7.88
 X-21.23 Z7.83
 X-20.98 Z7.78
 X-20.73 Z7.73
 X-20.48 Z7.68
 X-20.23 Z7.64
 X-19.98 Z7.59
 X-19.73 Z7.55
 X-19.48 Z7.51
 X-19.23 Z7.46
 X-18.98 Z7.42
 X-18.73 Z7.39
 X-18.48 Z7.36
 X-18.23 Z7.34
 X-17.98 Z7.32
 X-17.73 Z7.30
 X-17.48 Z7.28
 X-17.23 Z7.27
 X-16.98 Z7.25
 X-16.86 Z7.24
 X-16.79
 X-16.73
 X-16.67
 X-16.65 Z7.25
 X-16.64
 X-16.61 Z7.26
 X-16.48 Z7.33
 X-16.45 Z7.34
 X-16.43 Z7.35
 X-16.42 Z7.36
 X-16.39 Z7.37
 X-16.28 Z7.44
 X-16.26 Z7.45
 X-16.23 Z7.47
 X-15.98 Z7.69
 X-15.73 Z7.93
 X-15.48 Z8.19
 X-15.23 Z8.41
 X-15.11 Z8.51
 X-14.98 Z8.60
 X-14.86 Z8.68
 X-14.76 Z8.74
 X-14.73 Z8.76
 X-14.48 Z8.87
 X-14.36 Z8.92
 X-14.23 Z8.96
 X-14.11 Z8.99
 X-14.05 Z9.00
 X-13.98 Z9.01
 X-13.86 Z9.03
 X-13.83
 X-13.81
 X-13.80
 X-13.73
 X-13.61 Z9.02
 X-13.55 Z9.01
 X-13.48
 X-13.23 Z8.93
 X-13.11 Z8.88
 X-13.05 Z8.85
 X-13.01 Z8.84
 X-12.98 Z8.83
 X-12.73 Z8.67
 X-12.61 Z8.60
 X-12.48 Z8.49
 X-12.36 Z8.38
 X-12.23 Z8.27
 X-12.20 Z8.25
 X-12.17 Z8.21
 X-12.14 Z8.18
 X-12.11 Z8.14
 X-12.05 Z8.06
 X-11.98 Z7.96
 X-11.92 Z7.87
 X-11.89 Z7.82
 X-11.86 Z7.77
 X-11.80 Z7.65
 X-11.73 Z7.53
 X-11.48 Z6.88
 X-11.36 Z6.46
 X-11.30 Z6.27
 X-11.27 Z6.20
 X-11.25 Z6.17
 X-11.23 Z6.13
 X-11.21 Z6.07
 X-11.20 Z6.05
 X-11.17 Z5.99
 X-11.14 Z5.93
 X-11.11 Z5.89
 X-11.05 Z5.79
 X-10.98 Z5.71
 X-10.86 Z5.57
 X-10.73 Z5.45
 X-10.67 Z5.41
 X-10.64 Z5.38
 X-10.63 Z5.37
 X-10.62
 Z5.36
 X-10.61
 X-10.59 Z5.34
 X-10.58
 X-10.56 Z5.33
 X-10.48 Z5.30
 X-10.23 Z5.22
 X-9.98 Z5.15
 X-9.74 Z5.09
 X-9.49 Z5.04
 X-9.24 Z4.99
 X-8.99 Z4.95
 X-8.74 Z4.91
 X-8.49 Z4.88
 X-8.24 Z4.85
 X-7.99 Z4.83
 X-7.74 Z4.81
 X-7.49 Z4.80
 X-7.24 Z4.79
 X-6.99 Z4.77
 X-6.49 Z4.74
 X-6.24 Z4.72
 X-5.99 Z4.70
 X-5.74 Z4.68
 X-5.49 Z4.67
 X-5.24 Z4.66
 X-4.99 Z4.65
 X-4.74
 X-4.49 Z4.66
 X-4.24 Z4.67
 X-3.99 Z4.68
 X-3.74 Z4.70
 X-3.49 Z4.72
 X-2.99 Z4.79
 X-2.74 Z4.83
 X-2.49 Z4.88
 X-2.24 Z4.93
 X-1.99 Z4.99
 X-1.74 Z5.05
 X-1.49 Z5.12
 X-1.24 Z5.18
 X-0.99 Z5.25
G0 Z25.00
 Y-6.68
G1 Z5.23
 X-1.24 Z5.17
 X-1.49 Z5.10
 X-1.74 Z5.05
 X-1.99 Z4.99
 X-2.24 Z4.95
 X-2.49 Z4.91
 X-2.74 Z4.87
 X-2.99 Z4.84
 X-3.24 Z4.82
 X-3.49 Z4.80
 X-3.74 Z4.78
 X-3.99 Z4.77
 X-4.24 Z4.75
 X-4.49 Z4.74
 X-4.74
 X-4.99
 X-5.11 Z4.73
 X-5.18
 X-5.21
 X-5.24
 X-5.49 Z4.75
 X-5.74 Z4.76
 X-5.99 Z4.78
 X-6.24 Z4.79
 X-6.49 Z4.80
 X-6.74 Z4.82
 X-6.99 Z4.83
 X-7.24 Z4.84
 X-7.49 Z4.85
 X-7.74 Z4.87
 X-7.99 Z4.90
 X-8.24 Z4.93
 X-8.49 Z4.97
 X-8.61 Z5.00
 X-8.74 Z5.03
 X-8.80 Z5.05
 X-8.84 Z5.06
 Z5.07
 X-8.93 Z5.11
 X-8.94
 X-8.95 Z5.12
 X-9.05 Z5.19
 X-9.11 Z5.24
 X-9.24 Z5.37
 X-9.36 Z5.50
 X-9.49 Z5.65
 X-9.74 Z6.00
 X-9.86 Z6.20
 X-9.98 Z6.39
 X-10.11 Z6.62
 X-10.23 Z6.89
 X-10.48 Z7.54
 X-10.73 Z8.26
 X-10.98 Z8.91
 X-11.23 Z9.50
 X-11.36 Z9.77
 X-11.48 Z10.03
 X-11.61 Z10.25
 X-11.67 Z10.35
 X-11.70 Z10.40
 X-11.73 Z10.45
 X-11.80 Z10.54
 X-11.83 Z10.58
 X-11.86 Z10.62
 X-11.98 Z10.75
 X-12.23 Z10.97
 X-12.36 Z11.08
 X-12.48 Z11.18
 X-12.55 Z11.23
 X-12.58 Z11.25
 X-12.59 Z11.26
 X-12.60 Z11.27
 X-12.61 Z11.28
 X-12.64 Z11.30
 X-12.66 Z11.31
 X-12.67
 X-12.70 Z11.33
 X-12.72 Z11.34
 X-12.73
 X-12.86 Z11.37
 X-12.92 Z11.38
 X-13.05 Z11.40
 X-13.11
 X-13.17 Z11.41
 X-13.20
 X-13.23
 X-13.36 Z11.39
 X-13.42 Z11.38
 X-13.48 Z11.37
 X-13.61 Z11.33
 X-13.67 Z11.32
 X-13.70 Z11.31
 X-13.72 Z11.30
 X-13.73
 X-13.98 Z11.17
 X-14.33 Z10.98
 X-14.36 Z10.96
 X-14.48 Z10.87
 X-14.73 Z10.66
 X-14.98 Z10.44
 X-15.23 Z10.19
 X-15.48 Z9.93
 X-15.73 Z9.66
 X-15.98 Z9.37
 X-16.23 Z9.08
 X-16.48 Z8.80
 X-16.73 Z8.54
 X-16.86 Z8.42
 X-16.92 Z8.36
 X-16.98 Z8.31
 X-17.23 Z8.13
 X-17.36 Z8.04
 X-17.42 Z7.99
 X-17.45 Z7.96
 X-17.48 Z7.94
 X-17.54 Z7.90
 X-17.61 Z7.86
 X-17.73 Z7.80
 X-17.79 Z7.77
 X-17.82 Z7.75
 X-17.86 Z7.74
 X-17.92 Z7.72
 X-17.98 Z7.70
 X-18.07 Z7.67
 X-18.11
 X-18.23 Z7.65
 X-18.36 Z7.64
 X-18.48
 X-18.73 Z7.65
 X-18.98 Z7.66
 X-19.23 Z7.67
 X-19.48 Z7.68
 X-19.73 Z7.70
 X-19.98 Z7.72
 X-20.23 Z7.75
 X-20.48 Z7.79
 X-20.73 Z7.83
 X-20.98 Z7.87
 X-21.23 Z7.91
 X-21.48 Z7.95
 X-21.73 Z8.00
 X-21.98 Z8.05
 X-22.23 Z8.08
 X-22.48 Z8.12
 X-22.73 Z8.15
 X-22.98 Z8.18
 X-23.23 Z8.20
 X-23.48 Z8.22
 X-23.73 Z8.23
 X-23.98 Z8.24
 X-24.23 Z8.23
 X-24.48 Z8.22
 X-24.73 Z8.20
 X-24.98 Z8.18
 X-25.23 Z8.16
 X-25.48 Z8.13
 X-25.73 Z8.11
 X-25.98 Z8.08
 X-26.23 Z8.05
 X-26.48 Z8.03
 X-26.73 Z8.02
 X-26.98
 X-27.22
 X-27.47 Z8.03
 X-27.72
 X-27.97
 X-28.22 Z8.05
 X-28.47 Z8.06
 X-28.72 Z8.07
 X-28.97 Z8.10
 X-29.22 Z8.13
 X-29.35 Z8.15
 X-29.41 Z8.16
 X-29.44
 X-29.60 Z8.18
 X-29.63 Z8.19
 X-29.65
 X-29.66
 X-29.69 Z8.74
 X-29.71 Z8.89
 X-29.72 Z9.00
 Z9.02
 Z9.04
 Z9.05
 X-29.74 Z9.12
 X-29.75 Z9.17
 X-29.79 Z9.25
 X-29.82 Z9.32
 X-29.83 Z9.35
 X-29.85 Z9.37
 X-29.97 Z9.54
 X-30.04 Z9.64
 X-30.07 Z9.69
 X-30.08 Z9.72
 X-30.10 Z9.74
 X-30.22 Z9.89
 X-30.35 Z10.03
 X-30.41 Z10.09
 X-30.44 Z10.12
 X-30.46 Z10.14
 X-30.47 Z10.16
 X-30.60 Z10.52
 X-30.63 Z10.68
 X-30.64 Z10.76
 X-30.66 Z10.82
 X-30.69 Z10.91
 X-30.71 Z10.96
 X-30.72 Z11.00
 X-30.85 Z11.22
 X-30.91 Z11.34
 X-30.94 Z11.39
 X-30.96 Z11.41
 X-30.97 Z11.42
 Z11.43
 X-31.04 Z11.52
 X-31.07 Z11.55
 X-31.10 Z11.59
 X-31.22 Z11.69
 X-31.35 Z11.79
 X-31.41 Z11.83
 X-31.44 Z11.85
 X-31.46 Z11.86
 X-31.47 Z11.87
 X-31.54 Z11.91
 X-31.57 Z11.93
 X-31.60 Z11.94
 X-31.66 Z11.97
 X-31.69 Z11.98
 X-31.71 Z11.99
 X-31.72
 X-31.78 Z12.01
 X-31.82
 X-31.85 Z12.02
 X-31.91 Z12.03
 X-31.97
 X-32.03 Z12.04
 X-32.10
 X-32.16
 X-32.19 Z12.03
 X-32.21
 X-32.22
 X-32.28 Z12.02
 X-32.32 Z12.01
 X-32.33
 X-32.34
 X-32.35
 X-32.38 Z12.00
 X-32.39 Z11.99
 X-32.40
 X-32.41
 X-32.47 Z12.08
 X-32.53 Z12.21
 X-32.57 Z12.28
 X-32.58 Z12.31
 X-32.60 Z12.33
 X-32.66 Z12.43
 X-32.69 Z12.47
 X-32.72 Z12.50
 X-32.78 Z12.58
 X-32.82 Z12.61
 X-32.85 Z12.64
 X-32.91 Z12.70
 X-32.94 Z12.72
 X-32.96 Z12.74
 X-32.97 Z12.75
 X-33.03 Z12.79
 X-33.07 Z12.80
 X-33.10 Z12.82
 X-33.16 Z12.85
 X-33.19 Z12.86
 X-33.21 Z12.87
 X-33.22
 X-33.28 Z12.89
 X-33.32 Z12.90
 X-33.35 Z12.91
 X-33.41 Z12.92
 X-33.44
 X-33.47
 X-33.53 Z12.93
 X-33.60
 X-33.66 Z12.92
 X-33.72 Z12.91
 X-33.85 Z12.88
 X-33.91 Z12.87
 X-33.94 Z12.86
 X-33.96 Z12.85
 X-33.97
 X-34.03 Z12.82
 X-34.06 Z12.81
 X-34.10 Z12.80
 X-34.16 Z12.76
 X-34.19 Z12.74
 X-34.21 Z12.73
 X-34.22 Z12.72
 X-34.28 Z12.68
 X-34.31 Z12.65
 X-34.35 Z12.62
 X-34.41 Z12.55
 X-34.47 Z12.48
 X-34.53 Z12.41
 X-34.56 Z12.37
 X-34.58 Z12.35
 X-34.60 Z12.33
 X-34.72 Z12.11
 X-34.85 Z11.88
 X-34.91 Z11.75
 X-34.94 Z11.66
 X-34.95 Z11.64
 Z11.62
 Z11.61
 X-34.96 Z11.60
 Z11.59
 X-34.97
 X-35.10 Z11.68
 X-35.16 Z11.72
 X-35.19 Z11.74
 X-35.22 Z11.76
 X-35.28 Z11.79
 X-35.35 Z11.82
 X-35.41 Z11.84
 X-35.44 Z11.86
 X-35.47 Z11.87
 X-35.53 Z11.88
 X-35.56 Z11.89
 X-35.60 Z11.90
 X-35.66
 X-35.69 Z11.91
 X-35.72
 X-35.85
 X-35.91 Z11.90
 X-35.94
 X-35.97
 X-36.03 Z11.89
 X-36.06
 X-36.09 Z11.88
 X-36.16 Z11.86
 X-36.19 Z11.85
 X-36.22 Z11.84
 X-36.34 Z11.79
 X-36.41 Z11.75
 X-36.47 Z11.72
 X-36.72 Z11.55
 X-36.97 Z11.40
 X-37.06 Z11.34
 X-37.09 Z11.32
 X-37.16 Z11.28
 X-37.19 Z11.26
 X-37.20 Z11.24
 X-37.22 Z11.23
 X-37.28 Z11.17
 X-37.31 Z11.14
 X-37.33 Z11.12
 X-37.34 Z11.10
 X-37.38 Z11.06
 X-37.41 Z11.01
 X-37.44 Z10.96
 X-37.47 Z10.91
 X-37.53 Z10.80
 X-37.56 Z10.74
 X-37.58 Z10.71
 X-37.59 Z10.68
 X-37.66 Z10.52
 X-37.69 Z10.41
 X-37.72 Z10.30
 X-37.75 Z10.10
 X-37.77 Z9.88
 Z9.82
 Z9.77
 Z8.28
 X-37.84 Z8.25
 X-37.97 Z8.20
 X-38.22 Z8.08
 X-38.47 Z7.97
 X-38.53 Z7.94
 X-38.56 Z7.93
 X-38.59 Z7.92
 X-38.72 Z7.85
 X-38.97 Z7.70
 X-39.22 Z7.54
 X-39.47 Z7.37
 X-39.59 Z7.28
 X-39.72 Z7.20
 X-39.97 Z7.06
 X-40.22 Z6.92
 X-40.47 Z6.81
 X-40.72 Z6.69
 X-40.97 Z6.58
 X-41.22 Z6.47
 X-41.47 Z6.37
 X-41.72 Z6.28
 X-41.97 Z6.19
 X-42.22 Z6.09
 X-42.47 Z6.00
 X-42.72 Z5.90
 X-42.97 Z5.81
G0 Z25.00
 Y-5.90
G1 Z5.76
 X-42.72 Z5.84
 X-42.47 Z5.92
 X-42.22 Z6.00
 X-41.97 Z6.09
 X-41.72 Z6.17
 X-41.47 Z6.25
 X-41.22 Z6.33
 X-40.97 Z6.41
 X-40.72 Z6.49
 X-40.47 Z6.58
 X-40.22 Z6.66
 X-39.97 Z6.76
 X-39.72 Z6.86
 X-39.47 Z6.95
 X-39.22 Z7.04
 X-38.97 Z7.14
 X-38.72 Z7.25
 X-38.47 Z7.37
 X-38.22 Z7.49
 X-38.03 Z7.58
 X-38.00 Z7.59
 X-37.79 Z7.70
 Z9.02
 X-37.78 Z9.08
 X-37.72 Z9.47
 X-37.66 Z9.88
 X-37.63 Z10.05
 X-37.61 Z10.11
 X-37.59 Z10.16
 X-37.53 Z10.34
 X-37.50 Z10.41
 X-37.48 Z10.45
 X-37.47 Z10.48
 X-37.41 Z10.60
 X-37.34 Z10.70
 X-37.22 Z10.86
 X-36.97 Z11.18
 X-36.91 Z11.27
 X-36.88 Z11.31
 X-36.84 Z11.35
 X-36.78 Z11.41
 X-36.72 Z11.47
 X-36.59 Z11.56
 X-36.53 Z11.61
 X-36.50 Z11.63
 X-36.49 Z11.64
 X-36.47 Z11.65
 X-36.41 Z11.68
 X-36.38 Z11.70
 X-36.34 Z11.71
 X-36.28 Z11.74
 X-36.25 Z11.75
 X-36.22
 X-36.09 Z11.78
 X-36.03 Z11.79
 X-36.00 Z11.80
 X-35.97
 X-35.91 Z11.81
 X-35.85
 X-35.78
 X-35.75
 X-35.72
 X-35.60 Z11.78
 X-35.53 Z11.77
 X-35.50 Z11.76
 X-35.49
 X-35.47 Z11.75
 X-35.41 Z11.73
 X-35.38 Z11.72
 X-35.35 Z11.71
 X-35.28 Z11.68
 X-35.25 Z11.66
 X-35.24 Z11.65
 X-35.23 Z11.64
 X-35.22
 X-35.16 Z11.60
 X-35.11 Z11.57
 X-35.10 Z11.60
 X-34.97 Z11.82
 X-34.85 Z12.04
 X-34.72 Z12.23
 X-34.66 Z12.33
 X-34.63 Z12.38
 X-34.60 Z12.43
 X-34.53 Z12.50
 X-34.50 Z12.54
 X-34.47 Z12.57
 X-34.41 Z12.63
 X-34.38 Z12.66
 X-34.35 Z12.68
 X-34.28 Z12.73
 X-34.25 Z12.75
 X-34.22 Z12.77
 X-34.16 Z12.81
 X-34.13 Z12.82
 X-34.10 Z12.84
 X-34.03 Z12.87
 X-34.00 Z12.88
 X-33.97 Z12.89
 X-33.91 Z12.91
 X-33.85 Z12.92
 X-33.78 Z12.93
 X-33.75
 X-33.72 Z12.94
 X-33.66
 X-33.60
 X-33.53 Z12.93
 X-33.50
 X-33.47 Z12.92
 X-33.41 Z12.91
 X-33.35 Z12.89
 X-33.28 Z12.87
 X-33.22 Z12.84
 X-33.16 Z12.82
 X-33.13 Z12.80
 X-33.10 Z12.79
 X-33.03 Z12.75
 X-33.00 Z12.73
 X-32.99 Z12.72
 X-32.97 Z12.71
 X-32.91 Z12.66
 X-32.85 Z12.60
 X-32.78 Z12.53
 X-32.72 Z12.46
 X-32.60 Z12.28
 X-32.50 Z12.13
 X-32.49 Z12.10
 X-32.48 Z12.09
 X-32.47 Z12.08
 X-32.44 Z12.03
 X-32.43 Z12.00
 X-32.42 Z11.99
 X-32.41 Z11.98
 X-32.40 Z11.96
 X-32.39
 X-32.38 Z11.97
 X-32.35 Z11.98
 X-32.28 Z12.00
 X-32.25 Z12.01
 X-32.24
 X-32.22 Z12.02
 X-32.16 Z12.03
 X-32.10 Z12.04
 X-32.03
 X-32.00
 X-31.97
 X-31.91 Z12.03
 X-31.85 Z12.02
 X-31.72 Z11.99
 X-31.60 Z11.95
 X-31.47 Z11.91
 X-31.35 Z11.86
 X-31.29 Z11.84
 X-31.22 Z11.80
 X-31.10 Z11.73
 X-31.04 Z11.69
 X-31.00 Z11.66
 X-30.97 Z11.64
 X-30.91 Z11.60
 X-30.88 Z11.57
 X-30.85 Z11.54
 X-30.79 Z11.48
 X-30.75 Z11.45
 X-30.72 Z11.41
 X-30.60 Z11.23
 X-30.57 Z11.19
 X-30.54 Z11.14
 X-30.47 Z11.03
 X-30.41 Z10.90
 X-30.35 Z10.77
 X-30.22 Z10.43
 X-30.10 Z10.04
 X-30.04 Z9.75
 X-30.02 Z9.66
 Z9.63
 X-30.01 Z9.61
 Z9.60
 Z9.59
 Z9.58
 X-30.00
 X-29.99 Z9.56
 X-29.97 Z9.54
 X-29.91 Z9.47
 X-29.88 Z9.42
 X-29.85 Z9.37
 X-29.79 Z9.24
 X-29.75 Z9.19
 X-29.74 Z9.16
 X-29.73 Z9.15
 X-29.72 Z9.14
 X-29.69 Z9.09
 X-29.66 Z9.02
 X-29.65 Z8.99
 X-29.63 Z8.94
 X-29.60 Z8.84
 X-29.58 Z8.75
 Z8.70
 X-29.57 Z8.66
 Z8.65
 Z8.64
 X-29.55 Z8.58
 X-29.54 Z8.56
 Z8.53
 X-29.52 Z8.47
 X-29.50 Z8.38
 Z8.29
 Z8.16
 X-29.49 Z8.10
 Z7.92
 X-29.47
 X-29.22 Z7.91
 X-28.97
 X-28.72
 X-28.47
 X-28.22 Z7.92
 X-27.97
 X-27.72
 X-27.47
 X-27.22
 X-26.98 Z7.93
 X-26.73 Z7.94
 X-26.48 Z7.96
 X-26.23 Z7.98
 X-25.98 Z8.01
 X-25.73 Z8.04
 X-25.48 Z8.07
 X-25.23 Z8.11
 X-24.98 Z8.14
 X-24.73 Z8.18
 X-24.48 Z8.20
 X-24.23 Z8.22
 X-23.98 Z8.24
 X-23.73 Z8.25
 X-23.48
 X-23.23 Z8.24
 X-22.98 Z8.23
 X-22.73 Z8.20
 X-22.48 Z8.17
 X-22.23 Z8.13
 X-21.98 Z8.10
 X-21.73 Z8.05
 X-21.48 Z8.01
 X-21.23 Z7.97
 X-20.98 Z7.94
 X-20.73 Z7.91
 X-20.48 Z7.88
 X-20.23 Z7.87
 X-19.98 Z7.86
 X-19.73
 X-19.48 Z7.87
 X-19.42
 X-19.39
 X-19.35 Z7.88
 X-19.29 Z7.89
 X-19.26
 X-19.23
 X-18.98 Z7.96
 X-18.85 Z7.99
 X-18.79 Z8.01
 X-18.76 Z8.02
 X-18.73 Z8.03
 X-18.60 Z8.09
 X-18.48 Z8.15
 X-18.36 Z8.23
 X-18.23 Z8.31
 X-17.98 Z8.50
 X-17.73 Z8.70
 X-17.48 Z8.91
 X-17.23 Z9.13
 X-16.98 Z9.38
 X-16.73 Z9.66
 X-16.48 Z9.95
 X-16.23 Z10.25
 X-15.98 Z10.54
 X-15.73 Z10.81
 X-15.48 Z11.08
 X-15.23 Z11.34
 X-14.98 Z11.61
 X-14.73 Z11.87
 X-14.67 Z11.93
 X-14.64 Z11.96
 X-14.61 Z11.99
 X-14.58 Z12.02
 X-14.54 Z12.05
 X-14.48 Z12.10
 X-14.36 Z12.18
 X-14.29 Z12.22
 X-14.23 Z12.25
 X-14.17 Z12.28
 X-14.14 Z12.30
 X-14.11 Z12.31
 X-13.98 Z12.36
 X-13.86 Z12.40
 X-13.80 Z12.41
 X-13.73 Z12.43
 X-13.67 Z12.45
 X-13.61 Z12.46
 X-13.48 Z12.47
 X-13.42 Z12.48
 X-13.36
 X-13.30
 X-13.26
 X-13.25
