;PYCAM-META-DATA: Filename: V:\Portable\Documents\Fraesen2023\sylvester\VenusCenteredscaled10Unrolledat7simplified.stl
;PYCAM-META-DATA: Timestamp: 2025-12-11 01:23:15.890000
;PYCAM-META-DATA: Version: 0.5.1.1
;Estimated machine time: 6 minutes
G40 (disable tool radius compensation)
G49 (disable tool length compensation)
G80 (cancel modal motion)
G54 (select coordinate system 1)
G90 (disable incremental moves)
G21 (metric)
G61 (exact path mode)
F3000.00000
S3000.00000
;PYCAM_TOOLPATH_SETTINGS: START
;[Bounds]
;maxz = 16.60153
;maxx = 0.0
;maxy = 20.05
;minx = -43.97
;miny = -20.0515
;minz = 0.9334836
;
;[Tool]
;torus_radius = 0.25
;speed = 3000.0
;shape = SphericalCutter
;tool_radius = 1.0
;feedrate = 3000.0
;
;[Process]
;generator = DropCutter
;pocketing_type = none
;engrave_offset = 0.0
;milling_style = ignore
;path_direction = x
;step_down = 3.0
;postprocessor = PathAccumulator
;material_allowance = 0.0
;
;PYCAM_TOOLPATH_SETTINGS: END
T1 M6
G0 Z25.00
M3 (start spindle)
G04 P3 (wait for 3 seconds)
 X-43.97 Y-20.05
G1 Z9.66
 X-43.72 Z9.68
 X-43.47 Z9.71
 X-43.22 Z9.75
 X-42.97 Z9.81
 X-42.72 Z9.89
 X-42.47 Z9.96
 X-42.22 Z10.05
 X-41.97 Z10.14
 X-41.72 Z10.25
 X-41.47 Z10.36
 X-41.35 Z10.43
 X-41.28 Z10.46
 X-41.25 Z10.47
 X-41.24 Z10.48
 X-41.22 Z10.49
 X-40.97 Z10.57
 X-40.72 Z10.64
 X-40.60 Z10.67
 X-40.47 Z10.70
 X-40.22 Z10.74
 X-39.97 Z10.76
 X-39.72 Z10.77
 X-39.47 Z10.78
 X-39.22 Z10.77
 X-38.97 Z10.76
 X-38.72 Z10.72
 X-38.47 Z10.68
 X-38.22 Z10.63
 X-37.97 Z10.58
 X-37.72 Z10.52
 X-37.47 Z10.47
 X-37.22 Z10.40
 X-36.97 Z10.33
 X-36.72 Z10.24
 X-36.48 Z10.16
 X-36.23 Z10.08
 X-35.98 Z10.01
 X-35.73 Z9.93
 X-35.60 Z9.89
 X-35.54 Z9.88
 X-35.51 Z9.87
 X-35.44 Z9.86
 X-35.41
 X-35.35
 X-35.23 Z9.88
 X-34.98 Z9.93
 X-34.85 Z9.96
 X-34.73 Z10.00
 X-34.60 Z10.04
 X-34.54 Z10.06
 X-34.48 Z10.09
 X-34.23 Z10.21
 X-33.98 Z10.36
 X-33.73 Z10.53
 X-33.48 Z10.70
 X-33.23 Z10.87
 X-32.98 Z11.06
 X-32.73 Z11.26
 X-32.48 Z11.46
 X-32.23 Z11.69
 X-31.98 Z11.92
 X-31.73 Z12.16
 X-31.48 Z12.39
 X-31.23 Z12.61
 X-30.98 Z12.83
 X-30.73 Z13.05
 X-30.48 Z13.26
 X-30.23 Z13.44
 X-29.98 Z13.62
 X-29.85 Z13.69
 X-29.73 Z13.76
 X-29.60 Z13.82
 X-29.54 Z13.85
 X-29.48 Z13.87
 X-29.42 Z13.90
 X-29.35 Z13.92
 X-29.23 Z13.95
 X-29.11 Z13.98
 X-29.04 Z13.99
 X-28.98 Z14.00
 X-28.86 Z14.01
 X-28.73
 X-28.48 Z14.00
 X-28.23 Z13.99
 X-27.98 Z13.95
 X-27.86 Z13.94
 X-27.73 Z13.91
 X-27.48 Z13.85
 X-27.23 Z13.76
 X-26.98 Z13.68
 X-26.73 Z13.59
 X-26.48 Z13.49
 X-26.23 Z13.40
 X-25.98 Z13.31
 X-25.73 Z13.22
 X-25.48 Z13.15
 X-25.23 Z13.09
 X-24.98 Z13.04
 X-24.73 Z12.98
 X-24.61 Z12.96
 X-24.48 Z12.93
 X-24.23 Z12.90
 X-24.11 Z12.89
 X-23.98 Z12.88
 X-23.73
 X-23.48 Z12.90
 X-23.23 Z12.94
 X-22.98 Z12.97
 X-22.73 Z13.02
 X-22.48 Z13.08
 X-22.23 Z13.14
 X-21.98 Z13.19
 X-21.74 Z13.23
 X-21.49 Z13.26
 X-21.24 Z13.29
 X-20.99 Z13.31
 X-20.74 Z13.32
 X-20.49 Z13.33
 X-20.24
 X-20.11 Z13.32
 X-20.05
 X-20.02 Z13.31
 X-19.99
 X-19.86 Z13.28
 X-19.74 Z13.24
 X-19.67 Z13.22
 X-19.64 Z13.21
 X-19.61 Z13.19
 X-19.55 Z13.16
 X-19.52 Z13.15
 X-19.50 Z13.14
 X-19.49 Z13.13
 X-19.42 Z13.08
 X-19.39 Z13.06
 X-19.36 Z13.03
 X-19.33 Z13.00
 X-19.30 Z12.97
 X-19.27 Z12.94
 X-19.25 Z12.92
 X-19.24 Z12.90
 X-19.11 Z12.70
 X-19.08 Z12.62
 X-19.07 Z12.60
 Z12.59
 Z12.58
 X-19.06 Z12.56
 Z12.55
 X-19.05 Z12.54
 X-19.02 Z12.51
 X-19.00 Z12.49
 X-18.99 Z12.47
 X-18.92 Z12.44
 X-18.89 Z12.41
 X-18.86 Z12.39
 X-18.80 Z12.34
 X-18.77 Z12.31
 X-18.74 Z12.27
 X-18.49 Z11.94
 X-18.24 Z11.59
 X-17.99 Z11.24
 X-17.74 Z10.91
 X-17.49 Z10.63
 X-17.24 Z10.37
 X-16.99 Z10.11
 X-16.74 Z9.87
 X-16.49 Z9.62
 X-15.99 Z9.16
 X-15.74 Z8.91
 X-15.61 Z8.78
 X-15.49 Z8.67
 X-15.24 Z8.47
 X-14.99 Z8.25
 X-14.74 Z8.00
 X-14.49 Z7.72
 X-14.24 Z7.46
 X-13.99 Z7.20
 X-13.74 Z6.97
 X-13.49 Z6.76
 X-13.37 Z6.66
 X-13.24 Z6.57
 X-13.08 Z6.47
 X-13.05 Z6.45
 X-12.91 Z6.38
 X-12.90
 X-12.77 Z6.35
 X-12.70
 X-12.69
 X-12.55 Z6.37
 X-12.49 Z6.38
 X-12.37 Z6.42
 X-12.24 Z6.46
 X-11.99 Z6.58
 X-11.74 Z6.72
 X-11.49 Z6.87
 X-11.24 Z7.05
 X-10.99 Z7.23
 X-10.74 Z7.43
 X-10.49 Z7.64
 X-10.24 Z7.87
 X-9.99 Z8.13
 X-9.74 Z8.37
 X-9.49 Z8.63
 X-9.24 Z8.91
 X-8.99 Z9.24
 X-8.74 Z9.60
 X-8.49 Z10.00
 X-8.24 Z10.42
 X-7.99 Z10.84
 X-7.74 Z11.25
 X-7.62 Z11.44
 X-7.49 Z11.60
 X-7.43 Z11.68
 X-7.40 Z11.72
 X-7.37 Z11.75
 X-7.25 Z11.86
 X-7.12 Z11.96
 X-7.06 Z12.01
 X-7.03 Z12.04
 X-7.01 Z12.05
 X-7.00 Z12.06
 X-6.93 Z12.09
 X-6.90 Z12.11
 X-6.87 Z12.12
 X-6.81 Z12.15
 X-6.75 Z12.17
 X-6.62 Z12.21
 X-6.56 Z12.22
 X-6.53 Z12.23
 X-6.50 Z12.24
 X-6.43
 X-6.37 Z12.25
 X-6.25
 X-6.12 Z12.24
 X-6.06
 X-6.03
 X-6.00 Z12.23
 X-5.75 Z12.17
 X-5.50 Z12.10
 X-5.25 Z12.01
 X-5.00 Z11.94
 X-4.75 Z11.85
 X-4.50 Z11.76
 X-4.25 Z11.67
 X-4.12 Z11.63
 X-4.00 Z11.58
 X-3.75 Z11.46
 X-3.50 Z11.33
 X-3.25 Z11.19
 X-3.00 Z11.03
 X-2.75 Z10.86
 X-2.50 Z10.66
 X-2.25 Z10.48
 X-2.00 Z10.29
 X-1.75 Z10.13
 X-1.62 Z10.05
 X-1.50 Z9.99
 X-1.25 Z9.88
 X-1.00 Z9.80
 X-0.62 Z9.70
 X-0.56 Z9.68
 X-0.50 Z9.67
 X-0.25 Z9.65
 X0.00 Z9.62
G0 Z25.00
 Y-19.85
G1 Z9.75
 X-0.25 Z9.76
 X-0.31 Z9.77
 X-0.37 Z9.78
 X-0.50 Z9.80
 X-0.75 Z9.87
 X-1.00 Z9.94
 X-1.12 Z9.98
 X-1.19 Z10.01
 X-1.25 Z10.03
 X-1.50 Z10.15
 X-1.75 Z10.29
 X-2.00 Z10.46
 X-2.25 Z10.64
 X-2.50 Z10.82
 X-2.75 Z11.00
 X-3.00 Z11.15
 X-3.25 Z11.30
 X-3.50 Z11.42
 X-3.75 Z11.52
 X-3.87 Z11.58
 X-4.00 Z11.63
 X-4.25 Z11.70
 X-4.50 Z11.78
 X-4.75 Z11.86
 X-5.00 Z11.93
 X-5.25 Z12.00
 X-5.50 Z12.07
 X-5.75 Z12.14
 X-5.87 Z12.17
 X-5.93 Z12.19
 X-5.96 Z12.20
 X-6.00
 X-6.12 Z12.21
 X-6.25 Z12.22
 X-6.31
 X-6.34
 X-6.37
 X-6.43 Z12.21
 X-6.50 Z12.20
 X-6.62 Z12.17
 X-6.68 Z12.16
 X-6.71 Z12.15
 X-6.73
 X-6.75 Z12.14
 X-6.81 Z12.12
 X-6.84 Z12.11
 X-6.87 Z12.09
 X-6.93 Z12.06
 X-6.96 Z12.04
 X-7.00 Z12.02
 X-7.12 Z11.93
 X-7.18 Z11.88
 X-7.21 Z11.85
 X-7.25 Z11.83
 X-7.31 Z11.77
 X-7.37 Z11.71
 X-7.49 Z11.55
 X-7.74 Z11.20
 X-7.99 Z10.79
 X-8.24 Z10.37
 X-8.49 Z9.95
 X-8.74 Z9.55
 X-8.99 Z9.19
 X-9.24 Z8.87
 X-9.49 Z8.60
 X-9.74 Z8.33
 X-9.99 Z8.10
 X-10.24 Z7.84
 X-10.49 Z7.60
 X-10.74 Z7.40
 X-10.99 Z7.20
 X-11.24 Z7.02
 X-11.49 Z6.84
 X-11.74 Z6.69
 X-11.99 Z6.56
 X-12.12 Z6.49
 X-12.24 Z6.44
 X-12.37 Z6.40
 X-12.49 Z6.36
 X-12.55 Z6.35
 X-12.69 Z6.32
 X-12.70
 X-12.74 Z6.33
 X-12.80 Z6.34
 X-12.91 Z6.36
 Z6.37
 X-13.07 Z6.44
 X-13.08 Z6.45
 X-13.24 Z6.55
 X-13.49 Z6.74
 X-13.74 Z6.94
 X-13.99 Z7.18
 X-14.24 Z7.43
 X-14.49 Z7.70
 X-14.74 Z7.97
 X-14.99 Z8.23
 X-15.24 Z8.45
 X-15.36 Z8.55
 X-15.49 Z8.65
 X-15.74 Z8.89
 X-15.99 Z9.14
 X-16.49 Z9.60
 X-16.74 Z9.85
 X-16.99 Z10.09
 X-17.24 Z10.35
 X-17.49 Z10.61
 X-17.74 Z10.89
 X-17.99 Z11.21
 X-18.24 Z11.57
 X-18.49 Z11.92
 X-18.67 Z12.18
 X-18.71 Z12.22
 X-18.72 Z12.24
 X-18.74 Z12.26
 X-18.80 Z12.32
 X-18.83 Z12.35
 X-18.86 Z12.38
 X-18.92 Z12.42
 X-18.96 Z12.44
 X-18.97 Z12.45
 X-18.98 Z12.46
 X-18.99
 X-19.11 Z12.67
 X-19.14 Z12.74
 X-19.17 Z12.79
 X-19.21 Z12.84
 X-19.22 Z12.86
 X-19.23 Z12.87
 X-19.24 Z12.88
 X-19.30 Z12.96
 X-19.33 Z12.99
 X-19.36 Z13.02
 X-19.42 Z13.07
 X-19.46 Z13.09
 X-19.47 Z13.10
 X-19.49 Z13.11
 X-19.55 Z13.15
 X-19.58 Z13.17
 X-19.61 Z13.18
 X-19.74 Z13.23
 X-19.86 Z13.27
 X-19.92 Z13.28
 X-19.96 Z13.29
 X-19.99 Z13.30
 X-20.24 Z13.32
 X-20.49
 X-20.74 Z13.31
 X-20.99 Z13.30
 X-21.24 Z13.28
 X-21.49 Z13.25
 X-21.74 Z13.23
 X-21.98 Z13.20
 X-22.23 Z13.16
 X-22.48 Z13.12
 X-22.73 Z13.07
 X-22.98 Z13.03
 X-23.23 Z13.01
 X-23.48 Z12.98
 X-23.73 Z12.96
 X-23.86
 X-23.98
 X-24.23 Z12.99
 X-24.48 Z13.03
 X-24.73 Z13.09
 X-24.98 Z13.15
 X-25.23 Z13.22
 X-25.48 Z13.29
 X-25.73 Z13.37
 X-25.98 Z13.46
 X-26.23 Z13.56
 X-26.48 Z13.66
 X-26.73 Z13.77
 X-26.98 Z13.86
 X-27.23 Z13.94
 X-27.48 Z14.03
 X-27.54 Z14.05
 X-27.61 Z14.07
 X-27.73 Z14.10
 X-27.98 Z14.14
 X-28.23 Z14.16
 X-28.48 Z14.19
 X-28.61
 X-28.67 Z14.20
 X-28.73
 X-28.86
 X-28.98 Z14.19
 X-29.23 Z14.14
 X-29.35 Z14.12
 X-29.42 Z14.10
 X-29.45 Z14.09
 X-29.48 Z14.08
 X-29.73 Z13.96
 X-29.98 Z13.82
 X-30.23 Z13.66
 X-30.48 Z13.48
 X-30.73 Z13.27
 X-30.98 Z13.06
 X-31.23 Z12.84
 X-31.48 Z12.62
 X-31.73 Z12.40
 X-31.98 Z12.17
 X-32.23 Z11.94
 X-32.48 Z11.71
 X-32.73 Z11.51
 X-32.98 Z11.31
 X-33.23 Z11.12
 X-33.48 Z10.94
 X-33.73 Z10.78
 X-33.98 Z10.62
 X-34.23 Z10.46
 X-34.32 Z10.40
 X-34.35 Z10.39
 X-34.48 Z10.33
 X-34.60 Z10.28
 X-34.73 Z10.23
 X-34.98 Z10.17
 X-35.35 Z10.09
 X-35.38
 X-35.41
 X-35.48 Z10.10
 X-35.73 Z10.16
 X-35.98 Z10.23
 X-36.23 Z10.30
 X-36.48 Z10.38
 X-36.72 Z10.46
 X-36.97 Z10.54
 X-37.22 Z10.61
 X-37.47 Z10.67
 X-37.72 Z10.72
 X-37.97 Z10.78
 X-38.22 Z10.83
 X-38.47 Z10.88
 X-38.72 Z10.92
 X-38.97 Z10.96
 X-39.22 Z10.98
 X-39.47 Z10.99
 X-39.72 Z10.98
 X-39.97 Z10.96
 X-40.22 Z10.93
 X-40.47 Z10.89
 X-40.72 Z10.82
 X-40.97 Z10.75
 X-41.10 Z10.71
 X-41.16 Z10.69
 X-41.22 Z10.67
 X-41.47 Z10.54
 X-41.72 Z10.42
 X-41.97 Z10.32
 X-42.22 Z10.22
 X-42.47 Z10.13
 X-42.72 Z10.05
 X-42.97 Z9.97
 X-43.22 Z9.90
 X-43.47 Z9.85
 X-43.72 Z9.81
 X-43.97 Z9.78
G0 Z25.00
 Y-19.65
G1 Z9.91
 X-43.72 Z9.95
 X-43.47 Z9.99
 X-43.22 Z10.05
 X-42.97 Z10.13
 X-42.72 Z10.22
 X-42.47 Z10.31
 X-42.22 Z10.40
 X-41.97 Z10.51
 X-41.72 Z10.61
 X-41.47 Z10.72
 X-41.35 Z10.78
 X-41.28 Z10.81
 X-41.25 Z10.83
 X-41.22 Z10.84
 X-40.97 Z10.93
 X-40.72 Z11.01
 X-40.47 Z11.08
 X-40.22 Z11.13
 X-39.97 Z11.16
 X-39.72 Z11.17
 X-39.47 Z11.19
 X-39.22 Z11.18
 X-38.97 Z11.16
 X-38.72 Z11.13
 X-38.47 Z11.08
 X-38.22 Z11.03
 X-37.97 Z10.98
 X-37.72 Z10.93
 X-37.47 Z10.87
 X-37.22 Z10.81
 X-36.97 Z10.75
 X-36.72 Z10.68
 X-36.48 Z10.60
 X-36.23 Z10.53
 X-35.98 Z10.46
 X-35.73 Z10.39
 X-35.54 Z10.34
 X-35.51 Z10.33
 X-35.49
 X-35.40 Z10.31
 X-35.35 Z10.32
 X-35.23 Z10.35
 X-34.98 Z10.40
 X-34.85 Z10.44
 X-34.73 Z10.47
 X-34.60 Z10.52
 X-34.48 Z10.57
 X-34.23 Z10.71
 X-33.98 Z10.86
 X-33.73 Z11.03
 X-33.48 Z11.19
 X-33.23 Z11.37
 X-32.98 Z11.55
 X-32.73 Z11.75
 X-32.48 Z11.95
 X-32.23 Z12.18
 X-31.98 Z12.40
 X-31.73 Z12.63
 X-31.48 Z12.85
 X-31.23 Z13.07
 X-30.98 Z13.28
 X-30.73 Z13.50
 X-30.48 Z13.70
 X-30.23 Z13.87
 X-29.98 Z14.03
 X-29.85 Z14.10
 X-29.79 Z14.14
 X-29.73 Z14.17
 X-29.48 Z14.26
 X-29.35 Z14.30
 X-29.26 Z14.33
 X-29.23 Z14.34
 X-29.17 Z14.35
 X-29.14 Z14.36
 X-29.11
 X-28.98 Z14.37
 X-28.73 Z14.38
 X-28.48 Z14.37
 X-28.23 Z14.34
 X-27.98 Z14.31
 X-27.86 Z14.29
 X-27.73 Z14.27
 X-27.48 Z14.19
 X-27.23 Z14.11
 X-26.98 Z14.04
 X-26.73 Z13.94
 X-26.48 Z13.83
 X-26.23 Z13.72
 X-25.98 Z13.61
 X-25.73 Z13.51
 X-25.48 Z13.42
 X-25.23 Z13.34
 X-24.98 Z13.27
 X-24.73 Z13.19
 X-24.48 Z13.13
 X-24.23 Z13.08
 X-24.11 Z13.06
 X-23.98 Z13.04
 X-23.73
 X-23.48 Z13.05
 X-23.23 Z13.07
 X-22.98 Z13.09
 X-22.73 Z13.11
 X-22.48 Z13.15
 X-22.23 Z13.18
 X-21.98 Z13.20
 X-21.74 Z13.22
 X-21.49 Z13.24
 X-21.24 Z13.25
 X-20.99 Z13.26
 X-20.74
 X-20.49 Z13.28
 X-20.24 Z13.27
 X-20.11 Z13.26
 X-20.05
 X-20.02 Z13.25
 X-19.99
 X-19.86 Z13.21
 X-19.80 Z13.19
 X-19.77 Z13.18
 X-19.74 Z13.17
 X-19.67 Z13.15
 X-19.64 Z13.14
 X-19.61 Z13.12
 X-19.55 Z13.09
 X-19.52 Z13.07
 X-19.50 Z13.06
 X-19.49 Z13.05
 X-19.42 Z13.00
 X-19.39 Z12.98
 X-19.38 Z12.96
 X-19.36 Z12.95
 X-19.33 Z12.91
 X-19.30 Z12.88
 X-19.24 Z12.79
 X-19.21 Z12.74
 X-19.17 Z12.68
 X-19.14 Z12.61
 Z12.59
 X-19.13 Z12.58
 Z12.57
 Z12.56
 X-19.12 Z12.55
 X-19.11 Z12.54
 X-19.08 Z12.50
 X-19.07 Z12.48
 X-19.06 Z12.47
 X-19.05 Z12.46
 X-18.99 Z12.40
 X-18.92 Z12.36
 X-18.89 Z12.33
 X-18.88 Z12.32
 X-18.86 Z12.31
 X-18.83 Z12.28
 X-18.80 Z12.25
 X-18.74 Z12.17
 X-18.49 Z11.82
 X-18.24 Z11.47
 X-17.99 Z11.12
 X-17.74 Z10.80
 X-17.49 Z10.52
 X-17.24 Z10.27
 X-16.99 Z10.01
 X-16.74 Z9.77
 X-16.49 Z9.52
 X-16.24 Z9.29
 X-15.99 Z9.06
 X-15.74 Z8.81
 X-15.49 Z8.57
 X-15.24 Z8.37
 X-14.99 Z8.14
 X-14.74 Z7.88
 X-14.49 Z7.61
 X-14.24 Z7.34
 X-13.99 Z7.09
 X-13.74 Z6.86
 X-13.49 Z6.66
 X-13.37 Z6.56
 X-13.12 Z6.39
 X-13.05 Z6.36
 X-12.93 Z6.30
 X-12.90
 X-12.78 Z6.27
 X-12.69 Z6.26
 X-12.68
 X-12.52 Z6.29
 X-12.49
 X-12.30 Z6.35
 X-12.24 Z6.37
 X-11.99 Z6.48
 X-11.74 Z6.62
 X-11.49 Z6.77
 X-11.24 Z6.94
 X-10.99 Z7.12
 X-10.74 Z7.31
 X-10.49 Z7.51
 X-10.24 Z7.75
 X-9.99 Z8.00
 X-9.74 Z8.24
 X-9.49 Z8.50
 X-9.24 Z8.77
 X-8.99 Z9.08
 X-8.74 Z9.42
 X-8.49 Z9.82
 X-8.24 Z10.23
 X-7.99 Z10.65
 X-7.74 Z11.06
 X-7.62 Z11.26
 X-7.49 Z11.44
 X-7.37 Z11.59
 X-7.34 Z11.63
 X-7.31 Z11.67
 X-7.25 Z11.73
 X-7.12 Z11.84
 X-7.06 Z11.89
 X-7.03 Z11.91
 X-7.01 Z11.93
 X-7.00 Z11.94
 X-6.93 Z11.98
 X-6.90 Z12.00
 X-6.87 Z12.02
 X-6.81 Z12.04
 X-6.78 Z12.06
 X-6.75 Z12.07
 X-6.62 Z12.10
 X-6.50 Z12.13
 X-6.37 Z12.15
 X-6.31
 X-6.25 Z12.16
 X-6.12
 X-6.06 Z12.15
 X-6.00
 X-5.75 Z12.11
 X-5.50 Z12.05
 X-5.25 Z11.98
 X-5.00 Z11.92
 X-4.75 Z11.86
 X-4.50 Z11.79
 X-4.25 Z11.73
 X-4.00 Z11.65
 X-3.75 Z11.58
 X-3.50 Z11.49
 X-3.25 Z11.39
 X-3.00 Z11.27
 X-2.75 Z11.12
 X-2.50 Z10.96
 X-2.25 Z10.81
 X-2.00 Z10.63
 X-1.75 Z10.46
 X-1.50 Z10.31
 X-1.25 Z10.18
 X-1.00 Z10.08
 X-0.75 Z10.01
 X-0.50 Z9.94
 X-0.37 Z9.91
 X-0.28 Z9.89
 X-0.25
 X0.00
G0 Z25.00
 Y-19.45
G1 Z10.03
 X-0.12
 X-0.19
 X-0.20
 X-0.22
 X-0.25
 X-0.50 Z10.09
 X-0.75 Z10.16
 X-1.00 Z10.24
 X-1.25 Z10.35
 X-1.50 Z10.48
 X-1.75 Z10.63
 X-2.00 Z10.79
 X-2.25 Z10.96
 X-2.50 Z11.10
 X-2.75 Z11.24
 X-3.00 Z11.37
 X-3.12 Z11.42
 X-3.25 Z11.48
 X-3.50 Z11.56
 X-3.75 Z11.62
 X-4.00 Z11.68
 X-4.25 Z11.74
 X-4.50 Z11.80
 X-4.75 Z11.86
 X-5.00 Z11.92
 X-5.25 Z11.97
 X-5.50 Z12.03
 X-5.75 Z12.06
 X-5.87 Z12.08
 X-5.93 Z12.09
 X-5.96
 X-6.00
 X-6.06
 X-6.12
 X-6.18
 X-6.25 Z12.08
 X-6.50 Z12.02
 X-6.62 Z11.99
 X-6.68 Z11.97
 X-6.71 Z11.96
 X-6.73
 X-6.75 Z11.95
 X-6.81 Z11.92
 X-6.84 Z11.91
 X-6.87 Z11.89
 X-6.93 Z11.85
 X-7.00 Z11.79
 X-7.06 Z11.74
 X-7.09 Z11.71
 X-7.12 Z11.68
 X-7.25 Z11.55
 X-7.37 Z11.39
 X-7.49 Z11.22
 X-7.74 Z10.82
 X-7.99 Z10.40
 X-8.24 Z9.98
 X-8.49 Z9.58
 X-8.74 Z9.20
 X-8.99 Z8.87
 X-9.24 Z8.58
 X-9.49 Z8.32
 X-9.74 Z8.07
 X-9.99 Z7.83
 X-10.24 Z7.58
 X-10.49 Z7.35
 X-10.74 Z7.16
 X-11.24 Z6.79
 X-11.49 Z6.62
 X-11.74 Z6.49
 X-11.87 Z6.42
 X-11.93 Z6.38
 X-11.99 Z6.35
 X-12.12 Z6.30
 X-12.18 Z6.27
 X-12.24 Z6.24
 X-12.46 Z6.18
 X-12.49 Z6.17
 X-12.68 Z6.14
 X-12.71
 X-12.80 Z6.15
 X-12.87 Z6.17
 X-12.96 Z6.19
 X-12.99 Z6.21
 X-13.12 Z6.26
 X-13.24 Z6.34
 X-13.37 Z6.42
 X-13.49 Z6.51
 X-13.74 Z6.71
 X-13.99 Z6.94
 X-14.24 Z7.18
 X-14.49 Z7.45
 X-14.74 Z7.72
 X-14.99 Z7.99
 X-15.24 Z8.23
 X-15.49 Z8.43
 X-15.74 Z8.65
 X-15.99 Z8.91
 X-16.24 Z9.14
 X-16.49 Z9.38
 X-16.74 Z9.61
 X-16.99 Z9.86
 X-17.24 Z10.11
 X-17.49 Z10.37
 X-17.74 Z10.64
 X-17.99 Z10.95
 X-18.24 Z11.29
 X-18.49 Z11.65
 X-18.74 Z12.00
 X-18.99 Z12.28
 X-19.24 Z12.60
 X-19.27 Z12.66
 X-19.30 Z12.72
 X-19.33 Z12.76
 X-19.35 Z12.78
 X-19.36 Z12.80
 X-19.39 Z12.84
 X-19.42 Z12.87
 X-19.46 Z12.90
 X-19.47 Z12.91
 X-19.49 Z12.93
 X-19.55 Z12.97
 X-19.58 Z12.99
 X-19.61 Z13.01
 X-19.67 Z13.04
 X-19.74 Z13.07
 X-19.86 Z13.12
 X-19.92 Z13.14
 X-19.96 Z13.15
 X-19.99 Z13.16
 X-20.11 Z13.18
 X-20.24 Z13.20
 X-20.49 Z13.21
 X-20.74
 X-20.99
 X-21.24
 X-21.49
 X-21.74 Z13.20
 X-21.98
 X-22.23 Z13.18
 X-22.48 Z13.17
 X-22.73 Z13.15
 X-22.98 Z13.13
 X-23.23 Z13.12
 X-23.48 Z13.11
 X-23.73 Z13.12
 X-23.86
 X-23.98 Z13.13
 X-24.23 Z13.17
 X-24.48 Z13.23
 X-24.73 Z13.31
 X-24.98 Z13.38
 X-25.23 Z13.47
 X-25.48 Z13.55
 X-25.61 Z13.60
 X-25.67 Z13.62
 X-25.73 Z13.64
 X-25.98 Z13.76
 X-26.23 Z13.88
 X-26.48 Z14.00
 X-26.73 Z14.10
 X-26.86 Z14.16
 X-26.98 Z14.20
 X-27.23 Z14.27
 X-27.48 Z14.35
 X-27.73 Z14.43
 X-27.86 Z14.46
 X-27.98 Z14.48
 X-28.23 Z14.51
 X-28.48 Z14.53
 X-28.73 Z14.55
 X-28.86
 X-28.98 Z14.54
 X-29.11 Z14.53
 X-29.23 Z14.51
 X-29.35 Z14.48
 X-29.48 Z14.44
 X-29.73 Z14.35
 X-29.98 Z14.23
 X-30.23 Z14.08
 X-30.48 Z13.91
 X-30.73 Z13.72
 X-30.98 Z13.51
 X-31.23 Z13.29
 X-31.48 Z13.08
 X-31.73 Z12.85
 X-31.98 Z12.63
 X-32.23 Z12.40
 X-32.48 Z12.19
 X-32.73 Z11.98
 X-32.98 Z11.78
 X-33.23 Z11.60
 X-33.48 Z11.43
 X-33.73 Z11.26
 X-33.98 Z11.10
 X-34.23 Z10.95
 X-34.35 Z10.87
 X-34.48 Z10.81
 X-34.54 Z10.78
 X-34.60 Z10.75
 X-34.73 Z10.71
 X-34.98 Z10.64
 X-35.19 Z10.58
 X-35.21
 X-35.32 Z10.56
 X-35.34
 X-35.40 Z10.55
 X-35.41
 X-35.48 Z10.56
 X-35.73 Z10.63
 X-35.98 Z10.69
 X-36.23 Z10.76
 X-36.48 Z10.83
 X-36.72 Z10.90
 X-36.97 Z10.96
 X-37.22 Z11.02
 X-37.47 Z11.07
 X-37.72 Z11.12
 X-37.97 Z11.18
 X-38.22 Z11.23
 X-38.47 Z11.28
 X-38.72 Z11.33
 X-38.97 Z11.36
 X-39.10 Z11.37
 X-39.22 Z11.38
 X-39.47
 X-39.72 Z11.37
 X-39.97 Z11.36
 X-40.22 Z11.32
 X-40.47 Z11.27
 X-40.72 Z11.20
 X-40.97 Z11.12
 X-41.10 Z11.08
 X-41.22 Z11.03
 X-41.47 Z10.92
 X-41.72 Z10.81
 X-41.97 Z10.70
 X-42.22 Z10.59
 X-42.47 Z10.49
 X-42.72 Z10.40
 X-42.97 Z10.30
 X-43.22 Z10.22
 X-43.47 Z10.15
 X-43.72 Z10.10
 X-43.97 Z10.05
G0 Z25.00
 Y-19.25
G1 Z10.20
 X-43.72 Z10.26
 X-43.60 Z10.28
 X-43.47 Z10.31
 X-43.22 Z10.39
 X-42.97 Z10.48
 X-42.72 Z10.58
 X-42.47 Z10.68
 X-42.22 Z10.79
 X-41.97 Z10.89
 X-41.72 Z11.01
 X-41.47 Z11.12
 X-41.22 Z11.23
 X-40.97 Z11.32
 X-40.72 Z11.40
 X-40.47 Z11.46
 X-40.22 Z11.52
 X-39.97 Z11.55
 X-39.72 Z11.57
 X-39.47 Z11.58
 X-39.22
 X-38.97 Z11.56
 X-38.72 Z11.53
 X-38.47 Z11.48
 X-38.22 Z11.43
 X-37.97 Z11.38
 X-37.72 Z11.32
 X-37.47 Z11.27
 X-37.22 Z11.23
 X-36.97 Z11.17
 X-36.72 Z11.12
 X-36.48 Z11.05
 X-36.23 Z10.99
 X-35.98 Z10.93
 X-35.73 Z10.86
 X-35.60 Z10.83
 X-35.54 Z10.82
 X-35.51 Z10.81
 X-35.49
 X-35.48
 Z10.80
 X-35.41 Z10.79
 X-35.38 Z10.78
 X-35.35
 X-35.23 Z10.81
 X-34.98 Z10.87
 X-34.85 Z10.90
 X-34.73 Z10.94
 X-34.60 Z10.99
 X-34.54 Z11.01
 X-34.48 Z11.04
 X-34.23 Z11.18
 X-33.98 Z11.33
 X-33.73 Z11.49
 X-33.48 Z11.65
 X-33.23 Z11.82
 X-32.98 Z12.01
 X-32.73 Z12.20
 X-32.48 Z12.40
 X-32.23 Z12.62
 X-31.98 Z12.85
 X-31.73 Z13.07
 X-31.48 Z13.29
 X-31.23 Z13.51
 X-30.98 Z13.72
 X-30.73 Z13.93
 X-30.48 Z14.12
 X-30.23 Z14.28
 X-29.98 Z14.42
 X-29.73 Z14.53
 X-29.64 Z14.57
 X-29.60 Z14.58
 X-29.48 Z14.62
 X-29.35 Z14.65
 X-29.23 Z14.68
 X-29.11 Z14.70
 X-28.98 Z14.71
 X-28.86 Z14.72
 X-28.73
 X-28.48 Z14.70
 X-28.23 Z14.67
 X-27.98 Z14.63
 X-27.86 Z14.61
 X-27.73 Z14.58
 X-27.48 Z14.51
 X-27.23 Z14.43
 X-27.11 Z14.40
 X-27.04 Z14.39
 X-26.98 Z14.37
 X-26.73 Z14.27
 X-26.48 Z14.15
 X-26.23 Z14.03
 X-25.98 Z13.90
 X-25.86 Z13.83
 X-25.73 Z13.77
 X-25.48 Z13.68
 X-25.23 Z13.58
 X-24.98 Z13.49
 X-24.73 Z13.40
 X-24.48 Z13.32
 X-24.23 Z13.26
 X-24.11 Z13.23
 X-24.05 Z13.22
 X-23.98 Z13.21
 X-23.73 Z13.19
 X-23.48 Z13.18
 X-23.23 Z13.17
 X-22.98 Z13.16
 X-22.73 Z13.17
 X-22.48
 X-22.23 Z13.18
 X-21.98
 X-21.74 Z13.19
 X-21.49 Z13.18
 X-21.24 Z13.17
 X-20.99
 X-20.74 Z13.16
 X-20.49 Z13.14
 X-20.36 Z13.13
 X-20.24 Z13.11
 X-20.17 Z13.10
 X-20.14
 X-20.11 Z13.09
 X-20.05 Z13.07
 X-19.99 Z13.06
 X-19.86 Z13.01
 X-19.80 Z12.98
 X-19.77 Z12.96
 X-19.75
 X-19.74 Z12.95
 X-19.67 Z12.91
 X-19.64 Z12.90
 X-19.63 Z12.89
 X-19.61 Z12.88
 X-19.58 Z12.85
 X-19.55 Z12.83
 X-19.52 Z12.80
 X-19.49 Z12.77
 X-19.24 Z12.44
 X-18.99 Z12.07
 X-18.74 Z11.72
 X-18.49 Z11.38
 X-18.24 Z11.03
 X-17.99 Z10.69
 X-17.74 Z10.40
 X-17.49 Z10.14
 X-17.24 Z9.88
 X-16.99 Z9.63
 X-16.74 Z9.38
 X-16.49 Z9.14
 X-16.24 Z8.91
 X-15.99 Z8.65
 X-15.80 Z8.46
 X-15.74 Z8.40
 X-15.49 Z8.19
 X-15.24 Z7.97
 X-14.99 Z7.72
 X-14.74 Z7.44
 X-14.49 Z7.17
 X-14.24 Z6.91
 X-13.99 Z6.67
 X-13.74 Z6.46
 X-13.49 Z6.27
 X-13.27 Z6.12
 X-13.24 Z6.10
 X-13.04 Z6.01
 X-13.02 Z6.00
 X-12.99 Z5.99
 X-12.93 Z5.98
 X-12.90 Z5.97
 X-12.87 Z5.96
 X-12.83 Z5.95
 X-12.82
 X-12.68 Z5.94
 X-12.55 Z5.96
 X-12.49 Z5.97
 X-12.37 Z6.00
 X-12.24 Z6.03
 X-12.12 Z6.07
 X-11.99 Z6.13
 X-11.74 Z6.26
 X-11.49 Z6.39
 X-11.24 Z6.55
 X-10.99 Z6.73
 X-10.74 Z6.91
 X-10.49 Z7.10
 X-10.24 Z7.31
 X-9.99 Z7.54
 X-9.74 Z7.80
 X-9.49 Z8.03
 X-9.24 Z8.29
 X-8.99 Z8.58
 X-8.74 Z8.91
 X-8.49 Z9.28
 X-8.24 Z9.68
 X-7.99 Z10.10
 X-7.74 Z10.53
 X-7.49 Z10.95
 X-7.37 Z11.14
 X-7.31 Z11.24
 X-7.28 Z11.29
 X-7.25 Z11.33
 X-7.12 Z11.48
 X-7.06 Z11.55
 X-7.03 Z11.59
 X-7.01 Z11.61
 X-7.00
 Z11.62
 X-6.93 Z11.69
 X-6.90 Z11.72
 X-6.87 Z11.74
 X-6.81 Z11.79
 X-6.78 Z11.80
 X-6.75 Z11.82
 X-6.68 Z11.85
 X-6.62 Z11.88
 X-6.50 Z11.92
 X-6.37 Z11.96
 X-6.25 Z11.99
 X-6.18 Z12.00
 X-6.12 Z12.01
 X-6.06 Z12.02
 X-6.03
 X-6.00
 X-5.75 Z12.00
 X-5.50 Z11.99
 X-5.25 Z11.95
 X-5.00 Z11.90
 X-4.75 Z11.84
 X-4.50 Z11.79
 X-4.25 Z11.75
 X-4.00 Z11.70
 X-3.75 Z11.66
 X-3.62 Z11.64
 X-3.50 Z11.62
 X-3.25 Z11.55
 X-3.00 Z11.45
 X-2.75 Z11.34
 X-2.50 Z11.23
 X-2.25 Z11.09
 X-2.00 Z10.94
 X-1.75 Z10.79
 X-1.50 Z10.64
 X-1.25 Z10.51
 X-1.00 Z10.40
 X-0.75 Z10.31
 X-0.50 Z10.25
 X-0.37 Z10.22
 X-0.25 Z10.20
 X0.00 Z10.18
G0 Z25.00
 Y-19.05
G1 Z10.36
 X-0.25 Z10.38
 X-0.50 Z10.42
 X-0.75 Z10.48
 X-1.00 Z10.57
 X-1.12 Z10.62
 X-1.25 Z10.67
 X-1.50 Z10.81
 X-1.75 Z10.95
 X-2.00 Z11.08
 X-2.12 Z11.15
 X-2.19 Z11.19
 X-2.25 Z11.23
 X-2.50 Z11.34
 X-2.75 Z11.44
 X-3.00 Z11.53
 X-3.25 Z11.61
 X-3.37 Z11.64
 X-3.50 Z11.66
 X-3.75 Z11.69
 X-4.00 Z11.72
 X-4.25 Z11.74
 X-4.50 Z11.79
 X-4.75 Z11.83
 X-5.00 Z11.87
 X-5.25 Z11.91
 X-5.43 Z11.93
 X-5.50 Z11.94
 X-5.75 Z11.95
 X-5.87
 X-5.93
 X-6.00 Z11.94
 X-6.12 Z11.92
 X-6.18 Z11.90
 X-6.25 Z11.89
 X-6.37 Z11.85
 X-6.43 Z11.83
 X-6.46 Z11.82
 X-6.48 Z11.81
 X-6.50
 X-6.56 Z11.77
 X-6.59 Z11.76
 X-6.62 Z11.74
 X-6.68 Z11.70
 X-6.75 Z11.64
 X-6.84 Z11.56
 X-6.87 Z11.54
 X-6.93 Z11.48
 X-7.00 Z11.40
 X-7.25 Z11.06
 X-7.49 Z10.66
 X-7.74 Z10.23
 X-7.99 Z9.79
 X-8.24 Z9.37
 X-8.49 Z8.98
 X-8.74 Z8.62
 X-8.99 Z8.29
 X-9.24 Z8.00
 X-9.49 Z7.73
 X-9.74 Z7.48
 X-9.99 Z7.25
 X-10.24 Z7.04
 X-10.49 Z6.83
 X-10.99 Z6.46
 X-11.24 Z6.28
 X-11.49 Z6.11
 X-11.74 Z5.96
 X-11.99 Z5.83
 X-12.21 Z5.74
 X-12.24 Z5.73
 X-12.37 Z5.70
 X-12.49 Z5.66
 X-12.55 Z5.65
 X-12.59
 X-12.62
 X-12.73 Z5.64
 X-12.74
 X-12.87 Z5.65
 X-12.90
 X-12.91
 X-12.93 Z5.66
 X-12.99 Z5.68
 X-13.08 Z5.71
 X-13.12 Z5.72
 X-13.24 Z5.79
 X-13.37 Z5.86
 X-13.49 Z5.94
 X-13.74 Z6.14
 X-13.99 Z6.35
 X-14.24 Z6.57
 X-14.49 Z6.82
 X-14.74 Z7.11
 X-14.99 Z7.40
 X-15.24 Z7.68
 X-15.49 Z7.91
 X-15.74 Z8.12
 X-15.99 Z8.36
 X-16.24 Z8.62
 X-16.49 Z8.88
 X-16.74 Z9.12
 X-16.99 Z9.38
 X-17.24 Z9.63
 X-17.49 Z9.89
 X-17.74 Z10.15
 X-17.99 Z10.42
 X-18.24 Z10.75
 X-18.49 Z11.10
 X-18.74 Z11.44
 X-18.99 Z11.78
 X-19.24 Z12.15
 X-19.36 Z12.35
 X-19.42 Z12.44
 X-19.46 Z12.49
 X-19.47 Z12.51
 X-19.49 Z12.54
 X-19.55 Z12.61
 X-19.58 Z12.64
 X-19.61 Z12.68
 X-19.67 Z12.74
 X-19.71 Z12.76
 X-19.72 Z12.78
 X-19.74 Z12.79
 X-19.86 Z12.87
 X-19.92 Z12.90
 X-19.96 Z12.91
 X-19.99 Z12.93
 X-20.05 Z12.96
 X-20.11 Z12.98
 X-20.17 Z13.00
 X-20.24 Z13.02
 X-20.49 Z13.06
 X-20.74 Z13.09
 X-20.99 Z13.11
 X-21.24 Z13.12
 X-21.49 Z13.14
 X-21.74 Z13.16
 X-21.98
 X-22.23 Z13.17
 X-22.48 Z13.18
 X-22.73
 X-22.86
 X-22.92
 X-22.95
 X-22.98
 X-23.23 Z13.20
 X-23.48 Z13.24
 X-23.73 Z13.26
 X-23.80
 X-23.83 Z13.27
 X-23.84
 X-23.85
 X-23.86
 X-23.98 Z13.29
 X-24.23 Z13.34
 X-24.48 Z13.42
 X-24.73 Z13.50
 X-24.98 Z13.59
 X-25.23 Z13.70
 X-25.48 Z13.80
 X-25.61 Z13.85
 X-25.67 Z13.88
 X-25.70 Z13.89
 X-25.73 Z13.90
 X-25.98 Z14.04
 X-26.23 Z14.17
 X-26.48 Z14.31
 X-26.73 Z14.43
 X-26.86 Z14.48
 X-26.92 Z14.51
 X-26.98 Z14.53
 X-27.23 Z14.60
 X-27.48 Z14.67
 X-27.61 Z14.71
 X-27.73 Z14.74
 X-27.98 Z14.79
 X-28.23 Z14.83
 X-28.48 Z14.86
 X-28.70 Z14.88
 X-28.73
 X-28.86 Z14.89
 X-28.98 Z14.88
 X-29.11 Z14.87
 X-29.23 Z14.85
 X-29.29 Z14.84
 X-29.35 Z14.82
 X-29.48 Z14.79
 X-29.73 Z14.70
 X-29.98 Z14.60
 X-30.23 Z14.47
 X-30.48 Z14.31
 X-30.73 Z14.13
 X-30.98 Z13.93
 X-31.23 Z13.72
 X-31.48 Z13.50
 X-31.73 Z13.29
 X-31.98 Z13.06
 X-32.23 Z12.84
 X-32.48 Z12.62
 X-32.73 Z12.41
 X-32.98 Z12.22
 X-33.23 Z12.04
 X-33.48 Z11.87
 X-33.73 Z11.71
 X-33.98 Z11.55
 X-34.23 Z11.40
 X-34.41 Z11.30
 X-34.48 Z11.26
 X-34.60 Z11.21
 X-34.73 Z11.17
 X-34.98 Z11.10
 X-35.10 Z11.07
 X-35.29 Z11.03
 X-35.32 Z11.02
 X-35.35 Z11.01
 X-35.48 Z11.04
 X-35.73 Z11.10
 X-35.98 Z11.16
 X-36.23 Z11.22
 X-36.48 Z11.28
 X-36.72 Z11.34
 X-36.97 Z11.38
 X-37.22 Z11.43
 X-37.47 Z11.47
 X-37.72 Z11.52
 X-37.97 Z11.58
 X-38.22 Z11.63
 X-38.47 Z11.68
 X-38.72 Z11.72
 X-38.97 Z11.75
 X-39.22 Z11.77
 X-39.47
 X-39.72 Z11.76
 X-39.97 Z11.74
 X-40.22 Z11.71
 X-40.47 Z11.65
 X-40.72 Z11.59
 X-40.97 Z11.51
 X-41.22 Z11.42
 X-41.47 Z11.32
 X-41.72 Z11.20
 X-41.97 Z11.09
 X-42.22 Z10.98
 X-42.47 Z10.87
 X-42.72 Z10.76
 X-42.97 Z10.66
 X-43.22 Z10.56
 X-43.47 Z10.48
 X-43.72 Z10.43
 X-43.97 Z10.36
G0 Z25.00
 Y-18.85
G1 Z10.53
 X-43.72 Z10.60
 X-43.47 Z10.66
 X-43.22 Z10.74
 X-42.97 Z10.84
 X-42.72 Z10.95
 X-42.47 Z11.07
 X-42.22 Z11.18
 X-41.97 Z11.30
 X-41.72 Z11.41
 X-41.47 Z11.52
 X-41.22 Z11.62
 X-40.97 Z11.71
 X-40.72 Z11.78
 X-40.47 Z11.85
 X-40.22 Z11.90
 X-39.97 Z11.93
 X-39.72 Z11.95
 X-39.47 Z11.96
 X-39.22
 X-38.97 Z11.94
 X-38.72 Z11.92
 X-38.47 Z11.88
 X-38.22 Z11.83
 X-37.97 Z11.77
 X-37.72 Z11.72
 X-37.47 Z11.67
 X-37.22 Z11.63
 X-36.97 Z11.59
 X-36.72 Z11.55
 X-36.48 Z11.50
 X-36.23 Z11.45
 X-35.98 Z11.40
 X-35.73 Z11.34
 X-35.60 Z11.31
 X-35.51 Z11.29
 X-35.49 Z11.28
 X-35.48
 X-35.36 Z11.24
 X-35.35
 X-35.23 Z11.27
 X-34.98 Z11.33
 X-34.91 Z11.34
 X-34.85 Z11.35
 X-34.73 Z11.39
 X-34.60 Z11.43
 X-34.54 Z11.46
 X-34.51 Z11.47
 X-34.48 Z11.48
 X-34.23 Z11.62
 X-33.98 Z11.76
 X-33.73 Z11.91
 X-33.48 Z12.07
 X-33.23 Z12.24
 X-32.98 Z12.42
 X-32.73 Z12.61
 X-32.48 Z12.82
 X-32.23 Z13.04
 X-31.98 Z13.26
 X-31.73 Z13.48
 X-31.48 Z13.70
 X-31.23 Z13.92
 X-30.98 Z14.13
 X-30.73 Z14.33
 X-30.48 Z14.50
 X-30.23 Z14.65
 X-29.98 Z14.76
 X-29.85 Z14.82
 X-29.79 Z14.85
 X-29.73 Z14.87
 X-29.48 Z14.95
 X-29.35 Z14.98
 X-29.23 Z15.01
 X-29.11 Z15.02
 X-28.98 Z15.04
 X-28.73
 X-28.48 Z15.02
 X-28.23 Z14.98
 X-27.98 Z14.94
 X-27.86 Z14.92
 X-27.73 Z14.89
 X-27.48 Z14.81
 X-27.23 Z14.75
 X-27.11 Z14.72
 X-27.04 Z14.71
 X-26.98 Z14.69
 X-26.73 Z14.58
 X-26.48 Z14.46
 X-26.23 Z14.32
 X-25.98 Z14.17
 X-25.73 Z14.03
 X-25.48 Z13.92
 X-25.23 Z13.81
 X-24.98 Z13.70
 X-24.73 Z13.59
 X-24.48 Z13.50
 X-24.23 Z13.42
 X-23.98 Z13.36
 X-23.73 Z13.31
 X-23.48 Z13.29
 X-23.23 Z13.24
 X-23.11 Z13.21
 X-22.98 Z13.19
 X-22.73 Z13.18
 X-22.48
 X-22.23 Z13.15
 X-21.98 Z13.14
 X-21.74 Z13.12
 X-21.49 Z13.10
 X-21.24 Z13.07
 X-20.99 Z13.05
 X-20.74 Z13.02
 X-20.61 Z12.99
 X-20.55 Z12.98
 X-20.52
 X-20.49 Z12.97
 X-20.42 Z12.96
 X-20.36 Z12.95
 X-20.30 Z12.93
 X-20.24 Z12.91
 X-20.11 Z12.85
 X-20.05 Z12.82
 X-20.02 Z12.80
 X-20.00 Z12.79
 X-19.99 Z12.78
 X-19.92 Z12.74
 X-19.89 Z12.72
 X-19.86 Z12.70
 X-19.80 Z12.64
 X-19.77 Z12.61
 X-19.75 Z12.60
 X-19.74 Z12.58
 X-19.49 Z12.24
 X-19.24 Z11.86
 X-18.99 Z11.49
 X-18.74 Z11.16
 X-18.49 Z10.82
 X-18.36 Z10.64
 X-18.30 Z10.54
 X-18.24 Z10.45
 X-17.99 Z10.16
 X-17.74 Z9.89
 X-17.49 Z9.63
 X-17.24 Z9.38
 X-16.99 Z9.11
 X-16.74 Z8.85
 X-16.49 Z8.60
 X-16.24 Z8.32
 X-16.11 Z8.18
 X-16.02 Z8.07
 X-15.99 Z8.03
 X-15.74 Z7.83
 X-15.61 Z7.72
 X-15.55 Z7.67
 X-15.52 Z7.65
 X-15.49 Z7.62
 X-15.24 Z7.35
 X-14.99 Z7.06
 X-14.74 Z6.76
 X-14.49 Z6.48
 X-14.24 Z6.24
 X-13.99 Z6.01
 X-13.74 Z5.80
 X-13.62 Z5.70
 X-13.49 Z5.62
 X-13.26 Z5.48
 X-13.24 Z5.47
 X-13.12 Z5.41
 X-13.00 Z5.37
 X-12.99 Z5.36
 X-12.91 Z5.35
 X-12.90 Z5.34
 X-12.87
 X-12.74
 X-12.68 Z5.35
 X-12.65
 X-12.62
 X-12.55 Z5.36
 X-12.52
 X-12.49 Z5.37
 X-12.37 Z5.40
 X-12.24 Z5.44
 X-12.12 Z5.49
 X-11.99 Z5.54
 X-11.74 Z5.67
 X-11.49 Z5.84
 X-11.24 Z6.01
 X-10.99 Z6.20
 X-10.49 Z6.57
 X-10.24 Z6.77
 X-9.99 Z6.98
 X-9.74 Z7.21
 X-9.49 Z7.46
 X-9.24 Z7.73
 X-8.99 Z8.00
 X-8.74 Z8.32
 X-8.49 Z8.67
 X-8.24 Z9.07
 X-7.99 Z9.48
 X-7.74 Z9.92
 X-7.49 Z10.36
 X-7.25 Z10.77
 X-7.12 Z10.97
 X-7.06 Z11.06
 X-7.00 Z11.15
 X-6.93 Z11.24
 X-6.90 Z11.29
 X-6.87 Z11.32
 X-6.81 Z11.39
 X-6.75 Z11.45
 X-6.62 Z11.56
 X-6.59 Z11.59
 X-6.56 Z11.61
 X-6.53 Z11.64
 X-6.51 Z11.65
 X-6.50 Z11.66
 X-6.43 Z11.69
 X-6.37 Z11.72
 X-6.25 Z11.77
 X-6.12 Z11.81
 X-6.06 Z11.83
 X-6.03 Z11.84
 X-6.00 Z11.85
 X-5.75 Z11.88
 X-5.62 Z11.89
 X-5.50
 X-5.25 Z11.87
 X-5.00 Z11.84
 X-4.75 Z11.81
 X-4.50 Z11.77
 X-4.25 Z11.74
 X-4.00 Z11.73
 X-3.75 Z11.72
 X-3.62 Z11.71
 X-3.50 Z11.70
 X-3.25 Z11.65
 X-3.00 Z11.60
 X-2.75 Z11.53
 X-2.50 Z11.44
 X-2.25 Z11.35
 X-2.00 Z11.23
 X-1.75 Z11.10
 X-1.50 Z10.96
 X-1.25 Z10.84
 X-1.00 Z10.73
 X-0.87 Z10.69
 X-0.75 Z10.65
 X-0.62 Z10.62
 X-0.50 Z10.59
 X-0.25 Z10.56
 X0.00 Z10.53
G0 Z25.00
 Y-18.65
G1 Z10.73
 X-0.25 Z10.74
 X-0.50 Z10.77
 X-0.62 Z10.79
 X-0.75 Z10.82
 X-1.00 Z10.90
 X-1.25 Z11.00
 X-1.50 Z11.13
 X-1.75 Z11.24
 X-2.00 Z11.36
 X-2.25 Z11.45
 X-2.50 Z11.53
 X-2.75 Z11.60
 X-3.00 Z11.66
 X-3.25 Z11.70
 X-3.50 Z11.73
 X-3.75 Z11.74
 X-4.00 Z11.73
 X-4.25
 X-4.50 Z11.75
 X-4.75 Z11.78
 X-5.00 Z11.81
 X-5.25 Z11.82
 X-5.37 Z11.83
 X-5.43
 X-5.50 Z11.82
 X-5.75 Z11.78
 X-5.81
 X-5.84 Z11.77
 X-5.87
 X-5.93 Z11.75
 X-6.00 Z11.74
 X-6.12 Z11.69
 X-6.18 Z11.66
 X-6.21 Z11.65
 X-6.23 Z11.64
 X-6.25
 X-6.31 Z11.61
 X-6.34 Z11.59
 X-6.37 Z11.58
 X-6.40 Z11.56
 X-6.43 Z11.54
 X-6.46 Z11.51
 X-6.50 Z11.49
 X-6.62 Z11.37
 X-6.68 Z11.30
 X-6.75 Z11.23
 X-7.00 Z10.88
 X-7.25 Z10.48
 X-7.49 Z10.04
 X-7.74 Z9.60
 X-7.99 Z9.15
 X-8.24 Z8.75
 X-8.49 Z8.36
 X-8.74 Z8.03
 X-8.99 Z7.73
 X-9.24 Z7.45
 X-9.49 Z7.20
 X-9.74 Z6.95
 X-9.99 Z6.72
 X-10.24 Z6.51
 X-10.49 Z6.31
 X-10.74 Z6.12
 X-10.99 Z5.93
 X-11.24 Z5.74
 X-11.49 Z5.55
 X-11.62 Z5.47
 X-11.74 Z5.39
 X-11.99 Z5.26
 X-12.12 Z5.20
 X-12.30 Z5.13
 X-12.37 Z5.12
 X-12.49 Z5.09
 X-12.62 Z5.07
 X-12.69 Z5.05
 X-12.71
 X-12.80
 X-12.83
 X-12.90
 X-12.93 Z5.06
 X-13.05 Z5.08
 X-13.08 Z5.09
 X-13.15 Z5.10
 X-13.16 Z5.11
 X-13.37 Z5.21
 X-13.49 Z5.28
 X-13.62 Z5.36
 X-13.74 Z5.46
 X-13.99 Z5.67
 X-14.24 Z5.90
 X-14.49 Z6.14
 X-14.74 Z6.40
 X-14.99 Z6.70
 X-15.24 Z7.02
 X-15.36 Z7.17
 X-15.43 Z7.24
 X-15.49 Z7.31
 X-15.74 Z7.54
 X-15.93 Z7.69
 X-15.99 Z7.74
 X-16.24 Z8.00
 X-16.49 Z8.30
 X-16.74 Z8.57
 X-16.99 Z8.83
 X-17.24 Z9.10
 X-17.49 Z9.37
 X-17.74 Z9.63
 X-17.99 Z9.90
 X-18.24 Z10.18
 X-18.49 Z10.52
 X-18.74 Z10.88
 X-18.99 Z11.20
 X-19.24 Z11.55
 X-19.49 Z11.94
 X-19.61 Z12.14
 X-19.67 Z12.23
 X-19.74 Z12.33
 X-19.80 Z12.42
 X-19.83 Z12.45
 X-19.86 Z12.49
 X-19.92 Z12.55
 X-19.96 Z12.58
 X-19.97 Z12.59
 X-19.99 Z12.61
 X-20.05 Z12.66
 X-20.11 Z12.70
 X-20.24 Z12.77
 X-20.30 Z12.80
 X-20.36 Z12.83
 X-20.42 Z12.85
 X-20.45 Z12.86
 X-20.49 Z12.87
 X-20.74 Z12.92
 X-20.99 Z12.98
 X-21.24 Z13.02
 X-21.49 Z13.04
 X-21.74 Z13.08
 X-21.98 Z13.11
 X-22.23 Z13.14
 X-22.48 Z13.17
 X-22.73 Z13.19
 X-22.86
 X-22.89
 X-22.92
 X-22.95 Z13.20
 X-22.98
 X-23.23 Z13.27
 X-23.48 Z13.33
 X-23.73 Z13.37
 X-23.98 Z13.43
 X-24.23 Z13.50
 X-24.48 Z13.58
 X-24.73 Z13.69
 X-24.98 Z13.80
 X-25.23 Z13.92
 X-25.48 Z14.03
 X-25.73 Z14.16
 X-25.98 Z14.30
 X-26.23 Z14.46
 X-26.48 Z14.60
 X-26.73 Z14.73
 X-26.86 Z14.79
 X-26.92 Z14.81
 X-26.95 Z14.83
 X-26.98 Z14.84
 X-27.23 Z14.90
 X-27.48 Z14.96
 X-27.61 Z15.00
 X-27.73 Z15.04
 X-27.98 Z15.09
 X-28.23 Z15.13
 X-28.48 Z15.17
 X-28.73 Z15.19
 X-28.86
 X-28.98
 X-29.11 Z15.17
 X-29.23 Z15.16
 X-29.48 Z15.10
 X-29.73 Z15.02
 X-29.98 Z14.92
 X-30.10 Z14.87
 X-30.23 Z14.81
 X-30.48 Z14.67
 X-30.73 Z14.51
 X-30.98 Z14.32
 X-31.23 Z14.10
 X-31.48 Z13.89
 X-31.73 Z13.67
 X-31.98 Z13.46
 X-32.23 Z13.24
 X-32.48 Z13.02
 X-32.73 Z12.80
 X-32.98 Z12.60
 X-33.23 Z12.43
 X-33.48 Z12.26
 X-33.73 Z12.11
 X-33.98 Z11.96
 X-34.23 Z11.83
 X-34.35 Z11.76
 X-34.40 Z11.73
 X-34.41 Z11.72
 X-34.48 Z11.70
 X-34.73 Z11.61
 X-34.98 Z11.55
 X-35.19 Z11.50
 X-35.21
 X-35.22
 X-35.23
 X-35.29 Z11.49
 X-35.34 Z11.48
 X-35.35
 X-35.48 Z11.52
 X-35.73 Z11.58
 X-35.98 Z11.62
 X-36.23 Z11.67
 X-36.48 Z11.71
 X-36.72 Z11.76
 X-36.97 Z11.79
 X-37.22 Z11.82
 X-37.47 Z11.86
 X-37.72 Z11.91
 X-37.97 Z11.97
 X-38.22 Z12.03
 X-38.47 Z12.07
 X-38.72 Z12.10
 X-38.97 Z12.13
 X-39.22 Z12.15
 X-39.47
 X-39.72 Z12.14
 X-39.97 Z12.12
 X-40.22 Z12.09
 X-40.47 Z12.04
 X-40.72 Z11.98
 X-40.97 Z11.90
 X-41.22 Z11.81
 X-41.47 Z11.72
 X-41.72 Z11.61
 X-41.97 Z11.50
 X-42.22 Z11.38
 X-42.47 Z11.26
 X-42.72 Z11.14
 X-42.97 Z11.03
 X-43.22 Z10.93
 X-43.35 Z10.89
 X-43.47 Z10.85
 X-43.72 Z10.79
 X-43.97 Z10.71
G0 Z25.00
 Y-18.46
G1 Z10.90
 X-43.72 Z10.98
 X-43.53 Z11.02
 X-43.47 Z11.03
 X-43.22 Z11.12
 X-42.97 Z11.22
 X-42.72 Z11.33
 X-42.47 Z11.45
 X-42.22 Z11.57
 X-41.97 Z11.70
 X-41.72 Z11.80
 X-41.47 Z11.91
 X-41.22 Z12.01
 X-40.97 Z12.09
 X-40.72 Z12.17
 X-40.47 Z12.23
 X-40.22 Z12.28
 X-39.97 Z12.31
 X-39.72 Z12.33
 X-39.47 Z12.34
 X-39.22
 X-38.97 Z12.32
 X-38.72 Z12.30
 X-38.47 Z12.27
 X-38.22 Z12.22
 X-37.97 Z12.16
 X-37.72 Z12.11
 X-37.47 Z12.05
 X-37.22 Z12.02
 X-36.97 Z11.99
 X-36.72 Z11.96
 X-36.48 Z11.93
 X-36.23 Z11.88
 X-35.98 Z11.85
 X-35.73 Z11.81
 X-35.48 Z11.75
 X-35.41 Z11.74
 X-35.38 Z11.73
 X-35.37 Z11.72
 X-35.36
 X-35.35
 X-35.34
 Z11.71
 X-35.32
 X-35.30
 X-35.29
 X-35.23 Z11.72
 X-34.98 Z11.76
 X-34.85 Z11.79
 X-34.73 Z11.82
 X-34.60 Z11.86
 X-34.48 Z11.91
 X-34.23 Z12.02
 X-33.98 Z12.16
 X-33.73 Z12.29
 X-33.48 Z12.44
 X-33.23 Z12.61
 X-32.98 Z12.79
 X-32.73 Z13.00
 X-32.48 Z13.21
 X-32.23 Z13.41
 X-31.98 Z13.63
 X-31.73 Z13.85
 X-31.48 Z14.06
 X-31.23 Z14.28
 X-30.98 Z14.48
 X-30.73 Z14.67
 X-30.48 Z14.83
 X-30.23 Z14.96
 X-29.98 Z15.07
 X-29.73 Z15.17
 X-29.60 Z15.21
 X-29.54 Z15.23
 X-29.48 Z15.25
 X-29.23 Z15.30
 X-29.11 Z15.32
 X-28.98 Z15.34
 X-28.86
 X-28.73
 X-28.48 Z15.32
 X-28.23 Z15.28
 X-27.98 Z15.23
 X-27.86 Z15.21
 X-27.73 Z15.18
 X-27.48 Z15.10
 X-27.23 Z15.04
 X-27.17 Z15.03
 X-27.14
 X-27.11 Z15.02
 X-26.98 Z14.98
 X-26.86 Z14.93
 X-26.73 Z14.87
 X-26.48 Z14.74
 X-26.23 Z14.59
 X-25.98 Z14.43
 X-25.73 Z14.28
 X-25.48 Z14.14
 X-25.23 Z14.02
 X-24.98 Z13.89
 X-24.73 Z13.78
 X-24.48 Z13.66
 X-24.23 Z13.57
 X-23.98 Z13.49
 X-23.86 Z13.45
 X-23.73 Z13.41
 X-23.48 Z13.36
 X-23.23 Z13.29
 X-23.11 Z13.25
 X-22.98 Z13.21
 X-22.73 Z13.17
 X-22.48 Z13.15
 X-22.23 Z13.12
 X-21.98 Z13.07
 X-21.74 Z13.02
 X-21.49 Z12.98
 X-21.24 Z12.94
 X-20.99 Z12.89
 X-20.86 Z12.86
 X-20.80 Z12.84
 X-20.77
 X-20.74 Z12.83
 X-20.67 Z12.82
 X-20.61 Z12.80
 X-20.55 Z12.77
 X-20.52 Z12.76
 X-20.49 Z12.75
 X-20.42 Z12.71
 X-20.36 Z12.68
 X-20.30 Z12.64
 X-20.24 Z12.60
 X-20.11 Z12.50
 X-20.08 Z12.47
 X-20.05 Z12.45
 X-20.02 Z12.42
 X-20.00 Z12.40
 X-19.99 Z12.38
 X-19.74 Z12.02
 X-19.49 Z11.62
 X-19.24 Z11.23
 X-18.99 Z10.89
 X-18.74 Z10.57
 X-18.49 Z10.21
 X-18.24 Z9.90
 X-17.99 Z9.61
 X-17.74 Z9.35
 X-17.49 Z9.07
 X-17.24 Z8.80
 X-16.99 Z8.52
 X-16.74 Z8.26
 X-16.49 Z7.97
 X-16.36 Z7.82
 X-16.30 Z7.74
 X-16.27 Z7.70
 X-16.25 Z7.68
 Z7.67
 X-16.24 Z7.65
 X-15.99 Z7.44
 X-15.86 Z7.34
 X-15.74 Z7.23
 X-15.49 Z6.96
 X-15.24 Z6.64
 X-14.99 Z6.32
 X-14.74 Z6.04
 X-14.49 Z5.77
 X-14.24 Z5.52
 X-13.99 Z5.31
 X-13.87 Z5.20
 X-13.74 Z5.11
 X-13.62 Z5.02
 X-13.49 Z4.95
 X-13.30 Z4.86
 X-13.27 Z4.84
 X-13.18 Z4.82
 X-13.15 Z4.81
 X-13.08 Z4.79
 X-13.05
 X-12.99
 X-12.87 Z4.78
 X-12.81
 X-12.80
 X-12.62 Z4.80
 X-12.55
 X-12.49 Z4.82
 X-12.37 Z4.86
 X-12.24 Z4.89
 X-11.99 Z4.99
 X-11.80 Z5.08
 X-11.74 Z5.12
 X-11.49 Z5.28
 X-11.24 Z5.46
 X-10.99 Z5.66
 X-10.74 Z5.85
 X-10.49 Z6.05
 X-10.24 Z6.26
 X-9.99 Z6.47
 X-9.74 Z6.69
 X-9.49 Z6.93
 X-9.24 Z7.18
 X-8.99 Z7.45
 X-8.74 Z7.74
 X-8.49 Z8.06
 X-8.24 Z8.43
 X-7.99 Z8.82
 X-7.74 Z9.26
 X-7.49 Z9.71
 X-7.25 Z10.16
 X-7.00 Z10.59
 X-6.87 Z10.79
 X-6.81 Z10.89
 X-6.78 Z10.94
 X-6.75 Z10.99
 X-6.62 Z11.15
 X-6.53 Z11.25
 X-6.51 Z11.27
 X-6.50 Z11.29
 X-6.43 Z11.35
 X-6.40 Z11.38
 X-6.37 Z11.41
 X-6.31 Z11.45
 X-6.28 Z11.47
 X-6.25 Z11.49
 X-6.12 Z11.56
 X-6.06 Z11.59
 X-6.03 Z11.60
 X-6.00 Z11.62
 X-5.93 Z11.64
 X-5.87 Z11.66
 X-5.75 Z11.69
 X-5.62 Z11.72
 X-5.50 Z11.74
 X-5.43 Z11.75
 X-5.37 Z11.76
 X-5.25
 X-5.00
 X-4.75 Z11.75
 X-4.50 Z11.72
 X-4.25
 X-4.00 Z11.73
 X-3.75 Z11.74
 X-3.50
 X-3.25 Z11.73
 X-3.12
 X-3.06 Z11.72
 X-3.03
 X-3.00 Z11.71
 X-2.75 Z11.67
 X-2.50 Z11.61
 X-2.37 Z11.59
 X-2.25 Z11.55
 X-2.00 Z11.46
 X-1.87 Z11.42
 X-1.81 Z11.41
 X-1.75 Z11.39
 X-1.50 Z11.28
 X-1.25 Z11.17
 X-1.12 Z11.12
 X-1.00 Z11.07
 X-0.75 Z11.00
 X-0.62 Z10.97
 X-0.50 Z10.95
 X-0.25 Z10.93
 X0.00
G0 Z25.00
 Y-18.26
G1 Z11.13
 X-0.25
 X-0.37
 X-0.50 Z11.14
 X-0.62 Z11.15
 X-0.75 Z11.18
 X-1.00 Z11.25
 X-1.25 Z11.34
 X-1.50 Z11.42
 X-1.59 Z11.46
 X-1.62 Z11.47
 X-1.75 Z11.51
 X-2.00 Z11.58
 X-2.25 Z11.64
 X-2.50 Z11.69
 X-2.62 Z11.71
 X-2.75 Z11.73
 X-2.87 Z11.75
 X-3.00 Z11.76
 X-3.25 Z11.75
 X-3.50
 X-3.75 Z11.74
 X-4.00 Z11.72
 X-4.25 Z11.70
 X-4.50 Z11.69
 X-4.75 Z11.71
 X-5.00 Z11.70
 X-5.12
 X-5.18
 X-5.25
 X-5.37 Z11.68
 X-5.43 Z11.67
 X-5.50 Z11.66
 X-5.56 Z11.65
 X-5.62 Z11.63
 X-5.68 Z11.61
 X-5.75 Z11.59
 X-5.87 Z11.54
 X-5.93 Z11.51
 X-6.00 Z11.48
 X-6.12 Z11.39
 X-6.18 Z11.35
 X-6.21 Z11.33
 X-6.23 Z11.32
 X-6.25 Z11.30
 X-6.37 Z11.18
 X-6.46 Z11.08
 X-6.50 Z11.05
 X-6.75 Z10.69
 X-7.00 Z10.27
 X-7.25 Z9.82
 X-7.49 Z9.36
 X-7.74 Z8.91
 X-7.99 Z8.50
 X-8.24 Z8.11
 X-8.49 Z7.77
 X-8.74 Z7.45
 X-8.99 Z7.17
 X-9.24 Z6.91
 X-9.49 Z6.66
 X-9.74 Z6.43
 X-9.99 Z6.21
 X-10.24 Z6.00
 X-10.49 Z5.79
 X-10.74 Z5.58
 X-10.99 Z5.37
 X-11.24 Z5.18
 X-11.37 Z5.09
 X-11.43 Z5.04
 X-11.49 Z5.00
 X-11.74 Z4.86
 X-11.99 Z4.73
 X-12.18 Z4.66
 X-12.24 Z4.64
 X-12.37 Z4.60
 X-12.49 Z4.57
 X-12.74 Z4.54
 X-12.87 Z4.52
 X-12.90
 X-12.93
 X-12.99
 X-13.12 Z4.53
 X-13.18
 X-13.24 Z4.55
 X-13.37 Z4.58
 X-13.43 Z4.60
 X-13.48 Z4.62
 X-13.49
 X-13.74 Z4.76
 X-13.85 Z4.82
 X-13.87 Z4.83
 X-13.99 Z4.93
 X-14.24 Z5.13
 X-14.49 Z5.37
 X-14.74 Z5.63
 X-14.99 Z5.93
 X-15.24 Z6.23
 X-15.49 Z6.56
 X-15.71 Z6.84
 X-15.74 Z6.87
 X-15.80 Z6.95
 X-15.83 Z6.98
 X-15.86 Z7.01
 X-15.99 Z7.12
 X-16.33 Z7.41
 X-16.35 Z7.42
 X-16.36 Z7.43
 X-16.49 Z7.58
 X-16.74 Z7.92
 X-16.99 Z8.21
 X-17.24 Z8.48
 X-17.49 Z8.77
 X-17.74 Z9.03
 X-17.99 Z9.31
 X-18.24 Z9.59
 X-18.49 Z9.88
 X-18.74 Z10.22
 X-18.99 Z10.58
 X-19.24 Z10.91
 X-19.49 Z11.30
 X-19.74 Z11.68
 X-19.86 Z11.89
 X-19.92 Z11.99
 X-19.96 Z12.04
 X-19.99 Z12.09
 X-20.11 Z12.26
 X-20.14 Z12.30
 X-20.17 Z12.34
 X-20.20 Z12.37
 X-20.24 Z12.40
 X-20.36 Z12.50
 X-20.42 Z12.54
 X-20.45 Z12.56
 X-20.49 Z12.59
 X-20.55 Z12.63
 X-20.61 Z12.66
 X-20.67 Z12.69
 X-20.74 Z12.72
 X-20.99 Z12.80
 X-21.24 Z12.87
 X-21.49 Z12.91
 X-21.74 Z12.98
 X-21.98 Z13.03
 X-22.23 Z13.08
 X-22.48 Z13.13
 X-22.61 Z13.14
 X-22.67 Z13.15
 X-22.73 Z13.16
 X-22.80 Z13.17
 X-22.86 Z13.18
 X-22.98 Z13.22
 X-23.23 Z13.30
 X-23.48 Z13.38
 X-23.73 Z13.45
 X-23.98 Z13.54
 X-24.23 Z13.64
 X-24.48 Z13.74
 X-24.73 Z13.86
 X-24.98 Z13.99
 X-25.23 Z14.11
 X-25.48 Z14.25
 X-25.73 Z14.39
 X-25.98 Z14.55
 X-26.23 Z14.71
 X-26.48 Z14.87
 X-26.61 Z14.94
 X-26.70 Z14.99
 X-26.73 Z15.01
 X-26.86 Z15.07
 X-26.98 Z15.11
 X-27.23 Z15.18
 X-27.48 Z15.24
 X-27.73 Z15.32
 X-27.98 Z15.37
 X-28.23 Z15.42
 X-28.48 Z15.46
 X-28.73 Z15.48
 X-28.86
 X-28.95
 X-28.98
 X-29.23 Z15.44
 X-29.35 Z15.41
 X-29.48 Z15.38
 X-29.73 Z15.30
 X-29.98 Z15.21
 X-30.23 Z15.10
 X-30.35 Z15.03
 X-30.48 Z14.97
 X-30.73 Z14.81
 X-30.98 Z14.63
 X-31.23 Z14.43
 X-31.48 Z14.22
 X-31.73 Z14.01
 X-31.98 Z13.79
 X-32.23 Z13.59
 X-32.73 Z13.17
 X-32.98 Z12.96
 X-33.23 Z12.78
 X-33.48 Z12.61
 X-33.73 Z12.47
 X-33.98 Z12.33
 X-34.23 Z12.21
 X-34.29 Z12.18
 X-34.35 Z12.14
 X-34.48 Z12.10
 X-34.73 Z12.03
 X-34.85 Z12.00
 X-34.91 Z11.98
 X-34.98 Z11.97
 X-35.10 Z11.95
 X-35.16 Z11.94
 X-35.18
 X-35.19
 X-35.21 Z11.93
 X-35.23
 X-35.48 Z11.98
 X-35.73 Z12.03
 X-35.98 Z12.06
 X-36.23 Z12.10
 X-36.48 Z12.12
 X-36.72 Z12.15
 X-36.97 Z12.18
 X-37.22 Z12.21
 X-37.47 Z12.24
 X-37.72 Z12.30
 X-37.97 Z12.35
 X-38.22 Z12.41
 X-38.47 Z12.45
 X-38.72 Z12.48
 X-38.97 Z12.50
 X-39.22 Z12.52
 X-39.47
 X-39.72 Z12.51
 X-39.97 Z12.50
 X-40.22 Z12.47
 X-40.47 Z12.42
 X-40.72 Z12.36
 X-40.97 Z12.29
 X-41.22 Z12.20
 X-41.47 Z12.11
 X-41.72 Z12.00
 X-41.97 Z11.89
 X-42.22 Z11.77
 X-42.47 Z11.64
 X-42.72 Z11.52
 X-42.97 Z11.40
 X-43.22 Z11.30
 X-43.35 Z11.26
 X-43.47 Z11.22
 X-43.72 Z11.17
 X-43.97 Z11.09
G0 Z25.00
 Y-18.06
G1 Z11.30
 X-43.72 Z11.36
 X-43.47 Z11.42
 X-43.22 Z11.49
 X-42.97 Z11.59
 X-42.72 Z11.70
 X-42.47 Z11.83
 X-42.22 Z11.96
 X-41.97 Z12.09
 X-41.72 Z12.20
 X-41.47 Z12.30
 X-41.22 Z12.39
 X-40.97 Z12.48
 X-40.72 Z12.55
 X-40.47 Z12.61
 X-40.22 Z12.66
 X-39.97 Z12.69
 X-39.72 Z12.70
 X-39.47 Z12.71
 X-39.22 Z12.70
 X-38.97 Z12.69
 X-38.72 Z12.67
 X-38.47 Z12.64
 X-38.22 Z12.60
 X-37.97 Z12.54
 X-37.72 Z12.48
 X-37.47 Z12.43
 X-37.22 Z12.39
 X-36.97 Z12.37
 X-36.72 Z12.34
 X-36.48 Z12.31
 X-36.23 Z12.28
 X-35.98 Z12.26
 X-35.85 Z12.25
 X-35.73 Z12.24
 X-35.48 Z12.19
 X-35.41 Z12.17
 X-35.30 Z12.15
 X-35.29 Z12.14
 X-35.23 Z12.15
 X-35.10 Z12.16
 X-34.98 Z12.17
 X-34.73 Z12.22
 X-34.60 Z12.25
 X-34.48 Z12.29
 X-34.41 Z12.31
 X-34.38 Z12.32
 X-34.37
 X-34.35
 X-34.23 Z12.38
 X-33.98 Z12.49
 X-33.73 Z12.63
 X-33.48 Z12.77
 X-33.23 Z12.94
 X-32.98 Z13.13
 X-32.73 Z13.33
 X-32.48 Z13.53
 X-32.23 Z13.74
 X-31.98 Z13.94
 X-31.73 Z14.15
 X-31.48 Z14.35
 X-31.23 Z14.56
 X-30.98 Z14.74
 X-30.85 Z14.84
 X-30.73 Z14.93
 X-30.48 Z15.08
 X-30.23 Z15.21
 X-29.98 Z15.33
 X-29.73 Z15.43
 X-29.48 Z15.51
 X-29.23 Z15.57
 X-29.11 Z15.59
 X-29.04 Z15.60
 X-29.01 Z15.61
 X-28.98
 X-28.73
 X-28.48 Z15.59
 X-28.23 Z15.55
 X-27.98 Z15.51
 X-27.73 Z15.45
 X-27.48 Z15.37
 X-27.23 Z15.32
 X-27.17 Z15.30
 X-27.11 Z15.29
 X-26.98 Z15.24
 X-26.86 Z15.19
 X-26.73 Z15.13
 X-26.48 Z15.00
 X-26.23 Z14.83
 X-25.98 Z14.67
 X-25.73 Z14.51
 X-25.48 Z14.36
 X-25.23 Z14.21
 X-24.98 Z14.07
 X-24.73 Z13.93
 X-24.48 Z13.81
 X-24.23 Z13.69
 X-23.98 Z13.57
 X-23.73 Z13.48
 X-23.48 Z13.39
 X-23.23 Z13.31
 X-23.11 Z13.26
 X-23.05 Z13.23
 X-22.98 Z13.21
 X-22.73 Z13.15
 X-22.48 Z13.09
 X-22.23 Z13.04
 X-21.98 Z12.98
 X-21.74 Z12.91
 X-21.49 Z12.85
 X-21.24 Z12.78
 X-21.11 Z12.74
 X-21.05 Z12.72
 X-21.02 Z12.71
 X-20.99 Z12.70
 X-20.92 Z12.68
 X-20.86 Z12.65
 X-20.74 Z12.58
 X-20.61 Z12.50
 X-20.55 Z12.45
 X-20.52 Z12.43
 X-20.50 Z12.42
 X-20.49 Z12.41
 X-20.42 Z12.35
 X-20.39 Z12.32
 X-20.36 Z12.29
 X-20.24 Z12.13
 X-19.99 Z11.74
 X-19.74 Z11.35
 X-19.49 Z10.95
 X-19.24 Z10.58
 X-18.99 Z10.22
 X-18.86 Z10.03
 X-18.80 Z9.94
 X-18.74 Z9.84
 X-18.49 Z9.53
 X-18.24 Z9.26
 X-17.99 Z8.98
 X-17.74 Z8.71
 X-17.49 Z8.43
 X-17.24 Z8.14
 X-16.99 Z7.85
 X-16.74 Z7.51
 X-16.61 Z7.35
 X-16.55 Z7.28
 X-16.49 Z7.22
 X-16.24 Z7.00
 X-16.11 Z6.89
 X-15.99 Z6.76
 X-15.74 Z6.46
 X-15.49 Z6.12
 X-15.24 Z5.79
 X-14.99 Z5.48
 X-14.74 Z5.21
 X-14.49 Z4.96
 X-14.37 Z4.85
 X-14.13 Z4.65
 X-14.12 Z4.64
 X-13.99 Z4.56
 X-13.74 Z4.42
 X-13.62 Z4.37
 X-13.55 Z4.35
 X-13.52 Z4.34
 X-13.40 Z4.31
 X-13.37 Z4.30
 X-13.24 Z4.29
 X-13.12 Z4.28
 X-13.05 Z4.27
 X-12.99
 X-12.74 Z4.29
 X-12.49 Z4.33
 X-12.30 Z4.37
 X-12.24 Z4.39
 X-11.99 Z4.48
 X-11.74 Z4.60
 X-11.62 Z4.67
 X-11.49 Z4.74
 X-11.24 Z4.91
 X-10.99 Z5.09
 X-10.74 Z5.30
 X-10.49 Z5.52
 X-10.24 Z5.73
 X-9.99 Z5.95
 X-9.74 Z6.17
 X-9.49 Z6.40
 X-9.24 Z6.64
 X-8.99 Z6.90
 X-8.74 Z7.17
 X-8.49 Z7.47
 X-8.24 Z7.79
 X-7.99 Z8.16
 X-7.74 Z8.56
 X-7.49 Z9.01
 X-7.25 Z9.48
 X-7.00 Z9.93
 X-6.75 Z10.37
 X-6.62 Z10.59
 X-6.56 Z10.69
 X-6.50 Z10.77
 X-6.37 Z10.94
 X-6.31 Z11.02
 X-6.25 Z11.08
 X-6.12 Z11.20
 X-6.09 Z11.23
 X-6.07 Z11.24
 X-6.06 Z11.25
 X-6.01 Z11.29
 X-6.00 Z11.30
 X-5.93 Z11.35
 X-5.90 Z11.37
 X-5.87 Z11.39
 X-5.81 Z11.43
 X-5.75 Z11.46
 X-5.62 Z11.50
 X-5.50 Z11.55
 X-5.37 Z11.59
 X-5.31 Z11.60
 X-5.25 Z11.61
 X-5.00 Z11.64
 X-4.75 Z11.65
 X-4.50 Z11.66
 X-4.25 Z11.68
 X-4.00 Z11.70
 X-3.75 Z11.73
 X-3.50 Z11.76
 X-3.25 Z11.77
 X-3.00 Z11.78
 X-2.87 Z11.79
 X-2.75 Z11.78
 X-2.50 Z11.76
 X-2.25 Z11.71
 X-2.00 Z11.67
 X-1.75 Z11.62
 X-1.50 Z11.57
 X-1.25 Z11.49
 X-1.00 Z11.42
 X-0.87 Z11.39
 X-0.75 Z11.36
 X-0.62 Z11.34
 X-0.50 Z11.33
 X-0.25 Z11.32
 X0.00
G0 Z25.00
 Y-17.86
G1 Z11.49
 X-0.25 Z11.51
 X-0.50
 X-0.75 Z11.54
 X-0.97 Z11.57
 X-1.00
 X-1.25 Z11.65
 X-1.50 Z11.70
 X-1.75 Z11.73
 X-2.00 Z11.76
 X-2.25 Z11.79
 X-2.50 Z11.81
 X-2.62
 X-2.69 Z11.82
 X-2.75
 X-3.00 Z11.80
 X-3.25 Z11.78
 X-3.50 Z11.75
 X-3.75 Z11.72
 X-4.00 Z11.68
 X-4.25 Z11.65
 X-4.50 Z11.62
 X-4.75 Z11.58
 X-4.87 Z11.57
 X-4.93
 X-4.97
 X-5.00 Z11.56
 X-5.06 Z11.55
 X-5.12 Z11.54
 X-5.25 Z11.51
 X-5.37 Z11.46
 X-5.43 Z11.44
 X-5.50 Z11.42
 X-5.62 Z11.37
 X-5.68 Z11.34
 X-5.71 Z11.32
 X-5.73 Z11.31
 X-5.75 Z11.30
 X-5.81 Z11.26
 X-5.84 Z11.24
 X-5.87 Z11.21
 X-5.93 Z11.16
 X-6.00 Z11.10
 X-6.06 Z11.05
 X-6.09 Z11.02
 X-6.12 Z10.98
 X-6.25 Z10.82
 X-6.37 Z10.66
 X-6.50 Z10.47
 X-6.75 Z10.02
 X-7.00 Z9.58
 X-7.25 Z9.10
 X-7.49 Z8.63
 X-7.74 Z8.21
 X-7.99 Z7.82
 X-8.24 Z7.47
 X-8.49 Z7.15
 X-8.74 Z6.87
 X-8.99 Z6.61
 X-9.24 Z6.37
 X-9.49 Z6.13
 X-9.74 Z5.90
 X-9.99 Z5.68
 X-10.24 Z5.45
 X-10.49 Z5.22
 X-10.74 Z5.01
 X-10.99 Z4.82
 X-11.24 Z4.64
 X-11.49 Z4.48
 X-11.74 Z4.35
 X-11.99 Z4.24
 X-12.24 Z4.15
 X-12.49 Z4.09
 X-12.62 Z4.07
 X-12.74 Z4.05
 X-12.99 Z4.04
 X-13.24 Z4.05
 X-13.49 Z4.07
 X-13.74 Z4.13
 X-13.87 Z4.18
 X-13.93 Z4.20
 X-13.96 Z4.21
 X-13.97
 X-13.98
 X-13.99 Z4.22
 X-14.24 Z4.37
 X-14.43 Z4.49
 X-14.49 Z4.54
 X-14.74 Z4.76
 X-14.99 Z5.02
 X-15.24 Z5.32
 X-15.49 Z5.64
 X-15.74 Z5.97
 X-15.99 Z6.31
 X-16.11 Z6.47
 X-16.24 Z6.61
 X-16.49 Z6.85
 X-16.74 Z7.12
 X-16.99 Z7.43
 X-17.24 Z7.75
 X-17.49 Z8.06
 X-17.74 Z8.36
 X-17.99 Z8.65
 X-18.24 Z8.93
 X-18.49 Z9.20
 X-18.74 Z9.47
 X-18.99 Z9.84
 X-19.24 Z10.23
 X-19.49 Z10.60
 X-19.74 Z10.99
 X-19.99 Z11.38
 X-20.24 Z11.78
 X-20.42 Z12.07
 X-20.45 Z12.12
 X-20.47 Z12.14
 X-20.49 Z12.16
 X-20.55 Z12.24
 X-20.58 Z12.28
 X-20.61 Z12.31
 X-20.67 Z12.36
 X-20.74 Z12.41
 X-20.86 Z12.49
 X-20.95 Z12.55
 X-20.99 Z12.57
 X-21.05 Z12.60
 X-21.11 Z12.63
 X-21.24 Z12.68
 X-21.49 Z12.77
 X-21.74 Z12.85
 X-21.98 Z12.92
 X-22.23 Z12.98
 X-22.48 Z13.05
 X-22.73 Z13.13
 X-22.98 Z13.20
 X-23.23 Z13.30
 X-23.48 Z13.39
 X-23.73 Z13.49
 X-23.98 Z13.61
 X-24.23 Z13.73
 X-24.48 Z13.86
 X-24.73 Z14.00
 X-24.98 Z14.15
 X-25.23 Z14.30
 X-25.48 Z14.45
 X-25.73 Z14.62
 X-25.98 Z14.79
 X-26.23 Z14.95
 X-26.48 Z15.12
 X-26.61 Z15.19
 X-26.73 Z15.26
 X-26.86 Z15.31
 X-26.92 Z15.34
 X-26.98 Z15.36
 X-27.23 Z15.44
 X-27.48 Z15.50
 X-27.61 Z15.54
 X-27.73 Z15.58
 X-27.98 Z15.64
 X-28.23 Z15.68
 X-28.48 Z15.72
 X-28.73 Z15.74
 X-28.79
 X-28.86
 X-28.98
 X-29.11 Z15.72
 X-29.17 Z15.71
 X-29.20
 X-29.23 Z15.70
 X-29.48 Z15.64
 X-29.73 Z15.55
 X-29.98 Z15.44
 X-30.23 Z15.32
 X-30.48 Z15.18
 X-30.73 Z15.03
 X-30.98 Z14.85
 X-31.23 Z14.66
 X-31.48 Z14.46
 X-31.73 Z14.26
 X-31.98 Z14.07
 X-32.23 Z13.88
 X-32.48 Z13.68
 X-32.73 Z13.48
 X-32.98 Z13.27
 X-33.23 Z13.09
 X-33.48 Z12.92
 X-33.73 Z12.78
 X-33.98 Z12.65
 X-34.10 Z12.59
 X-34.20 Z12.55
 X-34.23 Z12.53
 X-34.35 Z12.49
 X-34.48 Z12.46
 X-34.73 Z12.41
 X-34.98 Z12.36
 X-35.10 Z12.35
 X-35.19 Z12.34
 X-35.23
 X-35.48 Z12.38
 X-35.73 Z12.42
 X-35.98 Z12.44
 X-36.23 Z12.46
 X-36.48 Z12.49
 X-36.72 Z12.51
 X-36.97 Z12.54
 X-37.22 Z12.57
 X-37.47 Z12.61
 X-37.72 Z12.67
 X-37.97 Z12.72
 X-38.22 Z12.78
 X-38.47 Z12.82
 X-38.72 Z12.85
 X-38.97 Z12.87
 X-39.22 Z12.88
 X-39.47 Z12.89
 X-39.72
 X-39.97 Z12.87
 X-40.22 Z12.84
 X-40.47 Z12.80
 X-40.72 Z12.74
 X-40.97 Z12.67
 X-41.22 Z12.58
 X-41.47 Z12.49
 X-41.72 Z12.39
 X-41.97 Z12.28
 X-42.22 Z12.16
 X-42.47 Z12.02
 X-42.72 Z11.89
 X-42.97 Z11.77
 X-43.10 Z11.72
 X-43.22 Z11.68
 X-43.47 Z11.61
 X-43.72 Z11.56
 X-43.97 Z11.51
G0 Z25.00
 Y-17.66
G1 Z11.70
 X-43.72 Z11.75
 X-43.47 Z11.80
 X-43.35 Z11.83
 X-43.28 Z11.84
 X-43.22 Z11.86
 X-42.97 Z11.96
 X-42.72 Z12.08
 X-42.47 Z12.21
 X-42.22 Z12.35
 X-41.97 Z12.47
 X-41.72 Z12.59
 X-41.47 Z12.68
 X-41.22 Z12.77
 X-40.97 Z12.86
 X-40.72 Z12.93
 X-40.47 Z12.99
 X-40.22 Z13.03
 X-39.97 Z13.06
 X-39.72 Z13.07
 X-39.47
 X-39.22
 X-38.97 Z13.05
 X-38.72 Z13.03
 X-38.47 Z13.00
 X-38.22 Z12.96
 X-37.97 Z12.90
 X-37.72 Z12.85
 X-37.47 Z12.79
 X-37.22 Z12.74
 X-36.97 Z12.70
 X-36.72 Z12.67
 X-36.48 Z12.64
 X-36.23 Z12.61
 X-35.98 Z12.60
 X-35.73 Z12.58
 X-35.48 Z12.54
 X-35.41 Z12.53
 X-35.38 Z12.52
 X-35.37
 X-35.36
 X-35.35
 X-35.23
 X-34.98 Z12.53
 X-34.73 Z12.57
 X-34.48 Z12.62
 X-34.35 Z12.65
 X-34.29 Z12.67
 X-34.23 Z12.68
 X-33.98 Z12.78
 X-33.73 Z12.91
 X-33.48 Z13.06
 X-33.23 Z13.23
 X-32.98 Z13.41
 X-32.73 Z13.61
 X-32.48 Z13.81
 X-32.23 Z14.00
 X-31.98 Z14.18
 X-31.73 Z14.37
 X-31.48 Z14.56
 X-31.23 Z14.75
 X-30.98 Z14.94
 X-30.85 Z15.03
 X-30.79 Z15.08
 X-30.73 Z15.12
 X-30.48 Z15.27
 X-30.23 Z15.41
 X-29.98 Z15.54
 X-29.85 Z15.60
 X-29.73 Z15.66
 X-29.67 Z15.69
 X-29.60 Z15.71
 X-29.48 Z15.75
 X-29.35 Z15.78
 X-29.29 Z15.80
 X-29.23 Z15.81
 X-28.98 Z15.85
 X-28.86
 X-28.79 Z15.86
 X-28.73
 X-28.48 Z15.84
 X-28.23 Z15.81
 X-27.98 Z15.77
 X-27.86 Z15.74
 X-27.79 Z15.73
 X-27.76 Z15.72
 X-27.73 Z15.71
 X-27.61 Z15.67
 X-27.54 Z15.65
 X-27.48 Z15.62
 X-27.23 Z15.56
 X-27.17 Z15.55
 X-27.14 Z15.54
 X-27.11 Z15.53
 X-26.98 Z15.48
 X-26.86 Z15.43
 X-26.79 Z15.41
 X-26.73 Z15.38
 X-26.48 Z15.23
 X-26.23 Z15.07
 X-25.98 Z14.89
 X-25.73 Z14.72
 X-25.48 Z14.55
 X-25.23 Z14.39
 X-24.98 Z14.22
 X-24.73 Z14.07
 X-24.48 Z13.91
 X-24.23 Z13.77
 X-23.98 Z13.63
 X-23.73 Z13.50
 X-23.48 Z13.39
 X-23.23 Z13.28
 X-22.98 Z13.18
 X-22.73 Z13.09
 X-22.48 Z13.01
 X-22.23 Z12.93
 X-21.98 Z12.85
 X-21.74 Z12.77
 X-21.49 Z12.67
 X-21.36 Z12.62
 X-21.24 Z12.55
 X-21.11 Z12.48
 X-21.02 Z12.42
 X-21.00 Z12.41
 X-20.99 Z12.40
 X-20.92 Z12.36
 X-20.89 Z12.34
 X-20.86 Z12.31
 X-20.80 Z12.26
 X-20.77 Z12.23
 X-20.75 Z12.21
 X-20.74 Z12.19
 X-20.49 Z11.81
 X-20.24 Z11.40
 X-19.99 Z11.00
 X-19.74 Z10.63
 X-19.49 Z10.25
 X-19.24 Z9.87
 X-19.11 Z9.67
 X-19.05 Z9.55
 X-19.02 Z9.50
 X-18.99 Z9.45
 X-18.74 Z9.13
 X-18.49 Z8.86
 X-18.24 Z8.58
 X-17.99 Z8.27
 X-17.74 Z7.96
 X-17.49 Z7.64
 X-17.24 Z7.31
 X-16.99 Z7.00
 X-16.74 Z6.71
 X-16.49 Z6.44
 X-16.24 Z6.13
 X-15.99 Z5.80
 X-15.74 Z5.44
 X-15.49 Z5.10
 X-15.24 Z4.80
 X-15.11 Z4.66
 X-15.05 Z4.60
 X-15.02 Z4.56
 X-15.01 Z4.55
 Z4.54
 X-14.99 Z4.52
 X-14.93 Z4.46
 X-14.90 Z4.43
 X-14.88 Z4.42
 X-14.87 Z4.41
 X-14.86 Z4.40
 X-14.74 Z4.32
 X-14.52 Z4.18
 X-14.49 Z4.16
 X-14.37 Z4.09
 X-14.18 Z4.00
 X-14.12 Z3.98
 X-13.99 Z3.94
 X-13.74 Z3.88
 X-13.49 Z3.84
 X-13.24 Z3.82
 X-12.99 Z3.81
 X-12.74 Z3.83
 X-12.62 Z3.84
 X-12.49 Z3.86
 X-12.37 Z3.89
 X-12.24 Z3.92
 X-11.99 Z4.00
 X-11.74 Z4.10
 X-11.49 Z4.23
 X-11.24 Z4.37
 X-10.99 Z4.53
 X-10.74 Z4.71
 X-10.49 Z4.92
 X-10.24 Z5.14
 X-9.99 Z5.37
 X-9.74 Z5.60
 X-9.49 Z5.84
 X-9.24 Z6.07
 X-8.99 Z6.31
 X-8.74 Z6.57
 X-8.49 Z6.84
 X-8.24 Z7.14
 X-7.99 Z7.48
 X-7.74 Z7.85
 X-7.49 Z8.26
 X-7.25 Z8.72
 X-7.00 Z9.21
 X-6.75 Z9.66
 X-6.50 Z10.11
 X-6.25 Z10.52
 X-6.12 Z10.70
 X-6.06 Z10.78
 X-6.01 Z10.84
 X-6.00 Z10.86
 X-5.87 Z10.99
 X-5.81 Z11.04
 X-5.75 Z11.10
 X-5.68 Z11.15
 X-5.65 Z11.18
 X-5.62 Z11.20
 X-5.50 Z11.26
 X-5.37 Z11.32
 X-5.31 Z11.35
 X-5.25 Z11.38
 X-5.12 Z11.43
 X-5.06 Z11.45
 X-5.00 Z11.47
 X-4.75 Z11.52
 X-4.50 Z11.56
 X-4.25 Z11.61
 X-4.00 Z11.65
 X-3.75 Z11.70
 X-3.50 Z11.74
 X-3.25 Z11.78
 X-3.00 Z11.81
 X-2.87 Z11.82
 X-2.81 Z11.83
 X-2.75 Z11.84
 X-2.50 Z11.85
 X-2.25
 X-2.00 Z11.84
 X-1.75 Z11.83
 X-1.50 Z11.80
 X-1.25 Z11.77
 X-1.00 Z11.74
 X-0.75 Z11.71
 X-0.69 Z11.70
 X-0.62 Z11.69
 X-0.50
 X-0.37
 X-0.31 Z11.70
 X-0.25
 X0.00 Z11.66
G0 Z25.00
 Y-17.46
G1 Z11.84
 X-0.06 Z11.85
 X-0.09 Z11.86
 X-0.12 Z11.87
 X-0.19
 X-0.25 Z11.88
 X-0.50 Z11.86
 X-0.62
 X-0.75
 X-1.00 Z11.89
 X-1.25
 X-1.50 Z11.90
 X-1.62 Z11.91
 X-1.75
 X-2.00
 X-2.12
 X-2.19 Z11.92
 X-2.25 Z11.91
 X-2.50 Z11.89
 X-2.75 Z11.85
 X-3.00 Z11.81
 X-3.25 Z11.77
 X-3.50 Z11.72
 X-3.75 Z11.67
 X-4.00 Z11.62
 X-4.25 Z11.56
 X-4.50 Z11.50
 X-4.68 Z11.45
 X-4.75 Z11.44
 X-4.81 Z11.42
 X-4.87 Z11.40
 X-5.00 Z11.35
 X-5.25 Z11.22
 X-5.37 Z11.16
 X-5.43 Z11.13
 X-5.47 Z11.11
 X-5.50 Z11.09
 X-5.62 Z10.99
 X-5.68 Z10.93
 X-5.71 Z10.90
 X-5.75 Z10.87
 X-5.81 Z10.81
 X-5.87 Z10.74
 X-6.00 Z10.56
 X-6.25 Z10.18
 X-6.50 Z9.74
 X-6.75 Z9.28
 X-7.00 Z8.81
 X-7.25 Z8.33
 X-7.49 Z7.88
 X-7.74 Z7.49
 X-7.99 Z7.13
 X-8.18 Z6.86
 X-8.24 Z6.78
 X-8.49 Z6.50
 X-8.74 Z6.24
 X-8.99 Z5.99
 X-9.24 Z5.75
 X-9.49 Z5.51
 X-9.74 Z5.27
 X-9.99 Z5.03
 X-10.24 Z4.81
 X-10.49 Z4.61
 X-10.74 Z4.43
 X-10.87 Z4.34
 X-10.99 Z4.25
 X-11.24 Z4.11
 X-11.37 Z4.04
 X-11.43 Z4.00
 X-11.46 Z3.99
 X-11.49 Z3.97
 X-11.74 Z3.86
 X-11.99 Z3.76
 X-12.24 Z3.70
 X-12.49 Z3.65
 X-12.62 Z3.63
 X-12.74 Z3.62
 X-12.99
 X-13.24
 X-13.49 Z3.64
 X-13.74 Z3.68
 X-13.99 Z3.74
 X-14.24 Z3.81
 X-14.49 Z3.90
 X-14.74 Z4.01
 X-14.86 Z4.07
 X-14.99 Z4.14
 X-15.11 Z4.22
 X-15.24 Z4.32
 X-15.36 Z4.43
 X-15.43 Z4.48
 X-15.49 Z4.54
 X-15.74 Z4.84
 X-15.99 Z5.19
 X-16.24 Z5.54
 X-16.49 Z5.89
 X-16.74 Z6.23
 X-16.99 Z6.53
 X-17.24 Z6.85
 X-17.49 Z7.18
 X-17.74 Z7.51
 X-17.99 Z7.84
 X-18.24 Z8.17
 X-18.36 Z8.33
 X-18.49 Z8.50
 X-18.74 Z8.77
 X-18.92 Z8.97
 X-18.99 Z9.05
 X-19.24 Z9.49
 X-19.49 Z9.89
 X-19.74 Z10.25
 X-19.99 Z10.62
 X-20.24 Z11.00
 X-20.49 Z11.42
 X-20.74 Z11.83
 X-20.83 Z11.98
 X-20.86 Z12.03
 X-20.92 Z12.12
 X-20.95 Z12.15
 X-20.97 Z12.17
 X-20.99 Z12.19
 X-21.05 Z12.25
 X-21.08 Z12.28
 X-21.11 Z12.31
 X-21.24 Z12.40
 X-21.36 Z12.48
 X-21.42 Z12.52
 X-21.49 Z12.55
 X-21.74 Z12.67
 X-21.98 Z12.78
 X-22.23 Z12.87
 X-22.48 Z12.95
 X-22.73 Z13.05
 X-22.98 Z13.15
 X-23.23 Z13.25
 X-23.48 Z13.37
 X-23.73 Z13.50
 X-23.98 Z13.64
 X-24.23 Z13.80
 X-24.48 Z13.95
 X-24.73 Z14.12
 X-24.98 Z14.29
 X-25.23 Z14.46
 X-25.48 Z14.65
 X-25.73 Z14.82
 X-25.98 Z15.00
 X-26.23 Z15.18
 X-26.48 Z15.35
 X-26.61 Z15.42
 X-26.73 Z15.49
 X-26.86 Z15.55
 X-26.92 Z15.58
 X-26.98 Z15.61
 X-27.23 Z15.68
 X-27.36 Z15.70
 X-27.48 Z15.74
 X-27.61 Z15.79
 X-27.67 Z15.81
 X-27.73 Z15.83
 X-27.98 Z15.88
 X-28.23 Z15.92
 X-28.48 Z15.95
 X-28.61 Z15.96
 X-28.73 Z15.97
 X-28.98 Z15.95
 X-29.11 Z15.94
 X-29.23 Z15.92
 X-29.35 Z15.89
 X-29.42 Z15.87
 X-29.45 Z15.86
 X-29.48 Z15.85
 X-29.73 Z15.75
 X-29.98 Z15.62
 X-30.23 Z15.49
 X-30.48 Z15.34
 X-30.73 Z15.19
 X-30.98 Z15.01
 X-31.23 Z14.82
 X-31.48 Z14.63
 X-31.73 Z14.44
 X-31.98 Z14.28
 X-32.23 Z14.11
 X-32.48 Z13.92
 X-32.73 Z13.73
 X-32.98 Z13.54
 X-33.23 Z13.35
 X-33.48 Z13.19
 X-33.73 Z13.05
 X-33.98 Z12.92
 X-34.10 Z12.86
 X-34.16 Z12.84
 X-34.23 Z12.81
 X-34.35 Z12.78
 X-34.41 Z12.77
 X-34.48 Z12.75
 X-34.73 Z12.72
 X-35.10 Z12.67
 X-35.23
 X-35.48 Z12.69
 X-35.73 Z12.71
 X-35.98 Z12.73
 X-36.23 Z12.74
 X-36.48 Z12.77
 X-36.72 Z12.81
 X-36.97 Z12.86
 X-37.22 Z12.91
 X-37.47 Z12.96
 X-37.72 Z13.02
 X-37.97 Z13.08
 X-38.22 Z13.13
 X-38.47 Z13.18
 X-38.72 Z13.21
 X-38.97 Z13.23
 X-39.22 Z13.25
 X-39.47 Z13.26
 X-39.72
 X-39.97 Z13.25
 X-40.22 Z13.22
 X-40.47 Z13.18
 X-40.72 Z13.12
 X-40.97 Z13.04
 X-41.22 Z12.96
 X-41.47 Z12.87
 X-41.72 Z12.78
 X-41.97 Z12.66
 X-42.22 Z12.53
 X-42.47 Z12.39
 X-42.72 Z12.26
 X-42.97 Z12.14
 X-43.10 Z12.09
 X-43.22 Z12.05
 X-43.47 Z11.98
 X-43.72 Z11.93
 X-43.97 Z11.88
G0 Z25.00
 Y-17.26
G1 Z12.05
 X-43.72 Z12.12
 X-43.47 Z12.16
 X-43.22 Z12.23
 X-43.10 Z12.27
 X-42.97 Z12.32
 X-42.72 Z12.44
 X-42.47 Z12.57
 X-42.22 Z12.71
 X-41.97 Z12.85
 X-41.72 Z12.96
 X-41.47 Z13.06
 X-41.22 Z13.15
 X-40.97 Z13.23
 X-40.72 Z13.30
 X-40.47 Z13.36
 X-40.22 Z13.40
 X-39.97 Z13.43
 X-39.72 Z13.44
 X-39.47
 X-39.22 Z13.43
 X-38.97 Z13.41
 X-38.72 Z13.38
 X-38.47 Z13.35
 X-38.22 Z13.31
 X-37.97 Z13.25
 X-37.72 Z13.18
 X-37.47 Z13.12
 X-37.22 Z13.05
 X-36.97 Z13.00
 X-36.72 Z12.94
 X-36.60 Z12.91
 X-36.54 Z12.90
 X-36.48 Z12.88
 X-36.23 Z12.85
 X-35.98 Z12.84
 X-35.73 Z12.83
 X-35.48 Z12.82
 X-35.35 Z12.81
 X-35.23 Z12.80
 X-34.98 Z12.83
 X-34.73 Z12.85
 X-34.60 Z12.87
 X-34.48 Z12.88
 X-34.41 Z12.89
 X-34.35 Z12.90
 X-34.32 Z12.91
 X-34.29 Z12.92
 X-34.23 Z12.94
 X-33.98 Z13.04
 X-33.73 Z13.16
 X-33.48 Z13.30
 X-33.23 Z13.46
 X-32.98 Z13.64
 X-32.73 Z13.83
 X-32.48 Z14.02
 X-32.23 Z14.19
 X-31.98 Z14.34
 X-31.73 Z14.51
 X-31.48 Z14.69
 X-31.23 Z14.88
 X-30.98 Z15.07
 X-30.85 Z15.17
 X-30.73 Z15.25
 X-30.48 Z15.40
 X-30.23 Z15.55
 X-29.98 Z15.70
 X-29.73 Z15.83
 X-29.67 Z15.86
 X-29.64 Z15.88
 X-29.60 Z15.89
 X-29.48 Z15.94
 X-29.35 Z15.98
 X-29.29 Z16.00
 X-29.26 Z16.01
 X-29.23 Z16.02
 X-29.11 Z16.04
 X-28.98 Z16.06
 X-28.86 Z16.07
 X-28.73
 X-28.48 Z16.06
 X-28.23 Z16.04
 X-28.11 Z16.02
 X-27.98 Z16.00
 X-27.86 Z15.97
 X-27.73 Z15.94
 X-27.61 Z15.89
 X-27.48 Z15.85
 X-27.23 Z15.79
 X-27.17 Z15.78
 X-27.14 Z15.77
 X-27.11 Z15.76
 X-27.04 Z15.74
 X-26.98 Z15.72
 X-26.73 Z15.60
 X-26.48 Z15.45
 X-26.23 Z15.28
 X-25.98 Z15.10
 X-25.73 Z14.92
 X-25.48 Z14.73
 X-25.23 Z14.53
 X-24.98 Z14.34
 X-24.73 Z14.16
 X-24.48 Z13.98
 X-24.23 Z13.81
 X-23.98 Z13.64
 X-23.73 Z13.48
 X-23.48 Z13.35
 X-23.23 Z13.23
 X-22.98 Z13.10
 X-22.73 Z12.99
 X-22.48 Z12.89
 X-22.23 Z12.78
 X-21.98 Z12.68
 X-21.74 Z12.55
 X-21.61 Z12.48
 X-21.49 Z12.39
 X-21.42 Z12.35
 X-21.39 Z12.32
 X-21.36 Z12.30
 X-21.30 Z12.25
 X-21.27 Z12.22
 X-21.24 Z12.19
 X-21.17 Z12.11
 X-21.14 Z12.08
 X-21.11 Z12.04
 X-20.99 Z11.85
 X-20.74 Z11.42
 X-20.49 Z10.99
 X-20.24 Z10.59
 X-19.99 Z10.22
 X-19.74 Z9.86
 X-19.49 Z9.49
 X-19.24 Z9.04
 X-19.17 Z8.92
 X-19.11 Z8.82
 X-18.99 Z8.65
 X-18.74 Z8.35
 X-18.49 Z8.04
 X-18.24 Z7.70
 X-17.99 Z7.35
 X-17.74 Z7.00
 X-17.49 Z6.64
 X-17.24 Z6.30
 X-16.99 Z5.97
 X-16.74 Z5.60
 X-16.49 Z5.22
 X-16.24 Z4.87
 X-16.11 Z4.71
 X-16.05 Z4.64
 X-16.00 Z4.58
 X-15.99 Z4.56
 X-15.74 Z4.36
 X-15.49 Z4.20
 X-15.24 Z4.06
 X-14.99 Z3.94
 X-14.74 Z3.83
 X-14.49 Z3.73
 X-14.37 Z3.69
 X-14.30 Z3.66
 X-14.27 Z3.65
 X-14.24 Z3.64
 X-13.99 Z3.58
 X-13.74 Z3.53
 X-13.62 Z3.50
 X-13.49 Z3.48
 X-13.24 Z3.47
 X-12.99 Z3.45
 X-12.74
 X-12.49 Z3.47
 X-12.37 Z3.48
 X-12.30 Z3.49
 X-12.24
 X-12.12 Z3.52
 X-11.99 Z3.54
 X-11.74 Z3.62
 X-11.49 Z3.71
 X-11.24 Z3.83
 X-10.99 Z3.98
 X-10.74 Z4.13
 X-10.49 Z4.30
 X-10.24 Z4.49
 X-9.99 Z4.69
 X-9.74 Z4.90
 X-9.49 Z5.14
 X-9.24 Z5.38
 X-8.99 Z5.63
 X-8.74 Z5.88
 X-8.49 Z6.13
 X-8.37 Z6.26
 X-8.24 Z6.41
 X-7.99 Z6.74
 X-7.74 Z7.11
 X-7.49 Z7.49
 X-7.25 Z7.92
 X-7.00 Z8.39
 X-6.75 Z8.89
 X-6.50 Z9.36
 X-6.25 Z9.80
 X-6.00 Z10.23
 X-5.90 Z10.38
 X-5.87 Z10.43
 X-5.75 Z10.59
 X-5.56 Z10.80
 X-5.53 Z10.84
 X-5.51 Z10.86
 X-5.50 Z10.87
 X-5.43 Z10.93
 X-5.37 Z10.98
 X-5.25 Z11.07
 X-5.00 Z11.22
 X-4.87 Z11.28
 X-4.81 Z11.31
 X-4.75 Z11.34
 X-4.50 Z11.43
 X-4.25 Z11.50
 X-4.00 Z11.57
 X-3.75 Z11.64
 X-3.50 Z11.70
 X-3.25 Z11.76
 X-3.00 Z11.81
 X-2.75 Z11.86
 X-2.50 Z11.91
 X-2.37 Z11.94
 X-2.31 Z11.95
 X-2.25 Z11.96
 X-2.00
 X-1.75 Z11.98
 X-1.50 Z11.99
 X-1.25 Z12.00
 X-1.00 Z12.02
 X-0.75
 X-0.50 Z12.03
 X-0.27 Z12.05
 X-0.25
 X0.00 Z12.03
G0 Z25.00
 Y-17.06
G1 Z12.18
 X-0.06 Z12.20
 X-0.09
 X-0.12 Z12.21
 X-0.19
 X-0.25
 X-0.50 Z12.19
 X-0.75 Z12.16
 X-1.00 Z12.12
 X-1.25 Z12.09
 X-1.50 Z12.07
 X-1.75 Z12.04
 X-2.00 Z12.01
 X-2.12 Z11.99
 X-2.25 Z11.97
 X-2.50 Z11.92
 X-2.75 Z11.87
 X-3.00 Z11.80
 X-3.25 Z11.74
 X-3.50 Z11.67
 X-3.75 Z11.60
 X-4.00 Z11.52
 X-4.25 Z11.44
 X-4.37 Z11.39
 X-4.50 Z11.34
 X-4.75 Z11.22
 X-4.87 Z11.14
 X-5.00 Z11.07
 X-5.12 Z10.98
 X-5.18 Z10.93
 X-5.22 Z10.91
 X-5.25 Z10.88
 X-5.37 Z10.76
 X-5.50 Z10.61
 X-5.62 Z10.45
 X-5.75 Z10.27
 X-6.00 Z9.86
 X-6.25 Z9.41
 X-6.50 Z8.95
 X-6.75 Z8.46
 X-7.00 Z7.97
 X-7.25 Z7.49
 X-7.49 Z7.08
 X-7.74 Z6.70
 X-7.99 Z6.33
 X-8.12 Z6.16
 X-8.24 Z6.00
 X-8.49 Z5.74
 X-8.74 Z5.48
 X-8.99 Z5.23
 X-9.24 Z4.98
 X-9.49 Z4.75
 X-9.74 Z4.54
 X-9.99 Z4.35
 X-10.24 Z4.16
 X-10.49 Z4.00
 X-10.62 Z3.91
 X-10.74 Z3.84
 X-10.99 Z3.70
 X-11.30 Z3.56
 X-11.34 Z3.55
 X-11.37 Z3.53
 X-11.49 Z3.49
 X-11.68 Z3.43
 X-11.74 Z3.42
 X-11.99 Z3.38
 X-12.24 Z3.36
 X-12.49
 X-12.74
 X-12.99 Z3.37
 X-13.24 Z3.38
 X-13.74 Z3.46
 X-13.99 Z3.52
 X-14.24 Z3.59
 X-14.49 Z3.67
 X-14.74 Z3.77
 X-14.99 Z3.87
 X-15.24 Z3.98
 X-15.49 Z4.10
 X-15.74 Z4.22
 X-15.99 Z4.34
 X-16.24 Z4.50
 X-16.36 Z4.59
 X-16.49 Z4.68
 X-16.52 Z4.70
 X-16.54 Z4.71
 X-16.55 Z4.73
 X-16.58 Z4.76
 X-16.61 Z4.79
 X-16.74 Z4.93
 X-16.86 Z5.08
 X-16.99 Z5.25
 X-17.24 Z5.65
 X-17.49 Z6.02
 X-17.74 Z6.39
 X-17.99 Z6.76
 X-18.24 Z7.15
 X-18.49 Z7.51
 X-18.74 Z7.84
 X-18.99 Z8.17
 X-19.11 Z8.33
 X-19.17 Z8.40
 X-19.21 Z8.44
 X-19.24 Z8.49
 X-19.36 Z8.76
 X-19.42 Z8.89
 X-19.49 Z9.01
 X-19.74 Z9.42
 X-19.99 Z9.77
 X-20.24 Z10.16
 X-20.49 Z10.57
 X-20.74 Z10.98
 X-20.99 Z11.42
 X-21.11 Z11.66
 X-21.17 Z11.77
 X-21.24 Z11.87
 X-21.30 Z11.97
 X-21.33 Z12.01
 X-21.36 Z12.05
 X-21.42 Z12.12
 X-21.45 Z12.15
 X-21.47 Z12.17
 X-21.49 Z12.19
 X-21.61 Z12.30
 X-21.67 Z12.35
 X-21.70 Z12.38
 X-21.74 Z12.40
 X-21.98 Z12.56
 X-22.23 Z12.70
 X-22.48 Z12.81
 X-22.73 Z12.93
 X-22.98 Z13.05
 X-23.23 Z13.18
 X-23.48 Z13.32
 X-23.73 Z13.47
 X-23.98 Z13.64
 X-24.23 Z13.82
 X-24.48 Z14.00
 X-24.73 Z14.19
 X-24.98 Z14.39
 X-25.23 Z14.60
 X-25.48 Z14.80
 X-25.73 Z15.01
 X-25.98 Z15.19
 X-26.23 Z15.38
 X-26.48 Z15.55
 X-26.73 Z15.69
 X-26.86 Z15.76
 X-26.92 Z15.79
 X-26.95 Z15.81
 X-26.97
 X-26.98 Z15.82
 X-27.23 Z15.90
 X-27.29 Z15.91
 X-27.33
 X-27.36 Z15.92
 X-27.48 Z15.96
 X-27.73 Z16.05
 X-27.86 Z16.08
 X-27.95 Z16.11
 X-27.98 Z16.12
 X-28.23 Z16.15
 X-28.48 Z16.16
 X-28.73
 X-28.86
 X-28.98 Z16.14
 X-29.11 Z16.12
 X-29.23 Z16.09
 X-29.35 Z16.05
 X-29.42 Z16.03
 X-29.48 Z16.01
 X-29.73 Z15.90
 X-29.98 Z15.76
 X-30.23 Z15.61
 X-30.48 Z15.45
 X-30.73 Z15.29
 X-30.98 Z15.11
 X-31.23 Z14.91
 X-31.48 Z14.73
 X-31.73 Z14.55
 X-31.98 Z14.40
 X-32.23 Z14.24
 X-32.48 Z14.08
 X-32.73 Z13.90
 X-32.98 Z13.72
 X-33.23 Z13.55
 X-33.48 Z13.40
 X-33.73 Z13.26
 X-33.98 Z13.15
 X-34.10 Z13.10
 X-34.29 Z13.02
 X-34.32 Z13.01
 X-34.41 Z13.00
 X-34.48 Z12.99
 X-34.73 Z12.97
 X-34.98 Z12.95
 X-35.23 Z12.93
 X-35.48
 X-35.73
 X-35.98 Z12.92
 X-36.04
 X-36.10
 X-36.23 Z12.93
 X-36.48 Z12.98
 X-36.72 Z13.05
 X-36.97 Z13.12
 X-37.22 Z13.19
 X-37.47 Z13.25
 X-37.72 Z13.34
 X-37.97 Z13.41
 X-38.22 Z13.47
 X-38.47 Z13.51
 X-38.72 Z13.55
 X-38.97 Z13.58
 X-39.22 Z13.60
 X-39.47 Z13.61
 X-39.72 Z13.62
 X-39.97 Z13.61
 X-40.10 Z13.60
 X-40.22 Z13.59
 X-40.47 Z13.54
 X-40.72 Z13.48
 X-40.97 Z13.41
 X-41.22 Z13.33
 X-41.47 Z13.25
 X-41.72 Z13.15
 X-41.97 Z13.03
 X-42.22 Z12.90
 X-42.47 Z12.75
 X-42.72 Z12.61
 X-42.85 Z12.55
 X-42.97 Z12.50
 X-43.22 Z12.41
 X-43.47 Z12.34
 X-43.72 Z12.29
 X-43.97 Z12.22
G0 Z25.00
 Y-16.86
G1 Z12.40
 X-43.72 Z12.46
 X-43.47 Z12.52
 X-43.22 Z12.58
 X-43.10 Z12.63
 X-42.97 Z12.67
 X-42.72 Z12.79
 X-42.47 Z12.93
 X-42.22 Z13.08
 X-41.97 Z13.22
 X-41.72 Z13.33
 X-41.47 Z13.43
 X-41.22 Z13.52
 X-40.97 Z13.59
 X-40.72 Z13.66
 X-40.47 Z13.72
 X-40.22 Z13.77
 X-39.97 Z13.79
 X-39.72 Z13.80
 X-39.47 Z13.79
 X-39.22 Z13.77
 X-38.97 Z13.74
 X-38.72 Z13.71
 X-38.47 Z13.67
 X-38.22 Z13.61
 X-37.97 Z13.54
 X-37.72 Z13.47
 X-37.47 Z13.39
 X-37.22 Z13.32
 X-36.97 Z13.24
 X-36.72 Z13.15
 X-36.48 Z13.07
 X-36.41 Z13.04
 X-36.35 Z13.03
 X-36.29 Z13.01
 X-36.27
 X-36.26 Z13.00
 X-36.23
 X-35.98
 X-35.73 Z13.01
 X-35.48 Z13.02
 X-35.23 Z13.04
 X-34.98 Z13.06
 X-34.73
 X-34.66
 X-34.60
 X-34.54 Z13.07
 X-34.48 Z13.08
 X-34.23 Z13.14
 X-33.98 Z13.23
 X-33.73 Z13.34
 X-33.48 Z13.47
 X-33.23 Z13.63
 X-32.98 Z13.79
 X-32.73 Z13.96
 X-32.48 Z14.13
 X-32.23 Z14.28
 X-31.98 Z14.43
 X-31.73 Z14.58
 X-31.48 Z14.75
 X-31.23 Z14.94
 X-30.98 Z15.14
 X-30.85 Z15.23
 X-30.73 Z15.33
 X-30.48 Z15.48
 X-30.23 Z15.65
 X-29.98 Z15.81
 X-29.85 Z15.89
 X-29.73 Z15.96
 X-29.60 Z16.02
 X-29.48 Z16.08
 X-29.35 Z16.12
 X-29.23 Z16.16
 X-29.17 Z16.18
 X-29.11 Z16.19
 X-28.98 Z16.22
 X-28.86 Z16.23
 X-28.73 Z16.25
 X-28.48
 X-28.23 Z16.24
 X-28.11 Z16.23
 X-27.98 Z16.21
 X-27.92 Z16.20
 X-27.86 Z16.19
 X-27.79 Z16.18
 X-27.73 Z16.16
 X-27.61 Z16.11
 X-27.48 Z16.06
 X-27.23 Z15.99
 X-27.17 Z15.97
 X-27.14
 X-27.11 Z15.96
 X-26.98 Z15.91
 X-26.73 Z15.78
 X-26.48 Z15.64
 X-26.23 Z15.48
 X-25.98 Z15.28
 X-25.73 Z15.08
 X-25.48 Z14.87
 X-25.23 Z14.65
 X-24.98 Z14.44
 X-24.73 Z14.22
 X-24.48 Z14.02
 X-24.23 Z13.81
 X-23.98 Z13.61
 X-23.73 Z13.44
 X-23.48 Z13.29
 X-23.23 Z13.13
 X-22.98 Z12.99
 X-22.73 Z12.86
 X-22.48 Z12.73
 X-22.23 Z12.58
 X-22.11 Z12.51
 X-22.05 Z12.47
 X-21.98 Z12.42
 X-21.86 Z12.32
 X-21.80 Z12.27
 X-21.77 Z12.24
 X-21.75 Z12.22
 X-21.74 Z12.21
 X-21.67 Z12.14
 X-21.64 Z12.11
 X-21.61 Z12.06
 X-21.55 Z11.99
 X-21.49 Z11.89
 X-21.24 Z11.43
 X-20.99 Z10.96
 X-20.74 Z10.51
 X-20.49 Z10.07
 X-20.24 Z9.64
 X-19.99 Z9.26
 X-19.86 Z9.07
 X-19.80 Z8.99
 X-19.74 Z8.89
 X-19.61 Z8.63
 X-19.55 Z8.50
 X-19.49 Z8.37
 X-19.24 Z7.95
 X-18.99 Z7.58
 X-18.74 Z7.25
 X-18.49 Z6.86
 X-18.24 Z6.46
 X-17.99 Z6.06
 X-17.74 Z5.69
 X-17.61 Z5.50
 X-17.55 Z5.40
 X-17.49 Z5.32
 X-17.43 Z5.24
 X-17.38 Z5.18
 X-17.36 Z5.16
 X-17.30 Z5.10
 X-17.27 Z5.07
 X-17.25 Z5.06
 X-17.24 Z5.04
 X-16.99 Z4.88
 X-16.74 Z4.72
 X-16.49 Z4.58
 X-16.24 Z4.44
 X-15.99 Z4.31
 X-15.74 Z4.18
 X-15.49 Z4.06
 X-15.24 Z3.94
 X-14.99 Z3.83
 X-14.74 Z3.72
 X-14.49 Z3.62
 X-14.43 Z3.59
 X-14.41 Z3.58
 X-14.40 Z3.57
 X-14.37 Z3.56
 X-14.24 Z3.52
 X-14.12 Z3.49
 X-13.99 Z3.46
 X-13.74 Z3.42
 X-13.49 Z3.37
 X-13.37 Z3.35
 X-13.30 Z3.33
 X-13.27
 X-13.24 Z3.32
 X-12.99 Z3.29
 X-12.74
 X-12.49 Z3.28
 X-12.24 Z3.29
 X-12.12 Z3.30
 X-12.05
 X-11.99
 X-11.74 Z3.34
 X-11.49 Z3.38
 X-11.24 Z3.42
 X-11.12 Z3.45
 X-11.05 Z3.47
 X-11.04
 X-11.02
 X-10.99 Z3.49
 X-10.74 Z3.60
 X-10.49 Z3.71
 X-10.24 Z3.85
 X-9.99 Z4.01
 X-9.74 Z4.17
 X-9.49 Z4.37
 X-9.24 Z4.57
 X-8.99 Z4.79
 X-8.74 Z5.05
 X-8.49 Z5.31
 X-8.24 Z5.58
 X-7.99 Z5.89
 X-7.74 Z6.25
 X-7.49 Z6.63
 X-7.25 Z7.03
 X-7.00 Z7.49
 X-6.75 Z8.00
 X-6.50 Z8.52
 X-6.25 Z9.01
 X-6.00 Z9.46
 X-5.75 Z9.91
 X-5.50 Z10.30
 X-5.37 Z10.46
 X-5.31 Z10.54
 X-5.28 Z10.59
 X-5.25 Z10.63
 X-5.18 Z10.70
 X-5.15 Z10.73
 X-5.14 Z10.75
 X-5.12 Z10.77
 X-5.00 Z10.88
 X-4.87 Z10.98
 X-4.81 Z11.03
 X-4.75 Z11.08
 X-4.62 Z11.16
 X-4.56 Z11.20
 X-4.50 Z11.24
 X-4.25 Z11.35
 X-4.00 Z11.46
 X-3.75 Z11.55
 X-3.50 Z11.64
 X-3.25 Z11.71
 X-3.00 Z11.78
 X-2.75 Z11.86
 X-2.50 Z11.92
 X-2.25 Z11.98
 X-2.00 Z12.04
 X-1.75 Z12.09
 X-1.50 Z12.15
 X-1.25 Z12.20
 X-1.00 Z12.23
 X-0.75 Z12.28
 X-0.50 Z12.32
 X-0.31 Z12.36
 X-0.28 Z12.37
 X-0.25
 X0.00 Z12.38
G0 Z25.00
 Y-16.66
G1 Z12.56
 X-0.06 Z12.55
 X-0.12 Z12.54
 X-0.25 Z12.52
 X-0.50 Z12.46
 X-0.75 Z12.40
 X-1.00 Z12.34
 X-1.25 Z12.27
 X-1.50 Z12.20
 X-1.75 Z12.12
 X-2.00 Z12.06
 X-2.25 Z11.99
 X-2.37 Z11.96
 X-2.50 Z11.93
 X-2.75 Z11.84
 X-3.00 Z11.76
 X-3.25 Z11.67
 X-3.50 Z11.59
 X-3.75 Z11.49
 X-3.87 Z11.44
 X-3.93 Z11.41
 X-4.00 Z11.39
 X-4.25 Z11.25
 X-4.31 Z11.22
 X-4.37 Z11.19
 X-4.50 Z11.10
 X-4.62 Z11.00
 X-4.68 Z10.95
 X-4.75 Z10.90
 X-4.87 Z10.77
 X-4.93 Z10.71
 X-5.00 Z10.64
 X-5.25 Z10.31
 X-5.50 Z9.94
 X-5.75 Z9.51
 X-6.00 Z9.05
 X-6.25 Z8.55
 X-6.50 Z8.04
 X-6.75 Z7.51
 X-7.00 Z6.99
 X-7.12 Z6.74
 X-7.25 Z6.53
 X-7.49 Z6.15
 X-7.74 Z5.78
 X-7.99 Z5.43
 X-8.24 Z5.13
 X-8.49 Z4.84
 X-8.74 Z4.59
 X-8.99 Z4.37
 X-9.24 Z4.17
 X-9.37 Z4.08
 X-9.43 Z4.04
 X-9.49 Z3.99
 X-9.74 Z3.86
 X-9.87 Z3.79
 X-9.96 Z3.73
 X-9.99 Z3.71
 X-10.24 Z3.60
 X-10.31 Z3.58
 X-10.37 Z3.55
 X-10.49 Z3.51
 X-10.74 Z3.45
 X-10.99 Z3.39
 X-11.12 Z3.36
 X-11.18 Z3.34
 X-11.24 Z3.33
 X-11.49 Z3.30
 X-11.74 Z3.28
 X-11.99 Z3.25
 X-12.24 Z3.23
 X-12.49 Z3.21
 X-12.62 Z3.20
 X-12.68
 X-12.71 Z3.19
 X-12.73
 X-12.74
 Z3.18
 X-12.80 Z3.17
 X-12.81
 X-12.82
 Z3.16
 X-12.83
 X-12.85
 X-12.86
 X-12.87
 X-12.99 Z3.20
 X-13.12 Z3.24
 X-13.18 Z3.27
 X-13.24 Z3.29
 X-13.49 Z3.34
 X-13.99 Z3.44
 X-14.12 Z3.47
 X-14.18
 X-14.21 Z3.48
 X-14.22
 X-14.23
 X-14.24
 X-14.30
 X-14.33
 X-14.35
 X-14.36
 X-14.37
 X-14.43 Z3.53
 X-14.46 Z3.55
 X-14.49 Z3.57
 X-14.74 Z3.69
 X-14.99 Z3.80
 X-15.24 Z3.90
 X-15.49 Z4.02
 X-15.74 Z4.15
 X-15.99 Z4.28
 X-16.24 Z4.40
 X-16.49 Z4.53
 X-16.74 Z4.67
 X-16.99 Z4.80
 X-17.24 Z4.93
 X-17.49 Z5.05
 X-17.61 Z5.12
 X-17.68 Z5.15
 X-17.71 Z5.17
 X-17.74 Z5.19
 X-17.86 Z5.29
 X-17.93 Z5.34
 X-17.96 Z5.37
 X-17.99 Z5.40
 X-18.05 Z5.46
 X-18.11 Z5.53
 X-18.24 Z5.69
 X-18.49 Z6.06
 X-18.74 Z6.48
 X-18.99 Z6.87
 X-19.24 Z7.24
 X-19.49 Z7.66
 X-19.74 Z8.15
 X-19.99 Z8.64
 X-20.24 Z9.04
 X-20.49 Z9.44
 X-20.74 Z9.93
 X-20.99 Z10.45
 X-21.24 Z10.93
 X-21.49 Z11.44
 X-21.61 Z11.69
 X-21.67 Z11.81
 X-21.73 Z11.90
 X-21.74 Z11.92
 X-21.80 Z12.01
 X-21.83 Z12.05
 X-21.86 Z12.09
 X-21.98 Z12.22
 X-22.05 Z12.29
 X-22.08 Z12.32
 X-22.11 Z12.35
 X-22.23 Z12.45
 X-22.48 Z12.62
 X-22.73 Z12.78
 X-22.98 Z12.92
 X-23.23 Z13.08
 X-23.48 Z13.24
 X-23.73 Z13.41
 X-23.86 Z13.49
 X-23.98 Z13.59
 X-24.23 Z13.80
 X-24.48 Z14.01
 X-24.73 Z14.24
 X-24.98 Z14.46
 X-25.23 Z14.69
 X-25.48 Z14.92
 X-25.73 Z15.15
 X-25.98 Z15.36
 X-26.23 Z15.56
 X-26.48 Z15.73
 X-26.73 Z15.87
 X-26.86 Z15.93
 X-26.98 Z15.99
 X-27.23 Z16.08
 X-27.29 Z16.09
 X-27.33 Z16.10
 X-27.36 Z16.11
 X-27.48 Z16.15
 X-27.61 Z16.20
 X-27.67 Z16.23
 X-27.70 Z16.24
 X-27.72
 X-27.73 Z16.25
 X-27.98 Z16.30
 X-28.11 Z16.31
 X-28.23 Z16.33
 X-28.48 Z16.34
 X-28.61
 X-28.67 Z16.33
 X-28.73
 X-28.86 Z16.31
 X-28.98 Z16.29
 X-29.04 Z16.28
 X-29.11 Z16.26
 X-29.23 Z16.23
 X-29.35 Z16.18
 X-29.48 Z16.13
 X-29.60 Z16.07
 X-29.67 Z16.04
 X-29.73 Z16.01
 X-29.98 Z15.85
 X-30.23 Z15.68
 X-30.48 Z15.51
 X-30.73 Z15.34
 X-30.98 Z15.15
 X-31.23 Z14.96
 X-31.48 Z14.77
 X-31.73 Z14.59
 X-31.98 Z14.44
 X-32.23 Z14.30
 X-32.48 Z14.15
 X-32.73 Z13.99
 X-32.98 Z13.83
 X-33.23 Z13.68
 X-33.48 Z13.53
 X-33.73 Z13.41
 X-33.98 Z13.30
 X-34.10 Z13.26
 X-34.16 Z13.24
 X-34.23 Z13.22
 X-34.35 Z13.18
 X-34.41 Z13.17
 X-34.45 Z13.16
 X-34.46
 X-34.48 Z13.15
 X-34.73 Z13.13
 X-34.98
 X-35.23 Z13.11
 X-35.48 Z13.09
 X-35.73 Z13.07
 X-35.85 Z13.06
 X-35.98 Z13.05
 X-36.04
 X-36.10
 X-36.16
 X-36.19
 X-36.21
 X-36.23 Z13.06
 X-36.35 Z13.09
 X-36.48 Z13.13
 X-36.72 Z13.24
 X-36.97 Z13.33
 X-37.22 Z13.41
 X-37.47 Z13.50
 X-37.72 Z13.59
 X-37.97 Z13.67
 X-38.22 Z13.74
 X-38.47 Z13.81
 X-38.72 Z13.86
 X-38.97 Z13.90
 X-39.22 Z13.94
 X-39.47 Z13.96
 X-39.72 Z13.97
 X-39.97
 X-40.22 Z13.94
 X-40.47 Z13.90
 X-40.72 Z13.83
 X-40.97 Z13.76
 X-41.22 Z13.69
 X-41.47 Z13.61
 X-41.72 Z13.51
 X-41.97 Z13.40
 X-42.22 Z13.26
 X-42.47 Z13.11
 X-42.72 Z12.97
 X-42.85 Z12.90
 X-42.97 Z12.85
 X-43.22 Z12.76
 X-43.47 Z12.69
 X-43.72 Z12.63
 X-43.97 Z12.57
G0 Z25.00
 Y-16.46
G1 Z12.72
 X-43.72 Z12.79
 X-43.47 Z12.86
 X-43.22 Z12.94
 X-43.10 Z12.98
 X-42.97 Z13.02
 X-42.72 Z13.14
 X-42.47 Z13.29
 X-42.22 Z13.44
 X-42.10 Z13.51
 X-41.97 Z13.58
 X-41.72 Z13.68
 X-41.47 Z13.78
 X-41.22 Z13.86
 X-40.97 Z13.94
 X-40.72 Z14.01
 X-40.47 Z14.06
 X-40.22 Z14.11
 X-40.10 Z14.13
 X-39.97 Z14.14
 X-39.72 Z14.13
 X-39.54
 X-39.47
 X-39.22 Z14.09
 X-38.97 Z14.05
 X-38.72 Z13.99
 X-38.47 Z13.93
 X-38.22 Z13.85
 X-37.97 Z13.77
 X-37.72 Z13.68
 X-37.47 Z13.59
 X-37.22 Z13.50
 X-36.97 Z13.41
 X-36.72 Z13.30
 X-36.48 Z13.19
 X-36.35 Z13.13
 X-36.29 Z13.11
 X-36.26 Z13.09
 X-36.24
 Z13.08
 X-36.23
 X-36.16 Z13.07
 X-36.13
 X-36.10
 X-35.98 Z13.08
 X-35.73 Z13.11
 X-35.48 Z13.14
 X-35.23 Z13.17
 X-34.98 Z13.18
 X-34.73 Z13.19
 X-34.60 Z13.20
 X-34.54 Z13.21
 X-34.48
 X-34.23 Z13.27
 X-33.98 Z13.35
 X-33.73 Z13.45
 X-33.48 Z13.57
 X-33.23 Z13.71
 X-32.98 Z13.86
 X-32.73 Z14.01
 X-32.48 Z14.16
 X-32.23 Z14.30
 X-31.98 Z14.45
 X-31.73 Z14.60
 X-31.48 Z14.77
 X-31.23 Z14.96
 X-30.98 Z15.15
 X-30.73 Z15.34
 X-30.48 Z15.53
 X-30.23 Z15.71
 X-29.98 Z15.89
 X-29.85 Z15.97
 X-29.79 Z16.01
 X-29.73 Z16.05
 X-29.48 Z16.17
 X-29.35 Z16.23
 X-29.29 Z16.25
 X-29.23 Z16.28
 X-28.98 Z16.34
 X-28.86 Z16.37
 X-28.79 Z16.38
 X-28.73 Z16.39
 X-28.48 Z16.41
 X-28.36
 X-28.23
 X-28.11 Z16.40
 X-27.98 Z16.38
 X-27.92
 X-27.89 Z16.37
 X-27.86
 X-27.79 Z16.35
 X-27.73 Z16.34
 X-27.61 Z16.29
 X-27.48 Z16.23
 X-27.23 Z16.16
 X-27.17 Z16.14
 X-27.11 Z16.12
 X-26.98 Z16.07
 X-26.73 Z15.95
 X-26.48 Z15.80
 X-26.36 Z15.73
 X-26.29 Z15.68
 X-26.23 Z15.64
 X-25.98 Z15.43
 X-25.73 Z15.20
 X-25.48 Z14.96
 X-25.23 Z14.73
 X-24.98 Z14.48
 X-24.73 Z14.24
 X-24.48 Z14.01
 X-24.23 Z13.77
 X-24.11 Z13.66
 X-23.98 Z13.55
 X-23.73 Z13.37
 X-23.48 Z13.19
 X-23.23 Z13.01
 X-22.98 Z12.84
 X-22.73 Z12.67
 X-22.61 Z12.58
 X-22.48 Z12.48
 X-22.42 Z12.43
 X-22.39 Z12.41
 X-22.36 Z12.38
 X-22.30 Z12.32
 X-22.23 Z12.26
 X-22.17 Z12.19
 X-22.11 Z12.12
 X-22.08 Z12.08
 X-22.05 Z12.04
 X-21.98 Z11.94
 X-21.74 Z11.45
 X-21.49 Z10.90
 X-21.24 Z10.35
 X-20.99 Z9.78
 X-20.86 Z9.49
 X-20.74 Z9.22
 X-20.49 Z8.77
 X-20.24 Z8.31
 X-19.99 Z7.81
 X-19.74 Z7.31
 X-19.49 Z6.84
 X-19.24 Z6.41
 X-19.11 Z6.21
 X-18.99 Z6.04
 X-18.86 Z5.89
 X-18.74 Z5.75
 X-18.61 Z5.62
 X-18.55 Z5.57
 X-18.49 Z5.52
 X-18.42 Z5.47
 X-18.36 Z5.42
 X-18.24 Z5.35
 X-17.99 Z5.22
 X-17.74 Z5.12
 X-17.49 Z5.00
 X-17.24 Z4.88
 X-16.99 Z4.75
 X-16.74 Z4.63
 X-16.49 Z4.50
 X-16.24 Z4.37
 X-15.99 Z4.24
 X-15.74 Z4.12
 X-15.49 Z4.00
 X-15.24 Z3.87
 X-14.99 Z3.76
 X-14.74 Z3.66
 X-14.49 Z3.55
 X-14.43 Z3.51
 X-14.40 Z3.50
 X-14.38 Z3.48
 X-14.37
 Z3.47
 X-14.33 Z3.45
 X-14.32 Z3.44
 X-14.30
 X-14.27
 X-14.24
 X-13.99 Z3.40
 X-13.74 Z3.34
 X-13.62 Z3.32
 X-13.55 Z3.30
 X-13.52
 X-13.49 Z3.29
 X-13.37 Z3.28
 X-13.24 Z3.27
 X-12.99 Z3.22
 X-12.93 Z3.21
 X-12.90 Z3.20
 X-12.88 Z3.19
 X-12.87
 X-12.74 Z3.20
 X-12.49 Z3.22
 X-12.24 Z3.23
 X-11.99
 X-11.74 Z3.25
 X-11.49 Z3.26
 X-11.24 Z3.27
 X-11.18
 X-11.15
 X-11.13
 X-11.12
 X-11.09
 X-11.07
 X-11.06 Z3.26
 X-11.05
 X-10.99 Z3.28
 X-10.74 Z3.35
 X-10.49 Z3.42
 X-10.24 Z3.48
 X-9.99 Z3.53
 X-9.87 Z3.56
 X-9.81 Z3.58
 X-9.74 Z3.59
 X-9.49 Z3.69
 X-9.37 Z3.75
 X-9.24 Z3.81
 X-9.12 Z3.89
 X-8.99 Z3.97
 X-8.74 Z4.15
 X-8.49 Z4.37
 X-8.24 Z4.62
 X-8.12 Z4.76
 X-7.99 Z4.90
 X-7.74 Z5.24
 X-7.49 Z5.61
 X-7.25 Z6.00
 X-7.00 Z6.46
 X-6.75 Z6.96
 X-6.50 Z7.50
 X-6.25 Z8.05
 X-6.00 Z8.59
 X-5.75 Z9.09
 X-5.50 Z9.55
 X-5.25 Z9.97
 X-5.00 Z10.35
 X-4.87 Z10.52
 X-4.81 Z10.60
 X-4.78 Z10.64
 X-4.76 Z10.66
 X-4.75 Z10.68
 X-4.50 Z10.93
 X-4.25 Z11.13
 X-4.12 Z11.22
 X-4.06 Z11.26
 X-4.03 Z11.28
 X-4.00 Z11.30
 X-3.75 Z11.42
 X-3.50 Z11.53
 X-3.25 Z11.63
 X-3.00 Z11.72
 X-2.75 Z11.82
 X-2.50 Z11.91
 X-2.25 Z11.99
 X-2.00 Z12.07
 X-1.75 Z12.16
 X-1.50 Z12.24
 X-1.25 Z12.32
 X-1.00 Z12.42
 X-0.75 Z12.50
 X-0.50 Z12.58
 X-0.31 Z12.63
 X-0.28 Z12.64
 X-0.25 Z12.65
 X0.00 Z12.68
G0 Z25.00
 Y-16.26
G1 Z12.76
 X-0.06
 X-0.12
 X-0.19
 X-0.22
 X-0.25
 X-0.31 Z12.75
 X-0.34 Z12.74
 X-0.37 Z12.73
 X-0.50 Z12.69
 X-0.75 Z12.59
 X-1.00 Z12.49
 X-1.25 Z12.39
 X-1.50 Z12.28
 X-1.75 Z12.17
 X-2.00 Z12.08
 X-2.25 Z11.98
 X-2.50 Z11.89
 X-2.75 Z11.79
 X-3.00 Z11.69
 X-3.25 Z11.57
 X-3.50 Z11.47
 X-3.62 Z11.40
 X-3.68 Z11.37
 X-3.72 Z11.36
 X-3.75 Z11.34
 X-3.87 Z11.27
 X-4.00 Z11.18
 X-4.06 Z11.13
 X-4.12 Z11.09
 X-4.25 Z10.97
 X-4.37 Z10.84
 X-4.48 Z10.74
 X-4.50 Z10.72
 X-4.62 Z10.57
 X-4.75 Z10.40
 X-5.00 Z10.01
 X-5.25 Z9.59
 X-5.50 Z9.12
 X-5.75 Z8.62
 X-6.00 Z8.06
 X-6.25 Z7.47
 X-6.50 Z6.86
 X-6.75 Z6.29
 X-6.87 Z6.03
 X-7.00 Z5.74
 X-7.25 Z5.33
 X-7.49 Z4.98
 X-7.68 Z4.72
 X-7.74 Z4.64
 X-7.99 Z4.38
 X-8.12 Z4.26
 X-8.24 Z4.14
 X-8.37 Z4.03
 X-8.49 Z3.94
 X-8.56 Z3.89
 X-8.59 Z3.87
 X-8.74 Z3.79
 X-8.87 Z3.73
 X-8.93 Z3.70
 X-8.96 Z3.68
 X-8.99 Z3.67
 X-9.24 Z3.60
 X-9.49 Z3.55
 X-9.74 Z3.50
 X-9.99 Z3.45
 X-10.24 Z3.40
 X-10.37 Z3.39
 X-10.43 Z3.38
 X-10.46 Z3.37
 X-10.49
 X-10.56 Z3.35
 X-10.59
 X-10.62 Z3.34
 X-10.68 Z3.31
 X-10.71 Z3.30
 X-10.73
 Z3.29
 X-10.74
 X-10.99 Z3.27
 X-11.24 Z3.26
 X-11.49 Z3.24
 X-11.74 Z3.22
 X-11.99 Z3.21
 X-12.24
 X-12.49 Z3.20
 X-12.74 Z3.21
 X-12.99 Z3.23
 X-13.24 Z3.26
 X-13.49 Z3.30
 X-13.62 Z3.31
 X-13.68 Z3.32
 X-13.71
 X-13.73
 X-13.74
 X-13.99 Z3.37
 X-14.12 Z3.39
 X-14.18 Z3.40
 X-14.21 Z3.41
 X-14.22
 X-14.23
 X-14.24 Z3.42
 X-14.49 Z3.53
 X-14.74 Z3.63
 X-14.99 Z3.73
 X-15.24 Z3.85
 X-15.49 Z3.97
 X-15.74 Z4.09
 X-15.99 Z4.22
 X-16.24 Z4.34
 X-16.49 Z4.47
 X-16.74 Z4.60
 X-16.99 Z4.72
 X-17.24 Z4.85
 X-17.49 Z4.97
 X-17.74 Z5.08
 X-17.99 Z5.18
 X-18.24 Z5.28
 X-18.49 Z5.37
 X-18.61 Z5.43
 X-18.67 Z5.46
 X-18.74 Z5.49
 X-18.99 Z5.65
 X-19.11 Z5.74
 X-19.24 Z5.83
 X-19.30 Z5.88
 X-19.33 Z5.91
 X-19.36 Z5.94
 X-19.42 Z6.00
 X-19.49 Z6.07
 X-19.61 Z6.23
 X-19.67 Z6.32
 X-19.74 Z6.42
 X-19.99 Z6.90
 X-20.24 Z7.39
 X-20.49 Z7.89
 X-20.74 Z8.43
 X-20.99 Z9.02
 X-21.24 Z9.61
 X-21.49 Z10.22
 X-21.74 Z10.82
 X-21.98 Z11.44
 X-22.11 Z11.72
 X-22.17 Z11.85
 X-22.20 Z11.91
 X-22.23 Z11.96
 X-22.30 Z12.07
 X-22.33 Z12.11
 X-22.36 Z12.15
 X-22.48 Z12.29
 X-22.61 Z12.42
 X-22.67 Z12.48
 X-22.73 Z12.54
 X-22.98 Z12.73
 X-23.23 Z12.93
 X-23.48 Z13.12
 X-23.73 Z13.32
 X-23.86 Z13.41
 X-23.92 Z13.46
 X-23.98 Z13.50
 X-24.23 Z13.74
 X-24.48 Z13.99
 X-24.73 Z14.24
 X-24.98 Z14.49
 X-25.23 Z14.75
 X-25.48 Z14.99
 X-25.73 Z15.25
 X-25.98 Z15.50
 X-26.11 Z15.61
 X-26.23 Z15.71
 X-26.48 Z15.88
 X-26.61 Z15.95
 X-26.73 Z16.03
 X-26.98 Z16.14
 X-27.23 Z16.24
 X-27.48 Z16.31
 X-27.67 Z16.39
 X-27.70 Z16.40
 X-27.72
 X-27.73 Z16.41
 X-27.79 Z16.42
 X-27.86 Z16.44
 X-27.98 Z16.45
 X-28.11 Z16.46
 X-28.17 Z16.47
 X-28.23
 X-28.36 Z16.48
 X-28.48 Z16.47
 X-28.73 Z16.44
 X-28.98 Z16.39
 X-29.04 Z16.38
 X-29.11 Z16.36
 X-29.17 Z16.34
 X-29.23 Z16.32
 X-29.48 Z16.20
 X-29.73 Z16.06
 X-29.98 Z15.90
 X-30.23 Z15.71
 X-30.48 Z15.52
 X-30.73 Z15.34
 X-30.98 Z15.14
 X-31.23 Z14.95
 X-31.48 Z14.75
 X-31.73 Z14.59
 X-31.98 Z14.44
 X-32.23 Z14.29
 X-32.48 Z14.16
 X-32.73 Z14.02
 X-32.98 Z13.87
 X-33.23 Z13.73
 X-33.48 Z13.59
 X-33.73 Z13.48
 X-33.98 Z13.39
 X-34.23 Z13.31
 X-34.35 Z13.28
 X-34.41 Z13.26
 X-34.48 Z13.25
 X-34.73 Z13.23
 X-34.98
 X-35.23 Z13.21
 X-35.48 Z13.18
 X-35.73 Z13.14
 X-35.85 Z13.12
 X-35.91 Z13.11
 X-35.94 Z13.10
 X-35.96
 X-35.97
 X-35.98
 X-36.04 Z13.09
 X-36.07
 X-36.08
 X-36.10
 X-36.13
 X-36.15
 X-36.16
 X-36.18
 X-36.19
 X-36.23 Z13.10
 X-36.48 Z13.24
 X-36.72 Z13.37
 X-36.97 Z13.47
 X-37.22 Z13.57
 X-37.47 Z13.67
 X-37.72 Z13.76
 X-37.97 Z13.86
 X-38.22 Z13.96
 X-38.47 Z14.04
 X-38.72 Z14.12
 X-38.97 Z14.17
 X-39.22 Z14.22
 X-39.35 Z14.24
 X-39.41 Z14.26
 X-39.44 Z14.27
 X-39.47
 X-39.54 Z14.28
 X-39.60 Z14.29
 X-39.72
 X-39.97
 X-40.10 Z14.28
 X-40.22 Z14.26
 X-40.47 Z14.22
 X-40.72 Z14.17
 X-40.97 Z14.10
 X-41.22 Z14.03
 X-41.47 Z13.95
 X-41.72 Z13.85
 X-41.97 Z13.75
 X-42.22 Z13.62
 X-42.47 Z13.47
 X-42.60 Z13.39
 X-42.72 Z13.32
 X-42.97 Z13.20
 X-43.22 Z13.11
 X-43.47 Z13.03
 X-43.72 Z12.95
 X-43.97 Z12.87
G0 Z25.00
 Y-16.06
G1 Z13.00
 X-43.72 Z13.11
 X-43.47 Z13.19
 X-43.22 Z13.28
 X-42.97 Z13.37
 X-42.91 Z13.40
 X-42.85 Z13.43
 X-42.72 Z13.49
 X-42.47 Z13.64
 X-42.22 Z13.79
 X-41.97 Z13.91
 X-41.72 Z14.02
 X-41.47 Z14.11
 X-41.22 Z14.19
 X-40.97 Z14.26
 X-40.72 Z14.31
 X-40.47 Z14.36
 X-40.35 Z14.39
 X-40.22 Z14.41
 X-39.97 Z14.43
 X-39.85 Z14.44
 X-39.79
 X-39.75
 X-39.72
 X-39.66
 X-39.60 Z14.43
 X-39.47 Z14.41
 X-39.22 Z14.35
 X-38.97 Z14.28
 X-38.72 Z14.22
 X-38.47 Z14.14
 X-38.22 Z14.04
 X-37.97 Z13.93
 X-37.72 Z13.82
 X-37.47 Z13.73
 X-37.22 Z13.64
 X-36.97 Z13.53
 X-36.72 Z13.41
 X-36.48 Z13.28
 X-36.35 Z13.20
 X-36.29 Z13.16
 X-36.16 Z13.09
 X-36.15 Z13.08
 X-36.13
 X-36.10 Z13.09
 X-35.98 Z13.10
 X-35.73 Z13.15
 X-35.48 Z13.20
 X-35.35 Z13.23
 X-35.23 Z13.24
 X-34.98 Z13.25
 X-34.73 Z13.27
 X-34.60 Z13.28
 X-34.48 Z13.29
 X-34.35 Z13.30
 X-34.23 Z13.33
 X-33.98 Z13.41
 X-33.73 Z13.50
 X-33.48 Z13.61
 X-33.23 Z13.74
 X-32.98 Z13.87
 X-32.73 Z14.02
 X-32.48 Z14.15
 X-32.23 Z14.28
 X-31.98 Z14.42
 X-31.73 Z14.56
 X-31.48 Z14.73
 X-31.23 Z14.91
 X-30.98 Z15.11
 X-30.73 Z15.30
 X-30.48 Z15.50
 X-30.23 Z15.70
 X-29.98 Z15.90
 X-29.73 Z16.07
 X-29.60 Z16.15
 X-29.54 Z16.19
 X-29.48 Z16.23
 X-29.23 Z16.34
 X-29.11 Z16.39
 X-29.04 Z16.42
 X-28.98 Z16.43
 X-28.73 Z16.49
 X-28.61 Z16.50
 X-28.54 Z16.51
 X-28.48 Z16.52
 X-28.42 Z16.53
 X-28.36
 X-28.23
 X-28.11 Z16.52
 X-28.04
 X-27.98 Z16.51
 X-27.92
 X-27.89 Z16.50
 X-27.86
 X-27.79 Z16.49
 X-27.73 Z16.47
 X-27.48 Z16.38
 X-27.23 Z16.30
 X-27.17 Z16.28
 X-27.11 Z16.26
 X-26.98 Z16.21
 X-26.86 Z16.15
 X-26.73 Z16.09
 X-26.48 Z15.94
 X-26.36 Z15.86
 X-26.23 Z15.76
 X-25.98 Z15.54
 X-25.73 Z15.29
 X-25.48 Z15.01
 X-25.23 Z14.75
 X-24.98 Z14.49
 X-24.73 Z14.22
 X-24.48 Z13.96
 X-24.23 Z13.69
 X-23.98 Z13.46
 X-23.73 Z13.26
 X-23.48 Z13.04
 X-23.23 Z12.83
 X-22.98 Z12.60
 X-22.86 Z12.48
 X-22.80 Z12.41
 X-22.73 Z12.34
 X-22.61 Z12.18
 X-22.58 Z12.14
 X-22.55 Z12.09
 X-22.48 Z11.98
 X-22.23 Z11.43
 X-21.98 Z10.74
 X-21.74 Z10.03
 X-21.49 Z9.32
 X-21.24 Z8.66
 X-20.99 Z7.99
 X-20.74 Z7.45
 X-20.49 Z6.95
 X-20.36 Z6.73
 X-20.24 Z6.54
 X-20.11 Z6.36
 X-20.05 Z6.28
 X-20.02 Z6.24
 X-19.99 Z6.20
 X-19.86 Z6.09
 X-19.74 Z5.99
 X-19.61 Z5.91
 X-19.49 Z5.82
 X-19.24 Z5.69
 X-18.99 Z5.57
 X-18.74 Z5.46
 X-18.49 Z5.36
 X-18.24 Z5.27
 X-17.99 Z5.17
 X-17.74 Z5.06
 X-17.49 Z4.95
 X-17.24 Z4.82
 X-16.99 Z4.70
 X-16.74 Z4.58
 X-16.49 Z4.45
 X-16.24 Z4.33
 X-15.99 Z4.20
 X-15.74 Z4.07
 X-15.49 Z3.94
 X-15.24 Z3.82
 X-14.99 Z3.70
 X-14.74 Z3.61
 X-14.49 Z3.53
 X-14.24 Z3.45
 X-13.99 Z3.39
 X-13.74 Z3.33
 X-13.49 Z3.29
 X-13.24 Z3.26
 X-13.12 Z3.24
 X-12.99 Z3.22
 X-12.74 Z3.21
 X-12.49 Z3.20
 X-12.24 Z3.19
 X-11.99 Z3.20
 X-11.74
 X-11.49 Z3.22
 X-11.24 Z3.24
 X-10.99 Z3.27
 X-10.74 Z3.29
 X-10.49 Z3.34
 X-10.24 Z3.37
 X-9.99 Z3.41
 X-9.74 Z3.45
 X-9.49 Z3.49
 X-9.24 Z3.53
 X-8.99 Z3.58
 X-8.74 Z3.63
 X-8.49 Z3.70
 X-8.37 Z3.74
 X-8.31 Z3.76
 X-8.28 Z3.77
 X-8.19 Z3.80
 X-8.18
 X-8.15 Z3.82
 X-8.12 Z3.84
 X-8.06 Z3.87
 X-7.99 Z3.91
 X-7.87 Z4.01
 X-7.74 Z4.12
 X-7.49 Z4.37
 X-7.25 Z4.67
 X-7.12 Z4.83
 X-7.00 Z5.02
 X-6.87 Z5.24
 X-6.75 Z5.48
 X-6.50 Z6.09
 X-6.25 Z6.73
 X-6.00 Z7.39
 X-5.75 Z8.07
 X-5.50 Z8.64
 X-5.25 Z9.15
 X-5.00 Z9.62
 X-4.75 Z10.05
 X-4.56 Z10.36
 X-4.50 Z10.46
 X-4.37 Z10.62
 X-4.31 Z10.70
 X-4.28 Z10.74
 X-4.25 Z10.78
 X-4.12 Z10.91
 X-4.06 Z10.97
 X-4.03 Z11.00
 X-4.00 Z11.03
 X-3.87 Z11.14
 X-3.75 Z11.23
 X-3.62 Z11.31
 X-3.50 Z11.39
 X-3.25 Z11.52
 X-3.00 Z11.63
 X-2.75 Z11.75
 X-2.50 Z11.86
 X-2.25 Z11.97
 X-2.00 Z12.07
 X-1.75 Z12.18
 X-1.56 Z12.26
 X-1.50 Z12.29
 X-1.25 Z12.43
 X-1.00 Z12.55
 X-0.87 Z12.60
 X-0.75 Z12.65
 X-0.62 Z12.72
 X-0.56 Z12.76
 X-0.53 Z12.77
 X-0.50 Z12.79
 X-0.44 Z12.81
 X-0.37 Z12.83
 X-0.31 Z12.85
 X-0.28 Z12.86
 X-0.25 Z12.87
 X0.00 Z12.88
G0 Z25.00
 Y-15.86
G1 Z12.99
 X-0.06
 X-0.09
 X-0.12
 X-0.19 Z12.98
 X-0.22 Z12.97
 X-0.23
 X-0.25
 X-0.31 Z12.95
 X-0.34 Z12.94
 X-0.37 Z12.93
 X-0.44 Z12.90
 X-0.50 Z12.87
 X-0.62 Z12.80
 X-0.69 Z12.75
 X-0.75 Z12.71
 X-1.00 Z12.59
 X-1.25 Z12.45
 X-1.50 Z12.30
 X-1.75 Z12.18
 X-2.00 Z12.07
 X-2.25 Z11.95
 X-2.50 Z11.83
 X-2.75 Z11.71
 X-3.00 Z11.58
 X-3.12 Z11.52
 X-3.25 Z11.45
 X-3.50 Z11.28
 X-3.62 Z11.19
 X-3.68 Z11.15
 X-3.72 Z11.12
 X-3.75 Z11.10
 X-3.87 Z10.98
 X-4.00 Z10.84
 X-4.06 Z10.78
 X-4.09 Z10.74
 X-4.12 Z10.71
 X-4.25 Z10.53
 X-4.50 Z10.10
 X-4.75 Z9.65
 X-5.00 Z9.17
 X-5.25 Z8.65
 X-5.50 Z8.04
 X-5.75 Z7.30
 X-6.00 Z6.51
 X-6.25 Z5.80
 X-6.37 Z5.45
 X-6.43 Z5.28
 X-6.50 Z5.15
 X-6.62 Z4.89
 X-6.68 Z4.78
 X-6.75 Z4.68
 X-6.87 Z4.51
 X-7.00 Z4.35
 X-7.12 Z4.22
 X-7.25 Z4.11
 X-7.43 Z3.94
 X-7.45 Z3.93
 X-7.46 Z3.92
 X-7.49 Z3.90
 X-7.62 Z3.84
 X-7.74 Z3.79
 X-7.99 Z3.72
 X-8.24 Z3.65
 X-8.49 Z3.60
 X-8.74 Z3.56
 X-8.99 Z3.52
 X-9.24 Z3.48
 X-9.49 Z3.45
 X-9.74 Z3.41
 X-10.24 Z3.35
 X-10.49 Z3.31
 X-10.74 Z3.28
 X-10.99 Z3.25
 X-11.24 Z3.23
 X-11.49 Z3.21
 X-11.74 Z3.19
 X-11.99
 X-12.24
 X-12.49 Z3.20
 X-12.74 Z3.21
 X-12.99
 X-13.05
 X-13.08 Z3.20
 X-13.10
 X-13.11
 X-13.12
 X-13.24 Z3.22
 X-13.37 Z3.24
 X-13.43 Z3.25
 X-13.49
 X-13.74 Z3.32
 X-13.99 Z3.39
 X-14.24 Z3.45
 X-14.49 Z3.52
 X-14.74 Z3.61
 X-14.99 Z3.70
 X-15.24 Z3.80
 X-15.49 Z3.92
 X-15.74 Z4.05
 X-15.99 Z4.18
 X-16.24 Z4.32
 X-16.49 Z4.44
 X-16.74 Z4.57
 X-16.99 Z4.69
 X-17.24 Z4.82
 X-17.49 Z4.94
 X-17.74 Z5.06
 X-17.99 Z5.17
 X-18.24 Z5.27
 X-18.49 Z5.37
 X-18.74 Z5.46
 X-18.99 Z5.56
 X-19.24 Z5.67
 X-19.49 Z5.79
 X-19.74 Z5.93
 X-19.99 Z6.06
 X-20.11 Z6.13
 X-20.17 Z6.17
 X-20.24 Z6.21
 X-20.33 Z6.27
 X-20.36 Z6.29
 X-20.42 Z6.34
 X-20.45 Z6.37
 X-20.49 Z6.40
 X-20.61 Z6.54
 X-20.74 Z6.71
 X-20.86 Z6.89
 X-20.92 Z6.98
 X-20.99 Z7.08
 X-21.24 Z7.59
 X-21.49 Z8.18
 X-21.74 Z8.92
 X-21.98 Z9.69
 X-22.23 Z10.55
 X-22.48 Z11.37
 X-22.61 Z11.73
 X-22.64 Z11.82
 X-22.67 Z11.89
 X-22.73 Z12.00
 X-22.80 Z12.13
 X-22.83 Z12.18
 X-22.86 Z12.24
 X-22.92 Z12.33
 X-22.98 Z12.41
 X-23.23 Z12.69
 X-23.48 Z12.94
 X-23.73 Z13.17
 X-23.98 Z13.40
 X-24.23 Z13.64
 X-24.48 Z13.92
 X-24.73 Z14.19
 X-24.98 Z14.47
 X-25.23 Z14.75
 X-25.48 Z15.03
 X-25.73 Z15.31
 X-25.86 Z15.45
 X-25.98 Z15.58
 X-26.23 Z15.80
 X-26.36 Z15.90
 X-26.48 Z15.99
 X-26.61 Z16.07
 X-26.73 Z16.14
 X-26.86 Z16.21
 X-26.92 Z16.24
 X-26.98 Z16.27
 X-27.23 Z16.36
 X-27.48 Z16.43
 X-27.61 Z16.47
 X-27.73 Z16.51
 X-27.79 Z16.52
 X-27.86 Z16.54
 X-27.98 Z16.55
 X-28.11 Z16.56
 X-28.23
 X-28.48 Z16.55
 X-28.73 Z16.52
 X-28.79 Z16.51
 X-28.86 Z16.49
 X-28.92 Z16.48
 X-28.95 Z16.47
 X-28.98 Z16.46
 X-29.23 Z16.35
 X-29.35 Z16.29
 X-29.42 Z16.26
 X-29.48 Z16.23
 X-29.73 Z16.06
 X-29.98 Z15.89
 X-30.23 Z15.68
 X-30.48 Z15.47
 X-30.73 Z15.26
 X-30.98 Z15.07
 X-31.23 Z14.86
 X-31.48 Z14.69
 X-31.73 Z14.53
 X-31.98 Z14.38
 X-32.23 Z14.25
 X-32.48 Z14.13
 X-32.73 Z14.00
 X-32.98 Z13.87
 X-33.23 Z13.73
 X-33.48 Z13.61
 X-33.73 Z13.50
 X-33.98 Z13.41
 X-34.23 Z13.34
 X-34.29 Z13.33
 X-34.32 Z13.32
 X-34.35 Z13.31
 X-34.40 Z13.30
 X-34.41
 X-34.48 Z13.29
 X-34.73
 X-34.98 Z13.28
 X-35.23 Z13.26
 X-35.48 Z13.23
 X-35.73 Z13.17
 X-35.85 Z13.13
 X-35.88 Z13.12
 X-35.91 Z13.11
 X-35.94 Z13.10
 X-36.09 Z13.07
 X-36.10
 X-36.23 Z13.14
 X-36.48 Z13.30
 X-36.72 Z13.44
 X-36.97 Z13.56
 X-37.22 Z13.67
 X-37.47 Z13.77
 X-37.72 Z13.88
 X-37.97 Z13.98
 X-38.22 Z14.10
 X-38.35 Z14.16
 X-38.47 Z14.22
 X-38.72 Z14.30
 X-38.97 Z14.39
 X-39.22 Z14.46
 X-39.35 Z14.49
 X-39.47 Z14.52
 X-39.60 Z14.54
 X-39.66 Z14.55
 X-39.69
 X-39.72 Z14.56
 X-39.79
 X-39.85
 X-39.97 Z14.55
 X-40.22 Z14.52
 X-40.47 Z14.49
 X-40.72 Z14.45
 X-40.97 Z14.40
 X-41.22 Z14.34
 X-41.47 Z14.27
 X-41.72 Z14.18
 X-41.97 Z14.07
 X-42.10 Z14.02
 X-42.22 Z13.96
 X-42.47 Z13.81
 X-42.72 Z13.67
 X-42.97 Z13.54
 X-43.22 Z13.43
 X-43.47 Z13.34
 X-43.72 Z13.25
 X-43.97 Z13.14
G0 Z25.00
 Y-15.66
G1 Z13.24
 X-43.85 Z13.31
 X-43.72 Z13.38
 X-43.47 Z13.48
 X-43.22 Z13.58
 X-42.97 Z13.70
 X-42.72 Z13.83
 X-42.47 Z13.98
 X-42.22 Z14.10
 X-41.97 Z14.22
 X-41.85 Z14.28
 X-41.72 Z14.33
 X-41.47 Z14.40
 X-41.35 Z14.43
 X-41.28 Z14.45
 X-41.22 Z14.47
 X-40.97 Z14.52
 X-40.72 Z14.56
 X-40.47 Z14.60
 X-40.22 Z14.63
 X-39.97 Z14.65
 X-39.85 Z14.66
 X-39.79
 X-39.75
 X-39.72
 X-39.60 Z14.64
 X-39.54 Z14.63
 X-39.47 Z14.62
 X-39.22 Z14.54
 X-38.97 Z14.46
 X-38.72 Z14.37
 X-38.47 Z14.27
 X-38.22 Z14.16
 X-37.97 Z14.03
 X-37.72 Z13.91
 X-37.47 Z13.80
 X-37.22 Z13.69
 X-36.97 Z13.58
 X-36.72 Z13.47
 X-36.60 Z13.40
 X-36.48 Z13.33
 X-36.41 Z13.29
 X-36.35 Z13.25
 X-36.29 Z13.20
 X-36.26 Z13.18
 X-36.23 Z13.15
 X-36.16 Z13.10
 X-36.10 Z13.05
 X-36.09
 X-36.05
 X-36.04 Z13.06
 X-35.98 Z13.07
 X-35.73 Z13.17
 X-35.60 Z13.21
 X-35.54 Z13.23
 X-35.48 Z13.25
 X-35.23 Z13.29
 X-35.10 Z13.30
 X-34.98 Z13.31
 X-34.73 Z13.30
 X-34.60
 X-34.54
 X-34.51 Z13.29
 X-34.48 Z13.30
 X-34.41
 X-34.38
 X-34.36
 X-34.35
 X-34.23 Z13.33
 X-34.04 Z13.38
 X-33.98 Z13.40
 X-33.73 Z13.49
 X-33.48 Z13.59
 X-33.23 Z13.72
 X-32.98 Z13.85
 X-32.73 Z13.97
 X-32.48 Z14.09
 X-32.23 Z14.22
 X-31.98 Z14.34
 X-31.73 Z14.47
 X-31.48 Z14.62
 X-31.23 Z14.80
 X-30.98 Z15.01
 X-30.73 Z15.21
 X-30.48 Z15.43
 X-30.23 Z15.64
 X-29.98 Z15.85
 X-29.73 Z16.05
 X-29.51 Z16.20
 X-29.48 Z16.22
 X-29.23 Z16.34
 X-29.11 Z16.40
 X-29.04 Z16.43
 X-28.98 Z16.46
 X-28.86 Z16.49
 X-28.73 Z16.53
 X-28.61 Z16.55
 X-28.48 Z16.57
 X-28.23 Z16.59
 X-28.11
 X-28.04
 X-28.01
 X-27.98
 X-27.73 Z16.54
 X-27.48 Z16.47
 X-27.23 Z16.39
 X-26.98 Z16.30
 X-26.86 Z16.24
 X-26.79 Z16.21
 X-26.76 Z16.20
 X-26.73 Z16.18
 X-26.48 Z16.02
 X-26.23 Z15.83
 X-26.11 Z15.72
 X-25.98 Z15.60
 X-25.73 Z15.31
 X-25.48 Z15.01
 X-25.23 Z14.73
 X-24.98 Z14.44
 X-24.73 Z14.16
 X-24.48 Z13.87
 X-24.23 Z13.58
 X-23.98 Z13.33
 X-23.73 Z13.08
 X-23.48 Z12.81
 X-23.36 Z12.66
 X-23.30 Z12.58
 X-23.27 Z12.54
 X-23.25 Z12.52
 X-23.23 Z12.50
 X-23.17 Z12.41
 X-23.11 Z12.31
 X-23.05 Z12.18
 X-22.98 Z12.05
 X-22.73 Z11.28
 X-22.48 Z10.24
 X-22.23 Z9.23
 X-21.98 Z8.44
 X-21.86 Z8.09
 X-21.74 Z7.78
 X-21.67 Z7.64
 X-21.61 Z7.50
 X-21.49 Z7.29
 X-21.36 Z7.11
 X-21.24 Z6.94
 X-21.11 Z6.79
 X-21.02 Z6.70
 X-20.99 Z6.67
 X-20.86 Z6.56
 X-20.74 Z6.47
 X-20.49 Z6.30
 X-20.24 Z6.17
 X-19.99 Z6.04
 X-19.74 Z5.91
 X-19.49 Z5.79
 X-19.24 Z5.68
 X-18.99 Z5.58
 X-18.74 Z5.49
 X-18.49 Z5.39
 X-18.24 Z5.28
 X-17.99 Z5.17
 X-17.74 Z5.06
 X-17.49 Z4.94
 X-17.24 Z4.81
 X-16.99 Z4.69
 X-16.74 Z4.57
 X-16.49 Z4.44
 X-16.24 Z4.30
 X-15.99 Z4.17
 X-15.74 Z4.04
 X-15.49 Z3.91
 X-15.24 Z3.80
 X-14.99 Z3.70
 X-14.74 Z3.61
 X-14.49 Z3.52
 X-14.24 Z3.45
 X-13.99 Z3.38
 X-13.87 Z3.35
 X-13.74 Z3.30
 X-13.62 Z3.25
 X-13.55 Z3.22
 X-13.54 Z3.21
 X-13.53
 X-13.52
 X-13.51 Z3.20
 X-13.50 Z3.19
 X-13.49
 X-13.43 Z3.21
 X-13.40 Z3.22
 X-13.37
 X-13.30 Z3.23
 X-13.24 Z3.24
 X-12.99 Z3.23
 X-12.74 Z3.21
 X-12.49 Z3.20
 X-12.24 Z3.19
 X-11.99
 X-11.74
 X-11.49 Z3.21
 X-11.24 Z3.23
 X-10.99 Z3.25
 X-10.74 Z3.27
 X-10.49 Z3.30
 X-10.24 Z3.32
 X-9.99 Z3.35
 X-9.74 Z3.38
 X-9.49 Z3.41
 X-9.24 Z3.43
 X-8.99 Z3.47
 X-8.74 Z3.50
 X-8.49 Z3.53
 X-8.24 Z3.57
 X-7.99 Z3.62
 X-7.74 Z3.68
 X-7.49 Z3.74
 X-7.25 Z3.83
 X-7.18 Z3.85
 X-7.13 Z3.87
 X-7.12
 X-7.00 Z3.94
 X-6.87 Z4.03
 X-6.81 Z4.07
 X-6.75 Z4.12
 X-6.62 Z4.23
 X-6.59 Z4.26
 X-6.56 Z4.29
 X-6.50 Z4.37
 X-6.43 Z4.45
 X-6.40 Z4.49
 X-6.34 Z4.56
 X-6.32 Z4.59
 X-6.31 Z4.61
 X-6.28 Z4.67
 X-6.25 Z4.73
 X-6.12 Z5.01
 X-6.00 Z5.36
 X-5.75 Z6.23
 X-5.50 Z7.18
 X-5.25 Z8.01
 X-5.00 Z8.65
 X-4.75 Z9.21
 X-4.50 Z9.69
 X-4.25 Z10.16
 X-4.12 Z10.39
 X-4.00 Z10.59
 X-3.87 Z10.77
 X-3.81 Z10.85
 X-3.78 Z10.89
 X-3.75 Z10.93
 X-3.50 Z11.16
 X-3.25 Z11.35
 X-3.00 Z11.52
